; generated by Slic3r 1.2.9 on 2016-11-23 at 18:13:06

; external perimeters extrusion width = 0.50mm
; perimeters extrusion width = 0.85mm
; infill extrusion width = 0.87mm
; solid infill extrusion width = 0.85mm
; top infill extrusion width = 0.85mm

M107
G21 ; set units to millimeters
G90 ; use absolute coordinates
M83 ; use relative distances for extrusion
G10 P2 S185 R0 ; Set extruder temperature
T2
M116; Wait for all temperatures

G21 ; set units to millimeters
G90 ; use absolute coordinates
M83 ; use relative distances for extrusion
G1 E-4.00000 F1800.00000
G1 Z0.300 F6000.000
G1 X86.961 Y62.641 F6000.000
G1 E4.00000 F1800.00000
G1 X88.478 Y60.769 E0.19672 F900.000
G1 X90.522 Y59.492 E0.19672
G1 X93.320 Y58.935 E0.23287
G1 X115.320 Y58.935 E1.79592
G1 X117.697 Y59.332 E0.19672
G1 X119.815 Y60.481 E0.19672 F900.000
G1 X121.181 Y61.877 E0.15945
G1 X129.348 Y72.839 E1.11593
G1 X130.450 Y74.983 E0.19672
G1 X130.796 Y77.206 E0.18370
G1 X130.796 Y132.706 E4.53061
G1 X130.399 Y135.083 E0.19672
G1 X129.250 Y137.201 E0.19672
G1 X127.475 Y138.831 E0.19672
G1 X124.125 Y139.987 E0.28926
G1 X112.151 Y141.037 E0.98122
G1 X111.513 Y141.065 E0.05217
G1 X86.513 Y141.065 E2.04082
G1 X84.136 Y140.668 E0.19672
G1 X82.018 Y139.519 E0.19672
G1 X80.388 Y137.744 E0.19672
G1 X79.424 Y135.535 E0.19672
G1 X79.204 Y133.756 E0.14636
G1 X79.204 Y78.256 E4.53061
G1 X79.601 Y75.879 E0.19672
G1 X80.154 Y74.653 E0.10982
G1 X86.924 Y62.706 E1.12094
G1 X87.493 Y63.029 F6000.000
G1 X87.530 Y62.963 E0.00612 F900.000
G1 X88.992 Y61.189 E0.18764
G1 X90.970 Y60.018 E0.18764
G1 X93.320 Y59.590 E0.19500
G1 X115.320 Y59.590 E1.79592
G1 X117.584 Y59.986 E0.18764
G1 X119.578 Y61.130 E0.18764 F900.000
G1 X120.656 Y62.268 E0.12798
G1 X128.823 Y73.230 E1.11593
G1 X129.858 Y75.283 E0.18764
G1 X130.142 Y77.206 E0.15868
G1 X130.142 Y132.706 E4.53061
G1 X129.745 Y134.970 E0.18764
G1 X128.601 Y136.964 E0.18764
G1 X126.847 Y138.450 E0.18764
G1 X124.068 Y139.335 E0.23808
G1 X112.094 Y140.385 E0.98122
G1 X111.513 Y140.411 E0.04749
G1 X86.513 Y140.411 E2.04082
G1 X84.249 Y140.014 E0.18764
G1 X82.255 Y138.870 E0.18764
G1 X80.769 Y137.116 E0.18764
G1 X79.969 Y134.961 E0.18764
G1 X79.858 Y133.756 E0.09881
G1 X79.858 Y78.256 E4.53061
G1 X80.723 Y74.975 E0.27697
G1 X87.456 Y63.094 E1.11482
G1 E-4.00000 F1800.00000
G1 X109.963 Y69.641 F6000.000
G1 E4.00000 F1800.00000
G1 X110.172 Y69.198 E0.02658 F900.000
G1 X110.484 Y68.821 E0.02658
G1 X110.879 Y68.533 E0.02658
G1 X111.334 Y68.353 E0.02659
G1 X111.811 Y68.293 E0.02612 F900.000
G1 X112.305 Y68.353 E0.02701
G1 X112.760 Y68.533 E0.02662
G1 X113.156 Y68.821 E0.02659
G1 X113.468 Y69.198 E0.02658
G1 X113.676 Y69.641 E0.02658
G1 X113.768 Y70.121 E0.02658
G1 X113.737 Y70.610 E0.02659
G1 X113.586 Y71.075 E0.02659
G1 X113.324 Y71.488 E0.02658
G1 X112.967 Y71.823 E0.02658
G1 X112.538 Y72.059 E0.02658
G1 X112.064 Y72.181 E0.02658
G1 X111.575 Y72.181 E0.02658
G1 X111.101 Y72.059 E0.02659
G1 X110.672 Y71.823 E0.02662
G1 X110.311 Y71.481 E0.02701
G1 X110.054 Y71.075 E0.02612
G1 X109.902 Y70.610 E0.02658
G1 X109.872 Y70.121 E0.02659
G1 X109.949 Y69.714 E0.02251
G1 X109.651 Y69.264 F6000.000
G1 X108.720 Y67.039 F6000.000
G1 X114.525 Y67.039 E0.47383 F900.000
G1 X114.525 Y69.443 E0.19621
G1 X114.218 Y69.511 E0.02568 F900.000
G1 X113.932 Y68.904 E0.05482
G1 X113.532 Y68.421 E0.05118
G1 X113.025 Y68.052 E0.05118
G1 X112.440 Y67.821 E0.05134
G1 X111.810 Y67.744 E0.05182
G1 X111.198 Y67.821 E0.05038
G1 X110.615 Y68.052 E0.05118
G1 X110.107 Y68.421 E0.05118
G1 X109.708 Y68.904 E0.05118
G1 X109.441 Y69.471 E0.05118
G1 X109.323 Y70.087 E0.05118
G1 X109.363 Y70.713 E0.05118
G1 X109.556 Y71.309 E0.05118
G1 X109.887 Y71.830 E0.05038
G1 X110.348 Y72.267 E0.05182
G1 X111.052 Y72.654 E0.06560
G1 X110.976 Y72.949 E0.02487
G1 X98.663 Y72.949 E1.00515
G1 X98.587 Y72.654 E0.02487
G1 X99.281 Y72.272 E0.06465
G1 X99.746 Y71.840 E0.05182
G1 X100.083 Y71.309 E0.05134
G1 X100.277 Y70.713 E0.05118
G1 X100.316 Y70.087 E0.05118
G1 X100.199 Y69.471 E0.05118
G1 X99.932 Y68.904 E0.05118
G1 X99.532 Y68.421 E0.05118
G1 X99.025 Y68.052 E0.05118
G1 X98.440 Y67.821 E0.05134
G1 X97.810 Y67.744 E0.05182
G1 X97.198 Y67.821 E0.05038
G1 X96.615 Y68.052 E0.05118
G1 X96.107 Y68.421 E0.05118
G1 X95.708 Y68.904 E0.05118
G1 X95.441 Y69.471 E0.05118
G1 X95.323 Y70.087 E0.05118
G1 X95.363 Y70.713 E0.05118
G1 X95.556 Y71.309 E0.05118
G1 X95.892 Y71.838 E0.05118
G1 X96.349 Y72.268 E0.05119
G1 X97.052 Y72.654 E0.06545
G1 X96.976 Y72.949 E0.02487
G1 X94.115 Y72.949 E0.23359
G1 X94.115 Y67.039 E0.48244
G1 X108.645 Y67.039 E1.18616
G1 X114.320 Y67.244 F6000.000
G1 X113.913 Y67.941 F6000.000
G1 X114.199 Y68.716 F6000.000
G1 X114.208 Y68.745 F6000.000
G1 X114.320 Y69.247 F6000.000
G1 X113.187 Y72.324 F6000.000
G1 X113.290 Y72.268 E0.00957 F900.000
G1 X113.747 Y71.838 E0.05118
G1 X114.083 Y71.309 E0.05118
G1 X114.193 Y70.969 E0.02915
G1 X114.525 Y71.022 E0.02738
G1 X114.525 Y72.949 E0.15731 F900.000
G1 X112.663 Y72.949 E0.15196
G1 X112.587 Y72.654 E0.02487
G1 X113.122 Y72.360 E0.04975
G1 X99.737 Y70.610 F6000.000
G1 X99.586 Y71.075 E0.02658 F900.000
G1 X99.323 Y71.489 E0.02662
G1 X98.960 Y71.827 E0.02701
G1 X98.538 Y72.059 E0.02612
G1 X98.064 Y72.181 E0.02658
G1 X97.575 Y72.181 E0.02658
G1 X97.101 Y72.059 E0.02658
G1 X96.672 Y71.823 E0.02659
G1 X96.316 Y71.488 E0.02659
G1 X96.054 Y71.075 E0.02658
G1 X95.902 Y70.610 E0.02658
G1 X95.872 Y70.121 E0.02658
G1 X95.963 Y69.641 E0.02659
G1 X96.172 Y69.198 E0.02659
G1 X96.484 Y68.821 E0.02658
G1 X96.879 Y68.533 E0.02658
G1 X97.334 Y68.353 E0.02658
G1 X97.811 Y68.293 E0.02612 F900.000
G1 X98.305 Y68.353 E0.02701
G1 X98.760 Y68.533 E0.02662
G1 X99.156 Y68.821 E0.02658
G1 X99.468 Y69.198 E0.02658
G1 X99.676 Y69.641 E0.02658
G1 X99.768 Y70.121 E0.02658
G1 X99.742 Y70.535 E0.02251
G1 X100.094 Y70.945 F6000.000
G1 X99.742 Y73.494 F6000.000
G1 X93.570 Y73.494 E0.33535 F630.000
G1 X93.570 Y66.494 E0.38033
G1 X115.070 Y66.494 E1.16816
G1 X115.070 Y73.494 E0.38033
G1 X99.817 Y73.494 E0.82873 F630.000
G1 X99.492 Y73.061 F6000.000
G1 X100.128 Y72.551 F6000.000
G1 X99.816 Y72.240 E0.03629 F900.000
G1 X100.230 Y71.721 E0.05463
G1 X101.061 Y72.551 E0.09666
G1 X101.994 Y72.551 E0.07677
G1 X100.534 Y71.092 E0.16989
G1 X100.692 Y70.316 E0.06509
G1 X102.927 Y72.551 E0.26009
G1 X103.860 Y72.551 E0.07677
G1 X100.598 Y69.290 E0.37958
G1 X100.213 Y67.972 E0.11293
G1 X104.793 Y72.551 E0.53289
G1 X105.726 Y72.551 E0.07677
G1 X100.611 Y67.437 E0.59521
G1 X101.544 Y67.437 E0.07677
G1 X106.659 Y72.551 E0.59521
G1 X107.592 Y72.551 E0.07677
G1 X102.477 Y67.437 E0.59521
G1 X103.410 Y67.437 E0.07677
G1 X108.525 Y72.551 E0.59521
G1 X109.458 Y72.551 E0.07677
G1 X104.343 Y67.437 E0.59521
G1 X105.276 Y67.437 E0.07677
G1 X109.056 Y71.217 E0.43998
G1 X108.929 Y70.157 E0.08787
G1 X106.209 Y67.437 E0.31660
G1 X107.142 Y67.437 E0.07677
G1 X109.092 Y69.387 E0.22695
G1 X109.391 Y68.752 E0.05769
G1 X108.075 Y67.437 E0.15314
G1 X109.008 Y67.437 E0.07677
G1 X109.319 Y67.748 E0.03629
G1 X109.991 Y68.077 F6000.000
G1 X110.403 Y67.690 E0.04611 F300.000
G1 X110.629 Y67.524 E0.02291
G1 X111.090 Y67.436 E0.03827
G1 X111.806 Y67.390 E0.05860
G1 X112.530 Y67.434 E0.05915
G1 X113.407 Y67.600 E0.07289
G1 X113.830 Y67.486 F6000.000
G1 X114.127 Y67.784 E0.03437 F900.000
G1 X99.648 Y68.077 F6000.000
G1 X99.236 Y67.690 E0.04610 F300.000
G1 X99.010 Y67.524 E0.02291
G1 X98.530 Y67.434 E0.03993
G1 X97.812 Y67.390 E0.05867
G1 X97.107 Y67.434 E0.05766
G1 X96.629 Y67.524 E0.03970
G1 X96.403 Y67.690 E0.02291
G1 X95.991 Y68.077 E0.04610
G1 X95.319 Y67.748 F6000.000
G1 X95.008 Y67.437 E0.05107 F900.000
G1 X94.512 Y68.254 E0.11073
G1 X94.832 Y68.574 E0.05239
G1 X94.818 Y68.986 F6000.000
G1 X94.718 Y70.084 E0.18879 F300.000
G1 X94.741 Y70.793 E0.12163
G1 X94.841 Y71.457 E0.11498
G1 X95.506 Y72.151 F6000.000
G1 X95.146 Y71.791 E0.04835 F900.000
G1 X94.512 Y72.234 E0.07345
G1 X94.830 Y72.551 E0.04267
G1 E-4.00000 F1800.00000
G1 Z0.300 F6000.000
G1 X92.906 Y74.744 F6000.000
G1 X89.222 Y74.158 F6000.000
G1 X85.028 Y76.185 F6000.000
G1 X84.685 Y77.013 F6000.000
G1 X85.513 Y77.842 F6000.000
G1 X97.913 Y118.805 F6000.000
G1 E4.00000 F1800.00000
G1 X98.411 Y118.868 E0.04095 F900.000
G1 X98.877 Y119.052 E0.04095
G1 X99.289 Y119.351 E0.04153
G1 X99.615 Y119.760 E0.04274
G1 X99.816 Y120.188 E0.03854
G1 X99.910 Y120.680 E0.04095
G1 X99.879 Y121.181 E0.04095
G1 X99.724 Y121.658 E0.04095
G1 X99.451 Y122.088 E0.04153
G1 X99.063 Y122.439 E0.04274
G1 X98.650 Y122.667 E0.03854
G1 X98.164 Y122.792 E0.04095
G1 X97.662 Y122.792 E0.04095
G1 X97.176 Y122.667 E0.04095
G1 X96.730 Y122.422 E0.04153
G1 X96.355 Y122.057 E0.04274
G1 X96.102 Y121.658 E0.03854
G1 X95.947 Y121.181 E0.04095
G1 X95.916 Y120.680 E0.04095
G1 X96.010 Y120.188 E0.04095
G1 X96.223 Y119.734 E0.04095
G1 X96.543 Y119.347 E0.04095
G1 X96.955 Y119.048 E0.04153
G1 X97.445 Y118.864 E0.04274
G1 X97.839 Y118.814 E0.03242 F900.000
G1 X97.907 Y119.355 F6000.000
G1 X98.274 Y119.400 E0.02010 F900.000
G1 X98.612 Y119.534 E0.01978
G1 X98.909 Y119.749 E0.01990
G1 X99.149 Y120.050 E0.02097
G1 X99.294 Y120.357 E0.01843
G1 X99.362 Y120.715 E0.01978
G1 X99.339 Y121.078 E0.01978
G1 X99.227 Y121.424 E0.01978
G1 X99.031 Y121.733 E0.01990
G1 X98.745 Y121.993 E0.02097
G1 X98.448 Y122.156 E0.01843
G1 X98.095 Y122.247 E0.01978
G1 X97.731 Y122.247 E0.01978
G1 X97.378 Y122.156 E0.01978
G1 X97.058 Y121.980 E0.01990
G1 X96.781 Y121.711 E0.02097
G1 X96.599 Y121.424 E0.01843
G1 X96.487 Y121.078 E0.01978
G1 X96.464 Y120.715 E0.01977
G1 X96.532 Y120.357 E0.01978
G1 X96.687 Y120.028 E0.01978
G1 X96.919 Y119.748 E0.01978
G1 X97.215 Y119.532 E0.01990
G1 X97.576 Y119.397 E0.02097
G1 X97.832 Y119.364 E0.01402 F900.000
G1 X98.104 Y119.042 F6000.000
G1 X97.832 Y99.792 F6000.000
G1 X97.662 Y99.792 E0.01391 F900.000
G1 X97.176 Y99.667 E0.04095
G1 X96.730 Y99.422 E0.04153
G1 X96.355 Y99.057 E0.04274
G1 X96.102 Y98.658 E0.03854
G1 X95.947 Y98.181 E0.04095
G1 X95.916 Y97.680 E0.04095
G1 X96.010 Y97.188 E0.04095
G1 X96.223 Y96.734 E0.04095
G1 X96.543 Y96.347 E0.04095
G1 X96.955 Y96.048 E0.04153
G1 X97.445 Y95.864 E0.04274
G1 X97.913 Y95.805 E0.03854 F900.000
G1 X98.411 Y95.868 E0.04095
G1 X98.877 Y96.052 E0.04095
G1 X99.283 Y96.347 E0.04095
G1 X99.603 Y96.734 E0.04095
G1 X99.816 Y97.188 E0.04095
G1 X99.910 Y97.680 E0.04095
G1 X99.879 Y98.181 E0.04095
G1 X99.724 Y98.658 E0.04095
G1 X99.455 Y99.082 E0.04095
G1 X99.089 Y99.425 E0.04095
G1 X98.650 Y99.667 E0.04095
G1 X98.164 Y99.792 E0.04095
G1 X97.907 Y99.792 E0.02093
G1 X97.907 Y99.247 F6000.000
G1 X97.731 Y99.247 E0.00959 F900.000
G1 X97.378 Y99.156 E0.01978
G1 X97.058 Y98.980 E0.01990
G1 X96.781 Y98.711 E0.02097
G1 X96.599 Y98.424 E0.01843
G1 X96.487 Y98.078 E0.01978
G1 X96.464 Y97.715 E0.01978
G1 X96.532 Y97.357 E0.01978
G1 X96.687 Y97.028 E0.01978
G1 X96.919 Y96.748 E0.01978
G1 X97.215 Y96.532 E0.01990
G1 X97.576 Y96.397 E0.02097
G1 X97.913 Y96.354 E0.01843 F900.000
G1 X98.274 Y96.400 E0.01978
G1 X98.612 Y96.534 E0.01978
G1 X98.907 Y96.748 E0.01978
G1 X99.139 Y97.028 E0.01978
G1 X99.294 Y97.357 E0.01978
G1 X99.362 Y97.715 E0.01978
G1 X99.339 Y98.078 E0.01978
G1 X99.227 Y98.424 E0.01978
G1 X99.032 Y98.732 E0.01978
G1 X98.766 Y98.981 E0.01978
G1 X98.448 Y99.156 E0.01978
G1 X98.095 Y99.247 E0.01978
G1 X97.982 Y99.247 E0.00611
G1 X97.819 Y99.399 F6000.000
G1 X110.718 Y98.843 F6000.000
G1 X110.718 Y132.961 E2.78512 F900.000
G1 X87.308 Y132.961 E1.91101 F900.000
G1 X87.308 Y79.051 E4.40081
G1 X110.718 Y79.051 E1.91101
G1 X110.718 Y98.768 E1.60956
G1 X111.263 Y98.768 F6000.000
G1 X111.263 Y133.506 E1.88740 F630.000
G1 X86.763 Y133.506 E1.33116 F630.000
G1 X86.763 Y78.506 E2.98831
G1 X111.263 Y78.506 E1.33116
G1 X111.263 Y98.693 E1.09683
G1 X110.830 Y99.018 F6000.000
G1 X98.158 Y95.416 F6000.000
G1 X87.706 Y84.964 E1.20861 F900.000
G1 X87.706 Y85.891 E0.07580
G1 X97.337 Y95.522 E1.11368
G1 X96.698 Y95.811 E0.05729
G1 X87.706 Y86.818 E1.03985
G1 X87.706 Y87.745 E0.07580
G1 X96.194 Y96.234 E0.98156
G1 X95.813 Y96.780 E0.05444
G1 X87.706 Y88.672 E0.93747
G1 X87.706 Y89.600 E0.07580
G1 X95.575 Y97.469 E0.90999
G1 X95.552 Y98.373 F6000.000
G1 X87.706 Y90.527 E0.90729 F900.000
G1 X87.706 Y91.454 E0.07580
G1 X110.320 Y114.069 E2.61502
G1 X110.320 Y114.996 E0.07580
G1 X87.706 Y92.381 E2.61502
G1 X87.706 Y93.308 E0.07580
G1 X110.320 Y115.923 E2.61502
G1 X110.320 Y116.850 E0.07580
G1 X87.706 Y94.235 E2.61502
G1 X87.706 Y95.162 E0.07580
G1 X110.320 Y117.777 E2.61502
G1 X110.320 Y118.704 E0.07580
G1 X87.706 Y96.089 E2.61502
G1 X87.706 Y97.016 E0.07580
G1 X110.320 Y119.631 E2.61502
G1 X110.320 Y120.558 E0.07580
G1 X87.706 Y97.943 E2.61502
G1 X87.706 Y98.870 E0.07580
G1 X110.320 Y121.485 E2.61502
G1 X110.320 Y122.413 E0.07580
G1 X87.706 Y99.798 E2.61502
G1 X87.706 Y100.725 E0.07580
G1 X110.320 Y123.340 E2.61502
G1 X110.320 Y124.267 E0.07580
G1 X87.706 Y101.652 E2.61502
G1 X87.706 Y102.579 E0.07580
G1 X110.320 Y125.194 E2.61502
G1 X110.320 Y126.121 E0.07580
G1 X87.706 Y103.506 E2.61502
G1 X87.706 Y104.433 E0.07580
G1 X110.320 Y127.048 E2.61502
G1 X110.320 Y127.975 E0.07580
G1 X87.706 Y105.360 E2.61502
G1 X87.706 Y106.287 E0.07580
G1 X110.320 Y128.902 E2.61502
G1 X110.320 Y129.829 E0.07580
G1 X100.031 Y119.539 E1.18983
G1 X100.297 Y120.733 E0.09997
G1 X110.320 Y130.756 E1.15905
G1 X110.320 Y131.683 E0.07580
G1 X100.151 Y121.514 E1.17595
G1 X99.835 Y122.126 E0.05628
G1 X110.273 Y132.563 E1.20696
G1 X109.346 Y132.563 E0.07580
G1 X99.388 Y122.605 E1.15155
G1 X98.824 Y122.968 E0.05484
G1 X108.419 Y132.563 E1.10955
G1 X107.492 Y132.563 E0.07580
G1 X98.113 Y123.184 E1.08457
G1 X97.099 Y123.098 E0.08317
G1 X106.565 Y132.563 E1.09457
G1 X105.638 Y132.563 E0.07580
G1 X87.706 Y114.631 E2.07357
G1 X87.706 Y113.704 E0.07580
G1 X95.619 Y121.617 E0.91500
G1 X95.547 Y120.618 E0.08188
G1 X87.706 Y112.777 E0.90670
G1 X87.706 Y111.850 E0.07580
G1 X95.756 Y119.900 E0.93091
G1 X96.114 Y119.331 E0.05498
G1 X87.706 Y110.923 E0.97228
G1 X87.706 Y109.996 E0.07580
G1 X96.596 Y118.886 E1.02798
G1 X97.208 Y118.571 E0.05629
G1 X87.706 Y109.069 E1.09878
G1 X87.706 Y108.141 E0.07580
G1 X97.977 Y118.412 E1.18766
G1 X99.164 Y118.673 E0.09940
G1 X87.706 Y107.214 E1.32497
G1 X87.706 Y115.558 F6000.000
G1 X104.711 Y132.563 E1.96636 F900.000
G1 X103.784 Y132.563 E0.07580
G1 X87.706 Y116.485 E1.85916
G1 X87.706 Y117.412 E0.07580
G1 X102.857 Y132.563 E1.75196
G1 X101.930 Y132.563 E0.07580
G1 X87.706 Y118.339 E1.64476
G1 X87.706 Y119.267 E0.07580
G1 X101.002 Y132.563 E1.53756
G1 X100.075 Y132.563 E0.07580
G1 X87.706 Y120.194 E1.43035
G1 X87.706 Y121.121 E0.07580
G1 X99.148 Y132.563 E1.32315
G1 X98.221 Y132.563 E0.07580
G1 X87.706 Y122.048 E1.21595
G1 X87.706 Y122.975 E0.07580
G1 X97.294 Y132.563 E1.10875
G1 X96.367 Y132.563 E0.07580
G1 X87.706 Y123.902 E1.00155
G1 X87.706 Y124.829 E0.07580
G1 X95.440 Y132.563 E0.89434
G1 X94.513 Y132.563 E0.07580
G1 X87.706 Y125.756 E0.78714
G1 X87.706 Y126.683 E0.07580
G1 X93.586 Y132.563 E0.67994
G1 X92.659 Y132.563 E0.07580
G1 X87.706 Y127.610 E0.57274
G1 X87.706 Y128.537 E0.07580
G1 X91.732 Y132.563 E0.46554
G1 X90.804 Y132.563 E0.07580
G1 X87.706 Y129.465 E0.35833
G1 X87.706 Y130.392 E0.07580
G1 X89.877 Y132.563 E0.25113
G1 X88.950 Y132.563 E0.07580
G1 X87.706 Y131.319 E0.14393
G1 X87.706 Y132.246 E0.07580
G1 X88.023 Y132.563 E0.03673
G1 X97.338 Y100.159 F6000.000
G1 X110.320 Y113.142 E1.50123 F900.000
G1 X110.320 Y112.214 E0.07580
G1 X98.254 Y100.148 E1.39531
G1 X98.938 Y99.905 E0.05938
G1 X110.320 Y111.287 E1.31616
G1 X110.320 Y110.360 E0.07580
G1 X99.483 Y99.522 E1.25321
G1 X99.904 Y99.017 E0.05382
G1 X110.320 Y109.433 E1.20444
G1 X110.320 Y108.506 E0.07580
G1 X100.194 Y98.380 E1.17092
G1 X100.307 Y97.566 E0.06719
G1 X110.320 Y107.579 E1.15783
G1 X110.320 Y106.652 E0.07580
G1 X87.706 Y84.037 E2.61502
G1 X87.706 Y83.110 E0.07580
G1 X110.320 Y105.725 E2.61502
G1 X110.320 Y104.798 E0.07580
G1 X87.706 Y82.183 E2.61502
G1 X87.706 Y81.256 E0.07580
G1 X110.320 Y103.871 E2.61502
G1 X110.320 Y102.944 E0.07580
G1 X87.706 Y80.329 E2.61502
G1 X87.753 Y79.449 E0.07206
G1 X110.320 Y102.016 E2.60958
G1 X110.320 Y101.089 E0.07580
G1 X88.680 Y79.449 E2.50238
