; generated by Slic3r 1.2.9 on 2016-11-19 at 13:05:39

; external perimeters extrusion width = 0.50mm
; perimeters extrusion width = 0.85mm
; infill extrusion width = 0.87mm
; solid infill extrusion width = 0.85mm
; top infill extrusion width = 0.85mm

M107
G21 ; set units to millimeters
G90 ; use absolute coordinates
M83 ; use relative distances for extrusion
G10 P2 S185 R0 ; Set extruder temperature
T2
M116; Wait for all temperatures

G21 ; set units to millimeters
G90 ; use absolute coordinates
M83 ; use relative distances for extrusion
G1 E-4.00000 F1800.00000
G1 Z0.300 F6000.000
G1 X68.237 Y40.005 F6000.000
G1 E4.00000 F1800.00000
G1 X70.012 Y38.375 E0.19672 F900.000
G1 X72.221 Y37.411 E0.19672
G1 X74.000 Y37.191 E0.14636
G1 X136.000 Y37.191 E5.06122
G1 X138.377 Y37.588 E0.19672
G1 X140.495 Y38.737 E0.19672 F900.000
G1 X142.125 Y40.512 E0.19672
G1 X143.089 Y42.721 E0.19672
G1 X143.309 Y44.500 E0.14636
G1 X143.309 Y155.500 E9.06122
G1 X142.912 Y157.877 E0.19672
G1 X141.763 Y159.995 E0.19672
G1 X139.988 Y161.625 E0.19672
G1 X137.779 Y162.589 E0.19672
G1 X136.000 Y162.809 E0.14636
G1 X74.000 Y162.809 E5.06122
G1 X71.623 Y162.412 E0.19672
G1 X69.505 Y161.263 E0.19672
G1 X67.875 Y159.488 E0.19672
G1 X66.911 Y157.279 E0.19672
G1 X66.691 Y155.500 E0.14636
G1 X66.691 Y44.500 E9.06122
G1 X67.088 Y42.123 E0.19672
G1 X68.201 Y40.071 E0.19060
G1 X68.791 Y40.409 F6000.000
G1 X68.886 Y40.242 E0.01568 F900.000
G1 X70.640 Y38.756 E0.18764
G1 X72.795 Y37.956 E0.18764
G1 X74.000 Y37.846 E0.09881
G1 X136.000 Y37.846 E5.06122
G1 X138.264 Y38.242 E0.18764
G1 X140.258 Y39.386 E0.18764 F900.000
G1 X141.744 Y41.140 E0.18764
G1 X142.544 Y43.295 E0.18764
G1 X142.654 Y44.500 E0.09881
G1 X142.654 Y155.500 E9.06122
G1 X142.258 Y157.764 E0.18764
G1 X141.114 Y159.758 E0.18764
G1 X139.360 Y161.244 E0.18764
G1 X137.205 Y162.044 E0.18764
G1 X136.000 Y162.154 E0.09881
G1 X74.000 Y162.154 E5.06122
G1 X71.736 Y161.758 E0.18764
G1 X69.742 Y160.614 E0.18764
G1 X68.256 Y158.860 E0.18764
G1 X67.456 Y156.705 E0.18764
G1 X67.346 Y155.500 E0.09881
G1 X67.346 Y44.500 E9.06122
G1 X67.742 Y42.236 E0.18764
G1 X68.753 Y40.474 E0.16583
G1 E-4.00000 F1800.00000
G1 X128.935 Y147.237 F6000.000
G1 E4.00000 F1800.00000
G1 X129.531 Y147.043 E0.05118 F900.000
G1 X129.759 Y147.029 E0.01864
G1 X130.157 Y147.004 E0.03255 F900.000
G1 X130.773 Y147.121 E0.05118
G1 X131.340 Y147.388 E0.05118
G1 X131.823 Y147.788 E0.05118
G1 X132.192 Y148.295 E0.05118
G1 X132.423 Y148.878 E0.05118
G1 X132.501 Y149.500 E0.05118
G1 X132.423 Y150.122 E0.05118
G1 X132.192 Y150.705 E0.05119
G1 X131.823 Y151.212 E0.05118
G1 X131.340 Y151.612 E0.05118
G1 X130.773 Y151.879 E0.05118
G1 X130.157 Y151.996 E0.05118
G1 X129.531 Y151.957 E0.05118
G1 X128.935 Y151.763 E0.05118
G1 X128.406 Y151.427 E0.05118
G1 X127.976 Y150.970 E0.05118
G1 X127.674 Y150.421 E0.05119
G1 X127.518 Y149.814 E0.05118
G1 X127.518 Y149.186 E0.05118
G1 X127.674 Y148.579 E0.05118
G1 X127.976 Y148.030 E0.05119
G1 X128.406 Y147.573 E0.05118
G1 X128.872 Y147.277 E0.04506
G1 X129.164 Y147.737 F6000.000
G1 X129.634 Y147.583 E0.02691 F900.000
G1 X129.793 Y147.573 E0.00866
G1 X130.123 Y147.552 E0.01792 F900.000
G1 X130.603 Y147.644 E0.02658
G1 X131.046 Y147.852 E0.02658
G1 X131.423 Y148.164 E0.02659
G1 X131.711 Y148.560 E0.02658
G1 X131.891 Y149.015 E0.02658
G1 X131.952 Y149.500 E0.02658
G1 X131.891 Y149.985 E0.02659
G1 X131.711 Y150.440 E0.02659
G1 X131.423 Y150.836 E0.02658
G1 X131.046 Y151.148 E0.02659
G1 X130.603 Y151.356 E0.02658
G1 X130.123 Y151.448 E0.02658
G1 X129.634 Y151.417 E0.02659
G1 X129.169 Y151.266 E0.02658
G1 X128.756 Y151.004 E0.02658
G1 X128.421 Y150.647 E0.02658
G1 X128.185 Y150.219 E0.02659
G1 X128.063 Y149.745 E0.02658
G1 X128.063 Y149.255 E0.02658
G1 X128.185 Y148.781 E0.02658
G1 X128.421 Y148.353 E0.02659
G1 X128.756 Y147.996 E0.02658
G1 X129.100 Y147.777 E0.02218
G1 X129.225 Y147.246 F6000.000
G1 X82.501 Y149.500 F6000.000
G1 X82.423 Y150.122 E0.05119 F900.000
G1 X82.192 Y150.705 E0.05118
G1 X81.823 Y151.212 E0.05118
G1 X81.340 Y151.612 E0.05118
G1 X81.162 Y151.696 E0.01605
G1 X80.773 Y151.879 E0.03513
G1 X80.157 Y151.996 E0.05118
G1 X79.531 Y151.957 E0.05118
G1 X78.935 Y151.763 E0.05118
G1 X78.406 Y151.427 E0.05118
G1 X77.976 Y150.970 E0.05118
G1 X77.674 Y150.421 E0.05119
G1 X77.518 Y149.814 E0.05118
G1 X77.518 Y149.186 E0.05118
G1 X77.674 Y148.579 E0.05118
G1 X77.976 Y148.030 E0.05119
G1 X78.406 Y147.573 E0.05118
G1 X78.935 Y147.237 E0.05118
G1 X79.531 Y147.043 E0.05118
G1 X79.759 Y147.029 E0.01864
G1 X80.157 Y147.004 E0.03255 F900.000
G1 X80.773 Y147.121 E0.05118
G1 X81.340 Y147.388 E0.05119
G1 X81.823 Y147.788 E0.05118
G1 X82.192 Y148.295 E0.05118
G1 X82.423 Y148.878 E0.05118
G1 X82.492 Y149.426 E0.04506
G1 X81.951 Y149.494 F6000.000
G1 X81.891 Y149.985 E0.02691 F900.000
G1 X81.711 Y150.440 E0.02658
G1 X81.423 Y150.836 E0.02658
G1 X81.046 Y151.148 E0.02658 F900.000
G1 X80.603 Y151.356 E0.02659
G1 X80.123 Y151.448 E0.02658
G1 X79.634 Y151.417 E0.02658
G1 X79.169 Y151.266 E0.02658
G1 X78.756 Y151.004 E0.02658
G1 X78.421 Y150.647 E0.02658
G1 X78.185 Y150.219 E0.02659
G1 X78.063 Y149.745 E0.02658
G1 X78.063 Y149.255 E0.02658
G1 X78.185 Y148.781 E0.02658
G1 X78.421 Y148.353 E0.02659
G1 X78.756 Y147.996 E0.02658
G1 X79.169 Y147.734 E0.02658
G1 X79.634 Y147.583 E0.02658
G1 X80.123 Y147.552 E0.02659
G1 X80.603 Y147.644 E0.02658
G1 X81.046 Y147.852 E0.02659
G1 X81.423 Y148.164 E0.02659
G1 X81.711 Y148.560 E0.02658
G1 X81.891 Y149.015 E0.02658
G1 X81.942 Y149.419 E0.02218
G1 X82.370 Y149.758 F6000.000
G1 X80.157 Y52.996 F6000.000
G1 X79.531 Y52.957 E0.05118 F900.000
G1 X78.935 Y52.763 E0.05118
G1 X78.406 Y52.427 E0.05118
G1 X77.976 Y51.970 E0.05118
G1 X77.674 Y51.421 E0.05118
G1 X77.518 Y50.814 E0.05118
G1 X77.518 Y50.186 E0.05118
G1 X77.674 Y49.579 E0.05118
G1 X77.976 Y49.030 E0.05118
G1 X78.406 Y48.573 E0.05118
G1 X78.935 Y48.237 E0.05118
G1 X79.531 Y48.043 E0.05118
G1 X79.759 Y48.029 E0.01864
G1 X80.157 Y48.004 E0.03255 F900.000
G1 X80.773 Y48.121 E0.05118
G1 X81.340 Y48.388 E0.05118
G1 X81.823 Y48.788 E0.05118
G1 X82.192 Y49.295 E0.05119
G1 X82.423 Y49.878 E0.05118
G1 X82.501 Y50.500 E0.05118
G1 X82.423 Y51.122 E0.05119
G1 X82.192 Y51.705 E0.05118
G1 X81.823 Y52.212 E0.05118
G1 X81.340 Y52.612 E0.05118
G1 X80.773 Y52.879 E0.05118
G1 X80.231 Y52.982 E0.04506
G1 X80.129 Y52.447 F6000.000
G1 X79.634 Y52.417 E0.02691 F900.000
G1 X79.169 Y52.266 E0.02658
G1 X78.756 Y52.004 E0.02658
G1 X78.421 Y51.647 E0.02658
G1 X78.185 Y51.219 E0.02659
G1 X78.063 Y50.745 E0.02658
G1 X78.063 Y50.255 E0.02658
G1 X78.185 Y49.781 E0.02659
G1 X78.421 Y49.353 E0.02658
G1 X78.756 Y48.996 E0.02659
G1 X79.169 Y48.734 E0.02658
G1 X79.634 Y48.583 E0.02659
G1 X79.793 Y48.573 E0.00866
G1 X80.123 Y48.552 E0.01792 F900.000
G1 X80.603 Y48.644 E0.02658
G1 X81.046 Y48.852 E0.02658
G1 X81.423 Y49.164 E0.02658
G1 X81.711 Y49.560 E0.02659
G1 X81.891 Y50.015 E0.02658
G1 X81.952 Y50.500 E0.02658
G1 X81.891 Y50.985 E0.02659
G1 X81.711 Y51.440 E0.02658
G1 X81.423 Y51.836 E0.02658
G1 X81.046 Y52.148 E0.02658
G1 X80.603 Y52.356 E0.02659
G1 X80.202 Y52.433 E0.02218
G1 X79.891 Y52.881 F6000.000
G1 X127.518 Y50.814 F6000.000
G1 X127.518 Y50.186 E0.05118 F900.000
G1 X127.575 Y49.965 E0.01863
G1 X127.674 Y49.579 E0.03255
G1 X127.976 Y49.030 E0.05118
G1 X128.406 Y48.573 E0.05118
G1 X128.935 Y48.237 E0.05118
G1 X129.531 Y48.043 E0.05118
G1 X129.759 Y48.029 E0.01864
G1 X130.157 Y48.004 E0.03255 F900.000
G1 X130.773 Y48.121 E0.05118
G1 X131.340 Y48.388 E0.05118
G1 X131.823 Y48.788 E0.05118
G1 X132.192 Y49.295 E0.05119
G1 X132.423 Y49.878 E0.05118
G1 X132.501 Y50.500 E0.05118
G1 X132.423 Y51.122 E0.05118
G1 X132.192 Y51.705 E0.05118
G1 X131.823 Y52.212 E0.05118
G1 X131.340 Y52.612 E0.05118
G1 X130.773 Y52.879 E0.05118
G1 X130.157 Y52.996 E0.05118
G1 X129.531 Y52.957 E0.05118
G1 X128.935 Y52.763 E0.05118
G1 X128.406 Y52.427 E0.05118
G1 X127.976 Y51.970 E0.05118
G1 X127.674 Y51.421 E0.05118
G1 X127.537 Y50.886 E0.04506
G1 X128.065 Y50.751 F6000.000
G1 X128.063 Y50.255 E0.02691 F900.000
G1 X128.185 Y49.781 E0.02659
G1 X128.421 Y49.353 E0.02658
G1 X128.756 Y48.996 E0.02658
G1 X129.169 Y48.734 E0.02658
G1 X129.634 Y48.583 E0.02658
G1 X129.793 Y48.573 E0.00866
G1 X130.123 Y48.552 E0.01792 F900.000
G1 X130.603 Y48.644 E0.02658
G1 X131.046 Y48.852 E0.02658
G1 X131.423 Y49.164 E0.02658
G1 X131.711 Y49.560 E0.02659
G1 X131.891 Y50.015 E0.02658
G1 X131.952 Y50.500 E0.02658
G1 X131.891 Y50.985 E0.02659
G1 X131.711 Y51.440 E0.02658
G1 X131.423 Y51.836 E0.02659
G1 X131.046 Y52.148 E0.02658
G1 X130.603 Y52.356 E0.02658
G1 X130.123 Y52.448 E0.02658
G1 X129.634 Y52.417 E0.02659
G1 X129.169 Y52.266 E0.02658
G1 X128.756 Y52.004 E0.02659
G1 X128.421 Y51.647 E0.02658
G1 X128.185 Y51.219 E0.02659
G1 X128.084 Y50.823 E0.02218
G1 X127.616 Y50.541 F6000.000
G1 X135.205 Y128.838 F6000.000
G1 X135.205 Y154.705 E2.11160 F900.000
G1 X74.795 Y154.705 E4.93142 F900.000
G1 X74.795 Y45.295 E8.93142
G1 X135.205 Y45.295 E4.93142
G1 X135.205 Y128.763 E6.81369
G1 X135.750 Y128.763 F6000.000
G1 X135.750 Y155.250 E1.43912 F630.000
G1 X74.250 Y155.250 E3.34147 F630.000
G1 X74.250 Y44.750 E6.00378
G1 X135.750 Y44.750 E3.34147
G1 X135.750 Y128.688 E4.56058
G1 X135.317 Y129.013 F6000.000
G1 X132.813 Y148.646 F6000.000
G1 X134.807 Y150.641 E0.23036 F900.000
G1 X134.807 Y151.567 E0.07561
G1 X132.869 Y149.629 E0.22384
G1 X132.701 Y150.387 E0.06338
G1 X134.807 Y152.493 E0.24327
G1 X134.807 Y153.419 E0.07561
G1 X132.396 Y151.007 E0.27853
G1 X131.984 Y151.522 E0.05380
G1 X134.769 Y154.306 E0.32158
G1 X133.844 Y154.307 E0.07551
G1 X131.474 Y151.938 E0.27370
G1 X130.845 Y152.234 E0.05683
G1 X132.918 Y154.307 E0.23948
G1 X131.992 Y154.307 E0.07561
G1 X130.077 Y152.392 E0.22118
G1 X129.020 Y152.261 F6000.000
G1 X131.066 Y154.307 E0.23633 F900.000
G1 X130.140 Y154.307 E0.07561
G1 X75.193 Y99.360 E6.34582
G1 X75.193 Y100.286 E0.07561
G1 X129.214 Y154.307 E6.23888
G1 X128.289 Y154.307 E0.07561
G1 X75.193 Y101.211 E6.13195
G1 X75.193 Y102.137 E0.07561
G1 X127.363 Y154.307 E6.02502
G1 X126.437 Y154.307 E0.07561
G1 X75.193 Y103.063 E5.91808
G1 X75.193 Y103.989 E0.07561
G1 X125.511 Y154.307 E5.81115
G1 X124.585 Y154.307 E0.07561
G1 X75.193 Y104.915 E5.70421
G1 X75.193 Y105.841 E0.07561
G1 X123.659 Y154.307 E5.59728
G1 X122.733 Y154.307 E0.07561
G1 X75.193 Y106.767 E5.49034
G1 X75.193 Y107.693 E0.07561
G1 X121.807 Y154.307 E5.38341
G1 X120.881 Y154.307 E0.07561
G1 X75.193 Y108.619 E5.27647
G1 X75.193 Y109.545 E0.07561
G1 X119.955 Y154.307 E5.16954
G1 X119.029 Y154.307 E0.07561
G1 X75.193 Y110.471 E5.06260
G1 X75.193 Y111.397 E0.07561
G1 X118.103 Y154.307 E4.95567
G1 X117.177 Y154.307 E0.07561
G1 X75.193 Y112.323 E4.84873
G1 X75.193 Y113.249 E0.07561
G1 X116.251 Y154.307 E4.74180
G1 X115.325 Y154.307 E0.07561
G1 X75.193 Y114.175 E4.63487
G1 X75.193 Y115.101 E0.07561
G1 X114.399 Y154.307 E4.52793
G1 X113.474 Y154.307 E0.07561
G1 X75.193 Y116.026 E4.42100
G1 X75.193 Y116.952 E0.07561
G1 X112.548 Y154.307 E4.31406
G1 X111.622 Y154.307 E0.07561
G1 X75.193 Y117.878 E4.20713
G1 X75.193 Y118.804 E0.07561
G1 X110.696 Y154.307 E4.10019
G1 X109.770 Y154.307 E0.07561
G1 X75.193 Y119.730 E3.99326
G1 X75.193 Y120.656 E0.07561
G1 X108.844 Y154.307 E3.88632
G1 X107.918 Y154.307 E0.07561
G1 X75.193 Y121.582 E3.77939
G1 X75.193 Y122.508 E0.07561
G1 X106.992 Y154.307 E3.67245
G1 X106.066 Y154.307 E0.07561
G1 X75.193 Y123.434 E3.56552
G1 X75.193 Y124.360 E0.07561
G1 X105.140 Y154.307 E3.45858
G1 X104.214 Y154.307 E0.07561
G1 X75.193 Y125.286 E3.35165
G1 X75.193 Y126.212 E0.07561
G1 X103.288 Y154.307 E3.24471
G1 X102.362 Y154.307 E0.07561
G1 X75.193 Y127.138 E3.13778
G1 X75.193 Y128.064 E0.07561
G1 X101.436 Y154.307 E3.03085
G1 X100.510 Y154.307 E0.07561
G1 X75.193 Y128.990 E2.92391
G1 X75.193 Y129.916 E0.07561
G1 X99.584 Y154.307 E2.81698
G1 X98.659 Y154.307 E0.07561
G1 X75.193 Y130.841 E2.71004
G1 X75.193 Y131.767 E0.07561
G1 X97.733 Y154.307 E2.60311
G1 X96.807 Y154.307 E0.07561
G1 X75.193 Y132.693 E2.49617
G1 X75.193 Y133.619 E0.07561
G1 X95.881 Y154.307 E2.38924
G1 X94.955 Y154.307 E0.07561
G1 X75.193 Y134.545 E2.28230
G1 X75.193 Y135.471 E0.07561
G1 X94.029 Y154.307 E2.17537
G1 X93.103 Y154.307 E0.07561
G1 X75.193 Y136.397 E2.06843
G1 X75.193 Y137.323 E0.07561
G1 X92.177 Y154.307 E1.96150
G1 X91.251 Y154.307 E0.07561
G1 X75.193 Y138.249 E1.85456
G1 X75.193 Y139.175 E0.07561
G1 X90.325 Y154.307 E1.74763
G1 X89.399 Y154.307 E0.07561
G1 X75.193 Y140.101 E1.64069
G1 X75.193 Y141.027 E0.07561
G1 X80.872 Y146.706 E0.65592
G1 X79.872 Y146.632 E0.08193
G1 X75.193 Y141.953 E0.54037
G1 X75.193 Y142.879 E0.07561
G1 X79.113 Y146.799 E0.45275
G1 X78.495 Y147.107 E0.05637
G1 X75.193 Y143.805 E0.38144
G1 X75.193 Y144.731 E0.07561
G1 X77.985 Y147.523 E0.32254
G1 X77.575 Y148.039 E0.05381
G1 X75.193 Y145.656 E0.27511
G1 X75.193 Y146.582 E0.07561
G1 X77.273 Y148.663 E0.24032
G1 X77.121 Y149.437 E0.06437
G1 X75.193 Y147.508 E0.22270
G1 X75.193 Y148.434 E0.07561
G1 X77.239 Y150.481 E0.23637
G1 X75.193 Y150.286 F6000.000
G1 X79.214 Y154.307 E0.46441 F900.000
G1 X80.140 Y154.307 E0.07561
G1 X75.193 Y149.360 E0.57135
G1 X75.193 Y151.212 F6000.000
G1 X78.288 Y154.307 E0.35748 F900.000
G1 X77.362 Y154.307 E0.07561
G1 X75.193 Y152.138 E0.25054
G1 X75.193 Y153.064 E0.07561
G1 X76.436 Y154.307 E0.14361
G1 X75.510 Y154.307 E0.07561
G1 X75.193 Y153.990 E0.03667
G1 X79.019 Y152.261 F6000.000
G1 X81.066 Y154.307 E0.23637 F900.000
G1 X81.992 Y154.307 E0.07561
G1 X80.077 Y152.392 E0.22116
G1 X80.844 Y152.234 E0.06400
G1 X82.918 Y154.307 E0.23946
G1 X83.844 Y154.307 E0.07561
G1 X81.474 Y151.938 E0.27368
G1 X81.984 Y151.522 E0.05374
G1 X84.769 Y154.307 E0.32170
G1 X85.695 Y154.307 E0.07561
G1 X82.395 Y151.008 E0.38111
G1 X82.701 Y150.387 E0.05648
G1 X86.621 Y154.307 E0.45276
G1 X87.547 Y154.307 E0.07561
G1 X82.869 Y149.629 E0.54026
G1 X82.813 Y148.647 E0.08034
G1 X88.473 Y154.307 E0.65370
G1 X127.239 Y150.480 F6000.000
G1 X75.193 Y98.434 E6.01074 F900.000
G1 X75.193 Y97.508 E0.07561
G1 X127.121 Y149.436 E5.99710
G1 X127.274 Y148.663 E0.06436
G1 X75.193 Y96.582 E6.01474
G1 X75.193 Y95.656 E0.07561
G1 X127.575 Y148.038 E6.04953
G1 X127.986 Y147.523 E0.05381
G1 X75.193 Y94.730 E6.09697
G1 X75.193 Y93.804 E0.07561
G1 X128.496 Y147.107 E6.15588
G1 X129.113 Y146.799 E0.05637
G1 X75.193 Y92.878 E6.22720
G1 X75.193 Y91.952 E0.07561
G1 X129.872 Y146.632 E6.31484
G1 X130.873 Y146.706 E0.08195
G1 X75.193 Y91.026 E6.43041
G1 X75.193 Y90.100 E0.07561
G1 X134.807 Y149.715 E6.88481
G1 X134.807 Y148.789 E0.07561
G1 X75.193 Y89.174 E6.88481
G1 X75.193 Y88.248 E0.07561
G1 X134.807 Y147.863 E6.88481
G1 X134.807 Y146.937 E0.07561
G1 X75.193 Y87.322 E6.88481
G1 X75.193 Y86.396 E0.07561
G1 X134.807 Y146.011 E6.88481
G1 X134.807 Y145.086 E0.07561
G1 X75.193 Y85.471 E6.88481
G1 X75.193 Y84.545 E0.07561
G1 X134.807 Y144.160 E6.88481
G1 X134.807 Y143.234 E0.07561
G1 X75.193 Y83.619 E6.88481
G1 X75.193 Y82.693 E0.07561
G1 X134.807 Y142.308 E6.88481
G1 X134.807 Y141.382 E0.07561
G1 X75.193 Y81.767 E6.88481
G1 X75.193 Y80.841 E0.07561
G1 X134.807 Y140.456 E6.88481
G1 X134.807 Y139.530 E0.07561
G1 X75.193 Y79.915 E6.88481
G1 X75.193 Y78.989 E0.07561
G1 X134.807 Y138.604 E6.88481
G1 X134.807 Y137.678 E0.07561
G1 X75.193 Y78.063 E6.88481
G1 X75.193 Y77.137 E0.07561
G1 X134.807 Y136.752 E6.88481
G1 X134.807 Y135.826 E0.07561
G1 X75.193 Y76.211 E6.88481
G1 X75.193 Y75.285 E0.07561
G1 X134.807 Y134.900 E6.88481
G1 X134.807 Y133.974 E0.07561
G1 X75.193 Y74.359 E6.88481
G1 X75.193 Y73.433 E0.07561
G1 X134.807 Y133.048 E6.88481
G1 X134.807 Y132.122 E0.07561
G1 X75.193 Y72.507 E6.88481
G1 X75.193 Y71.581 E0.07561
G1 X134.807 Y131.196 E6.88481
G1 X134.807 Y130.271 E0.07561
G1 X75.193 Y70.656 E6.88481
G1 X75.193 Y69.730 E0.07561
G1 X134.807 Y129.345 E6.88481
G1 X134.807 Y128.419 E0.07561
G1 X75.193 Y68.804 E6.88481
G1 X75.193 Y67.878 E0.07561
G1 X134.807 Y127.493 E6.88481
G1 X134.807 Y126.567 E0.07561
G1 X75.193 Y66.952 E6.88481
G1 X75.193 Y66.026 E0.07561
G1 X134.807 Y125.641 E6.88481
G1 X134.807 Y124.715 E0.07561
G1 X75.193 Y65.100 E6.88481
G1 X75.193 Y64.174 E0.07561
