; generated by Slic3r 1.2.9 on 2016-11-28 at 14:55:17

; external perimeters extrusion width = 0.50mm
; perimeters extrusion width = 0.85mm
; infill extrusion width = 0.87mm
; solid infill extrusion width = 0.85mm
; top infill extrusion width = 0.85mm

M107
G21 ; set units to millimeters
G90 ; use absolute coordinates
M83 ; use relative distances for extrusion
G10 P2 S185 R0 ; Set extruder temperature
T2
M116; Wait for all temperatures

G21 ; set units to millimeters
G90 ; use absolute coordinates
M83 ; use relative distances for extrusion
G1 E-4.00000 F1800.00000
G1 Z0.300 F6000.000
G1 X72.880 Y83.529 F6000.000
G1 E4.00000 F1800.00000
G1 X75.088 Y82.565 E0.19672 F900.000
G1 X76.868 Y82.345 E0.14636
G1 X132.368 Y82.345 E4.53061
G1 X134.745 Y82.743 E0.19672
G1 X136.863 Y83.891 E0.19672 F900.000
G1 X138.493 Y85.666 E0.19672
G1 X139.457 Y87.875 E0.19672
G1 X139.666 Y89.247 E0.11329
G1 X140.430 Y102.938 E1.11940
G1 X140.441 Y110.346 E0.60468
G1 X140.044 Y112.723 E0.19672
G1 X138.895 Y114.841 E0.19672
G1 X137.120 Y116.471 E0.19672
G1 X134.912 Y117.435 E0.19672
G1 X133.132 Y117.655 E0.14636
G1 X77.632 Y117.655 E4.53061
G1 X75.255 Y117.257 E0.19672
G1 X73.137 Y116.109 E0.19672
G1 X71.507 Y114.334 E0.19672
G1 X70.543 Y112.125 E0.19672
G1 X70.339 Y110.822 E0.10764
G1 X69.574 Y99.131 E0.95643
G1 X69.559 Y98.654 E0.03894
G1 X69.559 Y89.654 E0.73469
G1 X69.956 Y87.277 E0.19672
G1 X71.105 Y85.159 E0.19672
G1 X72.825 Y83.580 E0.19060
G1 X73.273 Y84.109 F6000.000
G1 X73.508 Y83.910 E0.02511 F900.000
G1 X75.662 Y83.110 E0.18764
G1 X76.868 Y83.000 E0.09881
G1 X132.368 Y83.000 E4.53061
G1 X134.632 Y83.397 E0.18764
G1 X136.626 Y84.540 E0.18764 F900.000
G1 X138.112 Y86.294 E0.18764
G1 X139.012 Y89.283 E0.25485
G1 X139.776 Y102.975 E1.11940
G1 X139.787 Y110.346 E0.60170
G1 X139.390 Y112.610 E0.18764
G1 X138.246 Y114.604 E0.18764
G1 X136.492 Y116.090 E0.18764
G1 X134.338 Y116.890 E0.18764
G1 X133.132 Y117.000 E0.09881
G1 X77.632 Y117.000 E4.53061
G1 X75.368 Y116.603 E0.18764
G1 X73.374 Y115.460 E0.18764
G1 X71.888 Y113.706 E0.18764
G1 X70.992 Y110.780 E0.24982
G1 X70.228 Y99.088 E0.95643
G1 X70.213 Y98.654 E0.03545
G1 X70.213 Y89.654 E0.73469
G1 X70.610 Y87.390 E0.18764
G1 X71.754 Y85.396 E0.18764
G1 X73.216 Y84.158 E0.15641
G1 E-4.00000 F1800.00000
G1 X89.657 Y104.827 F6000.000
G1 E4.00000 F1800.00000
G1 X89.965 Y104.631 E0.01983 F900.000
G1 X90.321 Y104.519 E0.02032
G1 X90.673 Y104.497 E0.01916 F900.000
G1 X91.031 Y104.565 E0.01978
G1 X91.360 Y104.720 E0.01978
G1 X91.641 Y104.952 E0.01978
G1 X91.854 Y105.246 E0.01978
G1 X91.988 Y105.585 E0.01978
G1 X92.034 Y105.946 E0.01978
G1 X91.988 Y106.307 E0.01978
G1 X91.854 Y106.645 E0.01978
G1 X91.641 Y106.940 E0.01978
G1 X91.360 Y107.172 E0.01978
G1 X91.031 Y107.327 E0.01978
G1 X90.673 Y107.395 E0.01978
G1 X90.310 Y107.372 E0.01978
G1 X89.975 Y107.263 E0.01916
G1 X89.656 Y107.065 E0.02037
G1 X89.402 Y106.789 E0.02037
G1 X89.232 Y106.480 E0.01916
G1 X89.141 Y106.127 E0.01983
G1 X89.144 Y105.753 E0.02032
G1 X89.232 Y105.411 E0.01916
G1 X89.407 Y105.092 E0.01978
G1 X89.605 Y104.882 E0.01570
G1 X89.611 Y104.465 F6000.000
G1 E-4.00000 F1800.00000
G1 X92.790 Y105.946 F6000.000
G1 X112.556 Y108.649 F6000.000
G1 X115.318 Y108.478 F6000.000
G1 X117.105 Y107.638 F6000.000
G1 X118.196 Y106.846 F6000.000
G1 X129.632 Y106.846 F6000.000
G1 X132.132 Y109.346 F6000.000
G1 X129.019 Y109.551 F6000.000
G1 E4.00000 F1800.00000
G1 X78.427 Y109.551 E4.12995 F900.000
G1 X78.427 Y104.141 E0.44162
G1 X89.553 Y104.141 E0.90825
G1 X88.963 Y104.769 E0.07039
G1 X88.721 Y105.209 E0.04095 F900.000
G1 X88.600 Y105.682 E0.03985
G1 X88.596 Y106.193 E0.04177
G1 X88.721 Y106.682 E0.04122
G1 X88.956 Y107.110 E0.03985
G1 X89.306 Y107.488 E0.04204
G1 X89.743 Y107.761 E0.04204
G1 X90.207 Y107.912 E0.03985
G1 X90.708 Y107.943 E0.04095
G1 X91.201 Y107.849 E0.04095
G1 X91.654 Y107.636 E0.04095
G1 X92.041 Y107.316 E0.04095
G1 X92.336 Y106.910 E0.04095
G1 X92.521 Y106.443 E0.04095
G1 X92.583 Y105.946 E0.04095
G1 X92.521 Y105.448 E0.04095
G1 X92.336 Y104.982 E0.04095
G1 X92.041 Y104.576 E0.04095
G1 X91.515 Y104.141 E0.05570
G1 X112.553 Y104.141 E1.71738
G1 X111.963 Y104.769 E0.07039
G1 X111.721 Y105.209 E0.04095
G1 X111.596 Y105.695 E0.04095
G1 X111.596 Y106.197 E0.04095
G1 X111.721 Y106.682 E0.04095
G1 X111.963 Y107.122 E0.04095
G1 X112.309 Y107.490 E0.04122
G1 X112.743 Y107.761 E0.04177
G1 X113.207 Y107.912 E0.03985
G1 X113.708 Y107.943 E0.04095
G1 X114.201 Y107.849 E0.04095
G1 X114.654 Y107.636 E0.04095
G1 X115.041 Y107.316 E0.04095
G1 X115.336 Y106.910 E0.04095
G1 X115.521 Y106.443 E0.04095
G1 X115.583 Y105.946 E0.04095
G1 X115.521 Y105.448 E0.04095
G1 X115.341 Y104.994 E0.03985
G1 X115.044 Y104.578 E0.04177
G1 X114.515 Y104.141 E0.05597
G1 X132.337 Y104.141 E1.45483
G1 X132.337 Y109.551 E0.44162
G1 X129.094 Y109.551 E0.26473
G1 X114.988 Y106.307 F6000.000
G1 X114.854 Y106.645 E0.01978 F900.000
G1 X114.641 Y106.940 E0.01978
G1 X114.360 Y107.172 E0.01978
G1 X114.031 Y107.327 E0.01978
G1 X113.673 Y107.395 E0.01978
G1 X113.310 Y107.372 E0.01978
G1 X112.975 Y107.263 E0.01916
G1 X112.657 Y107.065 E0.02032
G1 X112.407 Y106.799 E0.01983
G1 X112.232 Y106.480 E0.01978
G1 X112.142 Y106.128 E0.01978
G1 X112.142 Y105.764 E0.01978
G1 X112.232 Y105.411 E0.01978
G1 X112.407 Y105.092 E0.01978
G1 X112.657 Y104.827 E0.01978
G1 X112.965 Y104.631 E0.01983
G1 X113.321 Y104.519 E0.02032
G1 X113.673 Y104.497 E0.01916 F900.000
G1 X114.031 Y104.565 E0.01978
G1 X114.360 Y104.720 E0.01978
G1 X114.641 Y104.952 E0.01983
G1 X114.859 Y105.257 E0.02032
G1 X114.988 Y105.585 E0.01916
G1 X115.034 Y105.946 E0.01978
G1 X114.998 Y106.232 E0.01570
G1 X115.238 Y106.572 F6000.000
G1 X114.998 Y103.596 F6000.000
G1 X132.882 Y103.596 E0.97170 F630.000
G1 X132.882 Y110.096 E0.35316
G1 X77.882 Y110.096 E2.98831 F630.000
G1 X77.882 Y103.596 E0.35316
G1 X114.923 Y103.596 E2.01253
G1 X115.248 Y104.029 F6000.000
G1 X111.458 Y104.966 F6000.000
G1 X111.030 Y104.538 E0.04992 F900.000
G1 X110.094 Y104.538 E0.07726
G1 X111.224 Y105.668 E0.13189
G1 X111.260 Y106.639 E0.08025
G1 X109.158 Y104.538 E0.24530
G1 X108.222 Y104.538 E0.07726
G1 X112.837 Y109.153 E0.53875
G1 X112.903 Y108.283 E0.07203
G1 X113.773 Y109.153 E0.10157
G1 X114.709 Y109.153 E0.07726
G1 X113.852 Y108.296 E0.10005
G1 X114.560 Y108.068 E0.06140
G1 X115.645 Y109.153 E0.12665
G1 X116.581 Y109.153 E0.07726
G1 X115.120 Y107.692 E0.17054
G1 X115.555 Y107.191 E0.05477
G1 X117.517 Y109.153 E0.22908
G1 X118.453 Y109.153 E0.07726
G1 X115.858 Y106.558 E0.30295
G1 X115.977 Y105.741 E0.06818
G1 X119.389 Y109.153 E0.39837
G1 X120.325 Y109.153 E0.07726
G1 X115.710 Y104.538 E0.53875
G1 X116.646 Y104.538 E0.07726
G1 X121.261 Y109.153 E0.53875
G1 X122.197 Y109.153 E0.07726
G1 X117.582 Y104.538 E0.53875
G1 X118.518 Y104.538 E0.07726
G1 X123.133 Y109.153 E0.53875
G1 X124.069 Y109.153 E0.07726
G1 X119.454 Y104.538 E0.53875
G1 X120.390 Y104.538 E0.07726
G1 X125.005 Y109.153 E0.53875
G1 X125.941 Y109.153 E0.07726
G1 X121.326 Y104.538 E0.53875
G1 X122.262 Y104.538 E0.07726
G1 X126.877 Y109.153 E0.53875
G1 X127.813 Y109.153 E0.07726
G1 X123.198 Y104.538 E0.53875
G1 X124.134 Y104.538 E0.07726
G1 X128.749 Y109.153 E0.53875
G1 X129.685 Y109.153 E0.07726
G1 X125.070 Y104.538 E0.53875
G1 X126.006 Y104.538 E0.07726
G1 X130.621 Y109.153 E0.53875
G1 X131.557 Y109.153 E0.07726
G1 X126.942 Y104.538 E0.53875
G1 X127.878 Y104.538 E0.07726
G1 X131.940 Y108.600 E0.47415
G1 X131.940 Y107.664 E0.07726
G1 X128.814 Y104.538 E0.36488
G1 X129.750 Y104.538 E0.07726
G1 X131.940 Y106.728 E0.25562
G1 X131.940 Y105.792 E0.07726
G1 X130.686 Y104.538 E0.14635
G1 X131.622 Y104.538 E0.07726
G1 X131.940 Y104.856 E0.03709
G1 X107.286 Y104.538 F6000.000
G1 X111.901 Y109.153 E0.53875 F900.000
G1 X110.965 Y109.153 E0.07726
G1 X106.351 Y104.538 E0.53875
G1 X105.415 Y104.538 E0.07726
G1 X110.029 Y109.153 E0.53875
G1 X109.094 Y109.153 E0.07726
G1 X104.479 Y104.538 E0.53875
G1 X103.543 Y104.538 E0.07726
G1 X108.158 Y109.153 E0.53875
G1 X107.222 Y109.153 E0.07726
G1 X102.607 Y104.538 E0.53875
G1 X101.671 Y104.538 E0.07726
G1 X106.286 Y109.153 E0.53875
G1 X105.350 Y109.153 E0.07726
G1 X100.735 Y104.538 E0.53875
G1 X99.799 Y104.538 E0.07726
G1 X104.414 Y109.153 E0.53875
G1 X103.478 Y109.153 E0.07726
G1 X98.863 Y104.538 E0.53875
G1 X97.927 Y104.538 E0.07726
G1 X102.542 Y109.153 E0.53875
G1 X101.606 Y109.153 E0.07726
G1 X96.991 Y104.538 E0.53875
G1 X96.055 Y104.538 E0.07726
G1 X100.670 Y109.153 E0.53875
G1 X99.734 Y109.153 E0.07726
G1 X95.119 Y104.538 E0.53875
G1 X94.183 Y104.538 E0.07726
G1 X98.798 Y109.153 E0.53875
G1 X97.862 Y109.153 E0.07726
G1 X93.247 Y104.538 E0.53875
G1 X92.878 Y105.105 E0.05584
G1 X96.926 Y109.153 E0.47257
G1 X95.990 Y109.153 E0.07726
G1 X92.947 Y106.110 E0.35524
G1 X92.745 Y106.844 E0.06284
G1 X95.054 Y109.153 E0.26955
G1 X94.118 Y109.153 E0.07726
G1 X92.387 Y107.422 E0.20208
G1 X91.902 Y107.873 E0.05467
G1 X93.182 Y109.153 E0.14943
G1 X92.246 Y109.153 E0.07726
G1 X91.289 Y108.196 E0.11173
G1 X90.494 Y108.337 E0.06666
G1 X91.310 Y109.153 E0.09529
G1 X90.374 Y109.153 E0.07726
G1 X85.759 Y104.538 E0.53875
G1 X84.823 Y104.538 E0.07726
G1 X89.438 Y109.153 E0.53875
G1 X88.502 Y109.153 E0.07726
G1 X83.887 Y104.538 E0.53875
G1 X82.951 Y104.538 E0.07726
G1 X87.566 Y109.153 E0.53875
G1 X86.630 Y109.153 E0.07726
G1 X82.015 Y104.538 E0.53875
G1 X81.079 Y104.538 E0.07726
G1 X85.694 Y109.153 E0.53875
G1 X84.758 Y109.153 E0.07726
G1 X80.143 Y104.538 E0.53875
G1 X79.207 Y104.538 E0.07726
G1 X83.822 Y109.153 E0.53875
G1 X82.886 Y109.153 E0.07726
G1 X78.825 Y105.092 E0.47415
G1 X78.825 Y106.028 E0.07726
G1 X81.950 Y109.153 E0.36488
G1 X81.014 Y109.153 E0.07726
G1 X78.825 Y106.964 E0.25561
G1 X78.825 Y107.900 E0.07726
G1 X80.078 Y109.153 E0.14635
G1 X79.142 Y109.153 E0.07726
G1 X78.825 Y108.836 E0.03708
G1 X86.695 Y104.538 F6000.000
G1 X88.201 Y106.044 E0.17576 F900.000
G1 X88.334 Y105.241 E0.06717
G1 X87.631 Y104.538 E0.08205
G1 E-4.00000 F1800.00000
G1 Z0.300 F6000.000
G1 X77.218 Y102.346 F6000.000
G1 X76.085 Y101.213 F6000.000
G1 X76.454 Y101.108 F6000.000
G1 X76.454 Y99.654 F6000.000
G1 X111.003 Y92.973 F6000.000
G1 E4.00000 F1800.00000
G1 X110.881 Y92.499 E0.02658 F900.000
G1 X110.881 Y92.010 E0.02658
G1 X111.001 Y91.544 E0.02612
G1 X111.238 Y91.107 E0.02701
G1 X111.574 Y90.750 E0.02662
G1 X111.987 Y90.488 E0.02662
G1 X112.461 Y90.336 E0.02701
G1 X112.940 Y90.306 E0.02612 F900.000
G1 X113.421 Y90.398 E0.02658
G1 X113.864 Y90.606 E0.02658
G1 X114.241 Y90.918 E0.02658
G1 X114.528 Y91.314 E0.02658
G1 X114.709 Y91.769 E0.02659
G1 X114.770 Y92.255 E0.02662
G1 X114.705 Y92.748 E0.02701
G1 X114.528 Y93.195 E0.02612
G1 X114.241 Y93.591 E0.02658
G1 X113.864 Y93.902 E0.02659
G1 X113.421 Y94.111 E0.02658
G1 X112.940 Y94.202 E0.02658
G1 X112.452 Y94.172 E0.02658
G1 X111.987 Y94.021 E0.02659
G1 X111.574 Y93.758 E0.02658
G1 X111.239 Y93.402 E0.02658
G1 X111.039 Y93.039 E0.02251
G1 X110.522 Y92.881 F6000.000
G1 X91.770 Y92.254 F6000.000
G1 X91.709 Y92.740 E0.02658 F900.000
G1 X91.528 Y93.195 E0.02658
G1 X91.241 Y93.591 E0.02661
G1 X90.857 Y93.906 E0.02701
G1 X90.417 Y94.112 E0.02634
G1 X89.946 Y94.202 E0.02610
G1 X89.439 Y94.168 E0.02759
G1 X88.991 Y94.022 E0.02559
G1 X88.570 Y93.755 E0.02706
G1 X88.238 Y93.400 E0.02644
G1 X88.007 Y92.981 E0.02601
G1 X87.881 Y92.499 E0.02706
G1 X87.881 Y92.010 E0.02659
G1 X88.000 Y91.547 E0.02597
G1 X88.238 Y91.107 E0.02715
G1 X88.574 Y90.750 E0.02662
G1 X88.987 Y90.488 E0.02659
G1 X89.807 Y90.222 E0.04686 F900.000
G1 X89.807 Y90.281 E0.00321
G1 X90.421 Y90.398 E0.03396
G1 X90.864 Y90.606 E0.02659
G1 X91.241 Y90.918 E0.02658
G1 X91.528 Y91.314 E0.02658
G1 X91.709 Y91.769 E0.02658
G1 X91.760 Y92.180 E0.02251
G1 X92.183 Y92.516 F6000.000
G1 E-4.00000 F1800.00000
G1 X87.269 Y91.378 F6000.000
G1 X86.860 Y91.119 F6000.000
G1 X87.622 Y90.660 F6000.000
G1 X87.624 Y90.659 F6000.000
G1 X87.635 Y90.654 F6000.000
G1 X81.486 Y90.449 F6000.000
G1 E4.00000 F1800.00000
G1 X88.109 Y90.449 E0.54063 F900.000
G1 X87.793 Y90.786 E0.03766
G1 X87.489 Y91.346 E0.05204 F900.000
G1 X87.336 Y91.941 E0.05014
G1 X87.336 Y92.569 E0.05126
G1 X87.496 Y93.184 E0.05190
G1 X87.793 Y93.723 E0.05023
G1 X88.220 Y94.179 E0.05097
G1 X88.757 Y94.519 E0.05193
G1 X89.335 Y94.707 E0.04959
G1 X89.979 Y94.751 E0.05270
G1 X90.587 Y94.634 E0.05050
G1 X91.150 Y94.371 E0.05074
G1 X91.641 Y93.968 E0.05187
G1 X92.010 Y93.459 E0.05129
G1 X92.241 Y92.876 E0.05118
G1 X92.319 Y92.254 E0.05118
G1 X92.241 Y91.632 E0.05118
G1 X92.010 Y91.049 E0.05118
G1 X91.574 Y90.449 E0.06053
G1 X111.109 Y90.449 E1.59465
G1 X110.793 Y90.785 E0.03763
G1 X110.490 Y91.343 E0.05182
G1 X110.336 Y91.941 E0.05038
G1 X110.336 Y92.568 E0.05118
G1 X110.492 Y93.175 E0.05118
G1 X110.794 Y93.725 E0.05118
G1 X111.223 Y94.182 E0.05118
G1 X111.753 Y94.518 E0.05118
G1 X112.349 Y94.711 E0.05119
G1 X112.975 Y94.751 E0.05118
G1 X113.591 Y94.633 E0.05118
G1 X114.158 Y94.366 E0.05118
G1 X114.641 Y93.967 E0.05118
G1 X115.010 Y93.459 E0.05118
G1 X115.237 Y92.886 E0.05038
G1 X115.320 Y92.256 E0.05182
G1 X115.241 Y91.632 E0.05134
G1 X115.010 Y91.049 E0.05118
G1 X114.574 Y90.449 E0.06053
G1 X131.573 Y90.449 E1.38766
G1 X131.573 Y97.859 E0.60489
G1 X77.663 Y97.859 E4.40081
G1 X77.663 Y90.449 E0.60489
G1 X81.411 Y90.449 E0.30594
G1 X81.411 Y89.904 F6000.000
G1 X132.118 Y89.904 E2.75506 F630.000
G1 X132.118 Y98.404 E0.46183
G1 X77.118 Y98.404 E2.98831 F630.000
G1 X77.118 Y89.904 E0.46183
G1 X81.336 Y89.904 E0.22917
G1 X81.661 Y90.337 F6000.000
G1 X83.019 Y90.847 F6000.000
G1 X89.634 Y97.462 E0.77391 F900.000
G1 X88.696 Y97.462 E0.07760
G1 X82.081 Y90.847 E0.77391
G1 X81.143 Y90.847 E0.07760
G1 X87.758 Y97.462 E0.77391
G1 X86.820 Y97.462 E0.07760
G1 X80.205 Y90.847 E0.77391
G1 X79.267 Y90.847 E0.07760
G1 X85.882 Y97.462 E0.77391
G1 X84.944 Y97.462 E0.07760
G1 X78.329 Y90.847 E0.77391
G1 X78.060 Y91.516 E0.05966
G1 X84.006 Y97.462 E0.69561
G1 X83.068 Y97.462 E0.07760
G1 X78.060 Y92.454 E0.58587
G1 X78.060 Y93.392 E0.07760
G1 X82.130 Y97.462 E0.47613
G1 X81.192 Y97.462 E0.07760
G1 X78.060 Y94.330 E0.36639
G1 X78.060 Y95.268 E0.07760
G1 X80.254 Y97.462 E0.25664
G1 X79.316 Y97.462 E0.07760
G1 X78.060 Y96.206 E0.14690
G1 X78.060 Y97.144 E0.07760
G1 X78.378 Y97.462 E0.03716
G1 X87.155 Y91.231 F6000.000
G1 X86.771 Y90.847 E0.04492 F900.000
G1 X85.833 Y90.847 E0.07760
G1 X86.951 Y91.964 E0.13075
G1 X86.979 Y92.930 E0.07996
G1 X84.895 Y90.847 E0.24378
G1 X83.957 Y90.847 E0.07760
G1 X90.572 Y97.462 E0.77391
G1 X91.510 Y97.462 E0.07760
G1 X89.151 Y95.103 E0.27598
G1 X90.095 Y95.109 E0.07810
G1 X92.448 Y97.462 E0.27527
G1 X93.386 Y97.462 E0.07760
G1 X90.832 Y94.908 E0.29880
G1 X91.438 Y94.576 E0.05715
G1 X94.324 Y97.462 E0.33768
G1 X95.262 Y97.462 E0.07760
G1 X91.939 Y94.139 E0.38876
G1 X92.334 Y93.596 E0.05555
G1 X96.200 Y97.462 E0.45232
G1 X97.138 Y97.462 E0.07760
G1 X92.604 Y92.927 E0.53053
G1 X92.720 Y92.105 E0.06867
G1 X98.076 Y97.462 E0.62668
G1 X99.014 Y97.462 E0.07760
G1 X92.438 Y90.885 E0.76939
G1 X93.337 Y90.847 E0.07447
G1 X99.952 Y97.462 E0.77391
G1 X100.890 Y97.462 E0.07760
G1 X94.275 Y90.847 E0.77391
G1 X95.213 Y90.847 E0.07760
G1 X101.828 Y97.462 E0.77391
G1 X102.766 Y97.462 E0.07760
G1 X96.151 Y90.847 E0.77391
G1 X97.089 Y90.847 E0.07760
G1 X103.704 Y97.462 E0.77391
G1 X104.642 Y97.462 E0.07760
G1 X98.027 Y90.847 E0.77391
G1 X98.965 Y90.847 E0.07760
G1 X105.580 Y97.462 E0.77391
G1 X106.518 Y97.462 E0.07760
G1 X99.903 Y90.847 E0.77391
G1 X100.841 Y90.847 E0.07760
G1 X107.456 Y97.462 E0.77391
G1 X108.394 Y97.462 E0.07760
G1 X101.779 Y90.847 E0.77391
G1 X102.717 Y90.847 E0.07760
G1 X109.332 Y97.462 E0.77391
G1 X110.270 Y97.462 E0.07760
G1 X103.655 Y90.847 E0.77391
G1 X104.593 Y90.847 E0.07760
G1 X111.208 Y97.462 E0.77391
G1 X112.146 Y97.462 E0.07760
G1 X105.531 Y90.847 E0.77391
G1 X110.043 Y91.606 F6000.000
G1 X109.283 Y90.847 E0.08885 F900.000
G1 X108.345 Y90.847 E0.07760
G1 X109.939 Y92.440 E0.18641
G1 X110.195 Y93.635 E0.10108
G1 X107.407 Y90.847 E0.32616
G1 X106.469 Y90.847 E0.07760
G1 X113.084 Y97.462 E0.77391
G1 X114.022 Y97.462 E0.07760
G1 X111.450 Y94.889 E0.30095
G1 X112.635 Y95.137 E0.10016
G1 X114.960 Y97.462 E0.27203
