;(.../Electronics/Eagle/pcb-gcode/pcb-gcode.ulp)
;(Copyright 2005 - 2012 by John Johnson)
;(See readme.txt for licensing terms.)
;(This file generated from the board:)
;(.../Alexa Switch/Electronics/alswitch.brd)
;(Current profile is .../pcb-gcode/profiles/generic.pp  )
;(This file generated 14/11/2016 11:50)
;(Settings from pcb-machine.h)
;(spindle on time = 1000.0000)
;(spindle speed = 20000.0000)
;(tool change at 0.0000 0.0000 5.0000 )
;(feed rate xy = F0.00  )
;(feed rate z  = F500.00 )
;(Z Axis Settings)
;(  High     Up        Down     Drill)
;(5.0000 	2.0000 	-0.2000 	-2.0000 )
;(Settings from pcb-defaults.h)
;(isolate min = 0.0250)
;(isolate max = 0.5000)
;(isolate step = 0.0800)
;(Generated bottom outlines, bottom drill, )
;(Unit of measure: mm)
;( Tool|       Size       |  Min Sub |  Max Sub |   Count )
;( T01  0.600mm 0.0236in 0.0000in 0.0000in )
;( T02  0.800mm 0.0315in 0.0000in 0.0000in )
;( T03  1.000mm 0.0394in 0.0000in 0.0000in )
;( T04  1.016mm 0.0400in 0.0000in 0.0000in )
;( T05  1.300mm 0.0512in 0.0000in 0.0000in )
;( T06  2.750mm 0.1083in 0.0000in 0.0000in )
;(Metric Mode)
G21
;(Absolute Coordinates)
G90
;S20000
G00 Z5.0000  F3000
G00 X0.0000 Y0.0000  F3000
;M03 S1
G04 P1000.000000
;M03 S0
;M06 T01  ; 0.6000 
G01 Z0.0000 F500.00 
;M06 
G00 Z2.0000  F3000
;M03 S1
G04 P1000.000000
G00 X-19.0500 Y30.4800  F3000
G01 Z-2.0000 F500.00 
G00 Z2.0000  F3000
G00 X-20.3200 Y38.1000  F3000
G01 Z-2.0000 F500.00 
G00 Z2.0000  F3000
G00 X-46.9900 Y43.1800  F3000
G01 Z-2.0000 F500.00 
G00 Z2.0000  F3000
G00 X-50.8000 Y31.7500  F3000
G01 Z-2.0000 F500.00 
G00 Z2.0000  F3000
G00 X-58.4200 Y19.0500  F3000
G01 Z-2.0000 F500.00 
G00 Z2.0000  F3000
G00 X-52.0700 Y12.7000  F3000
G01 Z-2.0000 F500.00 
G00 Z2.0000  F3000
G00 X-69.8500 Y29.2100  F3000
G01 Z-2.0000 F500.00 
G00 Z2.0000  F3000
G00 X-66.0400 Y40.6400  F3000
G01 Z-2.0000 F500.00 
G00 Z2.0000  F3000
G00 X-77.4700 Y5.0800  F3000
G01 Z-2.0000 F500.00 
G00 Z2.0000  F3000
G00 X-96.5200 Y7.6200  F3000
G01 Z-2.0000 F500.00 
G00 Z2.0000  F3000
;M03 S0
G00 Z5.0000  F3000
G00 X0.0000 Y0.0000  F3000
;M06 T02  ; 0.8000 
G01 Z0.0000 F500.00 
;M06 
G00 Z2.0000  F3000
;M03 S1
G04 P1000.000000
G00 X-7.6200 Y7.7000  F3000
G01 Z-2.0000 F500.00 
G00 Z2.0000  F3000
G00 X-15.7900 Y16.5000  F3000
G01 Z-2.0000 F500.00 
G00 Z2.0000  F3000
G00 X-15.7900 Y24.1200  F3000
G01 Z-2.0000 F500.00 
G00 Z2.0000  F3000
G00 X-15.7900 Y34.2800  F3000
G01 Z-2.0000 F500.00 
G00 Z2.0000  F3000
G00 X-15.7900 Y36.8200  F3000
G01 Z-2.0000 F500.00 
G00 Z2.0000  F3000
G00 X-7.6200 Y30.4000  F3000
G01 Z-2.0000 F500.00 
G00 Z2.0000  F3000
;M03 S0
G00 Z5.0000  F3000
G00 X0.0000 Y0.0000  F3000
;M06 T03  ; 1.0000 
G01 Z0.0000 F500.00 
;M06 
G00 Z2.0000  F3000
;M03 S1
G04 P1000.000000
G00 X-38.1200 Y34.2300  F3000
G01 Z-2.0000 F500.00 
G00 Z2.0000  F3000
G00 X-40.6600 Y34.2300  F3000
G01 Z-2.0000 F500.00 
G00 Z2.0000  F3000
G00 X-40.6600 Y36.7700  F3000
G01 Z-2.0000 F500.00 
G00 Z2.0000  F3000
G00 X-38.1200 Y36.7700  F3000
G01 Z-2.0000 F500.00 
G00 Z2.0000  F3000
G00 X-43.2000 Y36.7700  F3000
G01 Z-2.0000 F500.00 
G00 Z2.0000  F3000
G00 X-45.7400 Y36.7700  F3000
G01 Z-2.0000 F500.00 
G00 Z2.0000  F3000
G00 X-48.2800 Y36.7700  F3000
G01 Z-2.0000 F500.00 
G00 Z2.0000  F3000
G00 X-50.8200 Y36.7700  F3000
G01 Z-2.0000 F500.00 
G00 Z2.0000  F3000
G00 X-53.3600 Y36.7700  F3000
G01 Z-2.0000 F500.00 
G00 Z2.0000  F3000
G00 X-55.9000 Y36.7700  F3000
G01 Z-2.0000 F500.00 
G00 Z2.0000  F3000
G00 X-58.4400 Y36.7700  F3000
G01 Z-2.0000 F500.00 
G00 Z2.0000  F3000
G00 X-60.9800 Y36.7700  F3000
G01 Z-2.0000 F500.00 
G00 Z2.0000  F3000
G00 X-60.9800 Y34.2300  F3000
G01 Z-2.0000 F500.00 
G00 Z2.0000  F3000
G00 X-58.4400 Y34.2300  F3000
G01 Z-2.0000 F500.00 
G00 Z2.0000  F3000
G00 X-55.9000 Y34.2300  F3000
G01 Z-2.0000 F500.00 
G00 Z2.0000  F3000
G00 X-53.3600 Y34.2300  F3000
G01 Z-2.0000 F500.00 
G00 Z2.0000  F3000
G00 X-50.8200 Y34.2300  F3000
G01 Z-2.0000 F500.00 
G00 Z2.0000  F3000
G00 X-48.2800 Y34.2300  F3000
G01 Z-2.0000 F500.00 
G00 Z2.0000  F3000
G00 X-45.7400 Y34.2300  F3000
G01 Z-2.0000 F500.00 
G00 Z2.0000  F3000
G00 X-43.2000 Y34.2300  F3000
G01 Z-2.0000 F500.00 
G00 Z2.0000  F3000
G00 X-63.5200 Y34.2300  F3000
G01 Z-2.0000 F500.00 
G00 Z2.0000  F3000
G00 X-66.0600 Y34.2300  F3000
G01 Z-2.0000 F500.00 
G00 Z2.0000  F3000
G00 X-68.6000 Y34.2300  F3000
G01 Z-2.0000 F500.00 
G00 Z2.0000  F3000
G00 X-68.6000 Y36.7700  F3000
G01 Z-2.0000 F500.00 
G00 Z2.0000  F3000
G00 X-66.0600 Y36.7700  F3000
G01 Z-2.0000 F500.00 
G00 Z2.0000  F3000
G00 X-63.5200 Y36.7700  F3000
G01 Z-2.0000 F500.00 
G00 Z2.0000  F3000
G00 X-71.1400 Y36.7700  F3000
G01 Z-2.0000 F500.00 
G00 Z2.0000  F3000
G00 X-71.1400 Y34.2300  F3000
G01 Z-2.0000 F500.00 
G00 Z2.0000  F3000
G00 X-73.6800 Y34.2300  F3000
G01 Z-2.0000 F500.00 
G00 Z2.0000  F3000
G00 X-76.2200 Y34.2300  F3000
G01 Z-2.0000 F500.00 
G00 Z2.0000  F3000
G00 X-76.2200 Y36.7700  F3000
G01 Z-2.0000 F500.00 
G00 Z2.0000  F3000
G00 X-73.6800 Y36.7700  F3000
G01 Z-2.0000 F500.00 
G00 Z2.0000  F3000
G00 X-78.7600 Y36.7700  F3000
G01 Z-2.0000 F500.00 
G00 Z2.0000  F3000
G00 X-81.3000 Y36.7700  F3000
G01 Z-2.0000 F500.00 
G00 Z2.0000  F3000
G00 X-81.3000 Y34.2300  F3000
G01 Z-2.0000 F500.00 
G00 Z2.0000  F3000
G00 X-78.7600 Y34.2300  F3000
G01 Z-2.0000 F500.00 
G00 Z2.0000  F3000
G00 X-83.8400 Y34.2300  F3000
G01 Z-2.0000 F500.00 
G00 Z2.0000  F3000
G00 X-86.3800 Y34.2300  F3000
G01 Z-2.0000 F500.00 
G00 Z2.0000  F3000
G00 X-86.3800 Y36.7700  F3000
G01 Z-2.0000 F500.00 
G00 Z2.0000  F3000
G00 X-83.8400 Y36.7700  F3000
G01 Z-2.0000 F500.00 
G00 Z2.0000  F3000
;M03 S0
G00 Z5.0000  F3000
G00 X0.0000 Y0.0000  F3000
;M06 T04  ; 1.0160 
G01 Z0.0000 F500.00 
;M06 
G00 Z2.0000  F3000
;M03 S1
G04 P1000.000000
G00 X-20.3200 Y41.9100  F3000
G01 Z-2.0000 F500.00 
G00 Z2.0000  F3000
G00 X-22.8600 Y41.9100  F3000
G01 Z-2.0000 F500.00 
G00 Z2.0000  F3000
G00 X-97.7900 Y33.0200  F3000
G01 Z-2.0000 F500.00 
G00 Z2.0000  F3000
G00 X-97.7900 Y30.4800  F3000
G01 Z-2.0000 F500.00 
G00 Z2.0000  F3000
G00 X-97.7900 Y27.9400  F3000
G01 Z-2.0000 F500.00 
G00 Z2.0000  F3000
G00 X-97.7900 Y25.4000  F3000
G01 Z-2.0000 F500.00 
G00 Z2.0000  F3000
G00 X-97.7900 Y22.8600  F3000
G01 Z-2.0000 F500.00 
G00 Z2.0000  F3000
G00 X-97.7900 Y20.3200  F3000
G01 Z-2.0000 F500.00 
G00 Z2.0000  F3000
G00 X-97.7900 Y17.7800  F3000
G01 Z-2.0000 F500.00 
G00 Z2.0000  F3000
G00 X-97.7900 Y15.2400  F3000
G01 Z-2.0000 F500.00 
G00 Z2.0000  F3000
G00 X-97.7900 Y12.7000  F3000
G01 Z-2.0000 F500.00 
G00 Z2.0000  F3000
G00 X-97.7900 Y10.1600  F3000
G01 Z-2.0000 F500.00 
G00 Z2.0000  F3000
G00 X-92.4900 Y5.0300  F3000
G01 Z-2.0000 F500.00 
G00 Z2.0000  F3000
G00 X-89.9500 Y5.0300  F3000
G01 Z-2.0000 F500.00 
G00 Z2.0000  F3000
;M03 S0
G00 Z5.0000  F3000
G00 X0.0000 Y0.0000  F3000
;M06 T05  ; 1.3000 
G01 Z0.0000 F500.00 
;M06 
G00 Z2.0000  F3000
;M03 S1
G04 P1000.000000
G00 X-16.3189 Y9.8750  F3000
G01 Z-2.0000 F500.00 
G00 Z2.0000  F3000
G00 X-21.3989 Y9.8750  F3000
G01 Z-2.0000 F500.00 
G00 Z2.0000  F3000
;M03 S0
G00 Z5.0000  F3000
G00 X0.0000 Y0.0000  F3000
;M06 T06  ; 2.7500 
G01 Z0.0000 F500.00 
;M06 
G00 Z2.0000  F3000
;M03 S1
G04 P1000.000000
G00 X-33.2500 Y12.5000  F3000
G01 Z-2.0000 F500.00 
G00 Z2.0000  F3000
G00 X-33.2500 Y35.5000  F3000
G01 Z-2.0000 F500.00 
G00 Z2.0000  F3000
G00 X-91.2500 Y35.5000  F3000
G01 Z-2.0000 F500.00 
G00 Z2.0000  F3000
G00 X-91.2500 Y12.5000  F3000
G01 Z-2.0000 F500.00 
G00 Z2.0000  F3000
;T01 
G00 Z5.0000  F3000
;M03 S0
M0
