;(.../Electronics/Eagle/pcb-gcode/pcb-gcode.ulp)
;(Copyright 2005 - 2012 by John Johnson)
;(See readme.txt for licensing terms.)
;(This file generated from the board:)
;(.../Alexa Switch/Electronics/alswitch.brd)
;(Current profile is .../pcb-gcode/profiles/generic.pp  )
;(This file generated 14/11/2016 11:49)
;(Settings from pcb-machine.h)
;(spindle on time = 1000.0000)
;(  Tool Size)
;(0.1778 )
;(spindle speed = 30000.0000)
;(tool change at 0.0000 0.0000 5.0000 )
;(feed rate xy = F500.00 )
;(feed rate z  = F200.00 )
;(Z Axis Settings)
;(  High     Up        Down     Drill)
;(5.0000 	2.0000 	-0.2000 	-2.0000 )
;(Settings from pcb-defaults.h)
;(isolate min = 0.0250)
;(isolate max = 0.5000)
;(isolate step = 0.0800)
;(Generated bottom outlines, bottom drill, )
;(Unit of measure: mm)
;(Metric Mode)
G21
;(Absolute Coordinates)
G90
;S30000
G00 Z5.0000  F3000
G00 X0.0000 Y0.0000  F3000
;M03 S1
G04 P1000.000000
G00 Z2.0000  F3000
G00 X-2.2342 Y0.9642  F3000
G01 Z-0.2000 F200.00 
G01 X-2.2342 Y0.9837 F500.00 
G01 X-2.2537 Y0.9642 
G01 X-2.2342 Y0.9642 
G00 Z2.0000  F3000
G00 X-5.9764 Y5.3738  F3000
G01 Z-0.2000 F200.00 
G01 X-5.3738 Y5.9764 F500.00 
G01 X-5.0042 Y6.6165 
G01 X-4.8129 Y7.3304 
G01 X-4.8129 Y8.0696 
G01 X-5.0042 Y8.7835 
G01 X-5.3738 Y9.4236 
G01 X-5.8964 Y9.9462 
G01 X-6.5365 Y10.3158 
G01 X-7.2504 Y10.5071 
G01 X-7.9896 Y10.5071 
G01 X-8.2881 Y10.4271 
G01 X-12.6890 Y10.4271 
G01 X-12.7954 Y10.4556 
G01 X-12.8909 Y10.5108 
G01 X-12.9689 Y10.5887 
G01 X-14.5014 Y12.1212 
G01 X-15.1415 Y12.4908 
G01 X-15.8554 Y12.6821 
G01 X-16.6885 Y12.6821 
G01 X-17.4024 Y12.4908 
G01 X-18.0425 Y12.1212 
G01 X-18.1071 Y12.0566 
G01 X-18.1315 Y12.0426 
G01 X-18.2026 Y12.0015 
G01 X-18.2222 Y11.9962 
G01 X-18.3091 Y11.9730 
G01 X-18.4193 Y11.9730 
G01 X-18.4680 Y11.9860 
G01 X-18.5258 Y12.0015 
G01 X-18.5503 Y12.0157 
G01 X-18.6213 Y12.0566 
G01 X-18.6992 Y12.1346 
G01 X-18.7133 Y12.1589 
G01 X-18.7544 Y12.2300 
G01 X-18.7596 Y12.2497 
G01 X-18.7829 Y12.3365 
G01 X-18.7829 Y13.3293 
G01 X-18.7544 Y13.4358 
G01 X-18.6992 Y13.5313 
G01 X-18.6213 Y13.6092 
G01 X-18.5258 Y13.6644 
G01 X-18.4193 Y13.6929 
G01 X-15.4204 Y13.6929 
G01 X-14.7065 Y13.8842 
G01 X-14.0664 Y14.2538 
G01 X-13.5438 Y14.7764 
G01 X-13.5206 Y14.8164 
G01 X-13.4655 Y14.9119 
G01 X-13.4056 Y14.9718 
G01 X-13.3876 Y14.9899 
G01 X-13.0071 Y15.3703 
G01 X-12.7035 Y16.1033 
G01 X-12.7035 Y16.8967 
G01 X-13.0071 Y17.6297 
G01 X-13.3876 Y18.0101 
G01 X-13.4037 Y18.0263 
G01 X-13.4655 Y18.0881 
G01 X-13.5206 Y18.1836 
G01 X-13.5438 Y18.2236 
G01 X-14.0664 Y18.7462 
G01 X-14.7065 Y19.1158 
G01 X-15.4204 Y19.3071 
G01 X-21.1831 Y19.3071 
G01 X-21.2204 Y19.3171 
G01 X-21.9596 Y19.3171 
G01 X-22.6735 Y19.1258 
G01 X-23.3136 Y18.7562 
G01 X-23.8362 Y18.2336 
G01 X-24.2058 Y17.5935 
G01 X-24.3971 Y16.8796 
G01 X-24.3971 Y9.6965 
G01 X-24.2058 Y8.9826 
G01 X-23.8362 Y8.3425 
G01 X-23.1225 Y7.6288 
G01 X-22.4824 Y7.2592 
G01 X-21.7685 Y7.0679 
G01 X-21.0293 Y7.0679 
G01 X-20.3154 Y7.2592 
G01 X-19.6753 Y7.6288 
G01 X-19.1160 Y8.1881 
G01 X-19.0205 Y8.2432 
G01 X-18.9140 Y8.2717 
G01 X-18.8038 Y8.2717 
G01 X-18.7992 Y8.2705 
G01 X-18.6973 Y8.2432 
G01 X-18.6039 Y8.1893 
G01 X-18.6018 Y8.1881 
G01 X-18.5239 Y8.1101 
G01 X-18.0425 Y7.6288 
G01 X-17.8203 Y7.5005 
G01 X-17.7424 Y7.4225 
G01 X-16.2162 Y5.8964 
G01 X-15.6936 Y5.3738 
G01 X-15.0535 Y5.0042 
G01 X-14.3396 Y4.8129 
G01 X-7.3304 Y4.8129 
G01 X-6.6165 Y5.0042 
G01 X-5.9764 Y5.3738 
G00 Z2.0000  F3000
G00 X-6.0989 Y6.3660  F3000
G01 Z-0.2000 F200.00 
G01 X-6.3660 Y6.0989 F500.00 
G01 X-6.5759 Y5.9377 
G01 X-6.8051 Y5.8054 
G01 X-7.0496 Y5.7041 
G01 X-7.3053 Y5.6356 
G01 X-7.5677 Y5.6011 
G01 X-14.1023 Y5.6011 
G01 X-14.3647 Y5.6356 
G01 X-14.6203 Y5.7041 
G01 X-14.8649 Y5.8054 
G01 X-15.0940 Y5.9377 
G01 X-15.3040 Y6.0989 
G01 X-15.4911 Y6.2860 
G01 X-17.3364 Y8.1312 
G01 X-17.4429 Y8.1927 
G01 X-17.6529 Y8.3539 
G01 X-17.8400 Y8.5410 
G01 X-18.0012 Y8.7509 
G01 X-18.1335 Y8.9801 
G01 X-18.2348 Y9.2247 
G01 X-18.3033 Y9.4803 
G01 X-18.3378 Y9.7427 
G01 X-18.3378 Y10.0073 
G01 X-18.3033 Y10.2697 
G01 X-18.2348 Y10.5253 
G01 X-18.1335 Y10.7698 
G01 X-18.0012 Y10.9990 
G01 X-17.8400 Y11.2090 
G01 X-17.6529 Y11.3961 
G01 X-17.4429 Y11.5573 
G01 X-17.2138 Y11.6896 
G01 X-16.9692 Y11.7909 
G01 X-16.7136 Y11.8594 
G01 X-16.4512 Y11.8939 
G01 X-16.0927 Y11.8939 
G01 X-15.8303 Y11.8594 
G01 X-15.5747 Y11.7909 
G01 X-15.3301 Y11.6896 
G01 X-15.1009 Y11.5573 
G01 X-14.8910 Y11.3961 
G01 X-13.1337 Y9.6389 
G01 X-8.1844 Y9.6389 
G01 X-8.0147 Y9.6844 
G01 X-7.7523 Y9.7189 
G01 X-7.4877 Y9.7189 
G01 X-7.2253 Y9.6844 
G01 X-6.9696 Y9.6159 
G01 X-6.7251 Y9.5146 
G01 X-6.4959 Y9.3823 
G01 X-6.2860 Y9.2211 
G01 X-6.0989 Y9.0340 
G01 X-5.9377 Y8.8240 
G01 X-5.8054 Y8.5948 
G01 X-5.7041 Y8.3503 
G01 X-5.6356 Y8.0947 
G01 X-5.6011 Y7.8323 
G01 X-5.6011 Y7.5677 
G01 X-5.6356 Y7.3053 
G01 X-5.7041 Y7.0496 
G01 X-5.8054 Y6.8051 
G01 X-5.9377 Y6.5759 
G01 X-6.0989 Y6.3660 
G00 Z2.0000  F3000
G00 X-6.5365 Y21.5142  F3000
G01 Z-0.2000 F200.00 
G01 X-5.8964 Y21.8838 F500.00 
G01 X-5.3738 Y22.4064 
G01 X-5.0042 Y23.0465 
G01 X-4.8129 Y23.7604 
G01 X-4.8129 Y30.7696 
G01 X-5.0042 Y31.4835 
G01 X-5.3738 Y32.1236 
G01 X-5.8964 Y32.6462 
G01 X-6.5365 Y33.0158 
G01 X-7.2504 Y33.2071 
G01 X-7.9896 Y33.2071 
G01 X-8.7035 Y33.0158 
G01 X-9.3436 Y32.6462 
G01 X-9.8662 Y32.1236 
G01 X-10.2358 Y31.4835 
G01 X-10.4271 Y30.7696 
G01 X-10.4271 Y27.3007 
G01 X-10.4556 Y27.1942 
G01 X-10.5108 Y27.0987 
G01 X-10.5887 Y27.0208 
G01 X-10.6842 Y26.9656 
G01 X-10.7907 Y26.9371 
G01 X-10.9009 Y26.9371 
G01 X-16.1496 Y26.9371 
G01 X-16.8635 Y26.7458 
G01 X-17.5036 Y26.3762 
G01 X-18.0362 Y25.8436 
G01 X-18.0593 Y25.8036 
G01 X-18.1145 Y25.7081 
G01 X-18.1744 Y25.6482 
G01 X-18.1924 Y25.6301 
G01 X-18.5729 Y25.2497 
G01 X-18.8765 Y24.5167 
G01 X-18.8765 Y23.7233 
G01 X-18.5729 Y22.9903 
G01 X-18.1924 Y22.6099 
G01 X-18.1763 Y22.5937 
G01 X-18.1145 Y22.5319 
G01 X-18.0593 Y22.4364 
G01 X-18.0362 Y22.3964 
G01 X-17.5136 Y21.8738 
G01 X-16.8735 Y21.5042 
G01 X-16.1596 Y21.3129 
G01 X-15.4204 Y21.3129 
G01 X-15.3831 Y21.3229 
G01 X-7.2504 Y21.3229 
G01 X-6.5365 Y21.5142 
G00 Z2.0000  F3000
G00 X-6.4959 Y22.4477  F3000
G01 Z-0.2000 F200.00 
G01 X-6.7251 Y22.3154 F500.00 
G01 X-6.9696 Y22.2141 
G01 X-7.2253 Y22.1456 
G01 X-7.4877 Y22.1111 
G01 X-15.5817 Y22.1111 
G01 X-15.6577 Y22.1011 
G01 X-15.9223 Y22.1011 
G01 X-16.1847 Y22.1356 
G01 X-16.4403 Y22.2041 
G01 X-16.6849 Y22.3054 
G01 X-16.9140 Y22.4377 
G01 X-17.1240 Y22.5989 
G01 X-17.3111 Y22.7860 
G01 X-17.4723 Y22.9960 
G01 X-17.5338 Y23.1026 
G01 X-17.6679 Y23.2000 
G01 X-17.8022 Y23.3343 
G01 X-17.9137 Y23.4879 
G01 X-17.9999 Y23.6570 
G01 X-18.0586 Y23.8376 
G01 X-18.0883 Y24.0251 
G01 X-18.0883 Y24.2149 
G01 X-18.0586 Y24.4024 
G01 X-17.9999 Y24.5830 
G01 X-17.9137 Y24.7521 
G01 X-17.8022 Y24.9057 
G01 X-17.6679 Y25.0400 
G01 X-17.5338 Y25.1374 
G01 X-17.4723 Y25.2440 
G01 X-17.3111 Y25.4540 
G01 X-17.1140 Y25.6511 
G01 X-16.9040 Y25.8123 
G01 X-16.6748 Y25.9446 
G01 X-16.4303 Y26.0459 
G01 X-16.1747 Y26.1144 
G01 X-15.9123 Y26.1489 
G01 X-9.6389 Y26.1489 
G01 X-9.6389 Y30.5323 
G01 X-9.6044 Y30.7947 
G01 X-9.5359 Y31.0503 
G01 X-9.4346 Y31.2949 
G01 X-9.3023 Y31.5240 
G01 X-9.1411 Y31.7340 
G01 X-8.9540 Y31.9211 
G01 X-8.7440 Y32.0823 
G01 X-8.5148 Y32.2146 
G01 X-8.2703 Y32.3159 
G01 X-8.0147 Y32.3844 
G01 X-7.7523 Y32.4189 
G01 X-7.4877 Y32.4189 
G01 X-7.2253 Y32.3844 
G01 X-6.9696 Y32.3159 
G01 X-6.7251 Y32.2146 
G01 X-6.4959 Y32.0823 
G01 X-6.2860 Y31.9211 
G01 X-6.0989 Y31.7340 
G01 X-5.9377 Y31.5240 
G01 X-5.8054 Y31.2949 
G01 X-5.7041 Y31.0503 
G01 X-5.6356 Y30.7947 
G01 X-5.6011 Y30.5323 
G01 X-5.6011 Y23.9977 
G01 X-5.6356 Y23.7353 
G01 X-5.7041 Y23.4796 
G01 X-5.8054 Y23.2351 
G01 X-5.9377 Y23.0059 
G01 X-6.0989 Y22.7960 
G01 X-6.2860 Y22.6089 
G01 X-6.4959 Y22.4477 
G00 Z2.0000  F3000
G00 X-14.4560 Y18.0211  F3000
G01 Z-0.2000 F200.00 
G01 X-14.2689 Y17.8340 F500.00 
G01 X-14.1077 Y17.6240 
G01 X-14.0462 Y17.5174 
G01 X-13.9121 Y17.4200 
G01 X-13.7778 Y17.2857 
G01 X-13.6662 Y17.1321 
G01 X-13.5801 Y16.9630 
G01 X-13.5214 Y16.7824 
G01 X-13.4917 Y16.5949 
G01 X-13.4917 Y16.4051 
G01 X-13.5214 Y16.2176 
G01 X-13.5801 Y16.0370 
G01 X-13.6662 Y15.8679 
G01 X-13.7778 Y15.7143 
G01 X-13.9121 Y15.5800 
G01 X-14.0462 Y15.4826 
G01 X-14.1077 Y15.3759 
G01 X-14.2689 Y15.1660 
G01 X-14.4560 Y14.9789 
G01 X-14.6660 Y14.8177 
G01 X-14.8951 Y14.6854 
G01 X-15.1396 Y14.5841 
G01 X-15.3953 Y14.5156 
G01 X-15.6577 Y14.4811 
G01 X-19.5711 Y14.4811 
G01 X-19.5711 Y10.7379 
G01 X-19.4830 Y10.5253 
G01 X-19.4145 Y10.2697 
G01 X-19.3800 Y10.0073 
G01 X-19.3800 Y9.7427 
G01 X-19.4145 Y9.4803 
G01 X-19.4830 Y9.2247 
G01 X-19.5843 Y8.9801 
G01 X-19.7166 Y8.7509 
G01 X-19.8778 Y8.5410 
G01 X-20.0649 Y8.3539 
G01 X-20.2749 Y8.1927 
G01 X-20.5040 Y8.0604 
G01 X-20.7486 Y7.9591 
G01 X-21.0042 Y7.8906 
G01 X-21.2666 Y7.8561 
G01 X-21.5312 Y7.8561 
G01 X-21.7936 Y7.8906 
G01 X-22.0492 Y7.9591 
G01 X-22.2937 Y8.0604 
G01 X-22.5229 Y8.1927 
G01 X-22.7329 Y8.3539 
G01 X-23.1111 Y8.7321 
G01 X-23.2723 Y8.9421 
G01 X-23.4046 Y9.1712 
G01 X-23.5059 Y9.4157 
G01 X-23.5744 Y9.6714 
G01 X-23.6089 Y9.9338 
G01 X-23.6089 Y16.6423 
G01 X-23.5744 Y16.9047 
G01 X-23.5059 Y17.1603 
G01 X-23.4046 Y17.4048 
G01 X-23.2723 Y17.6340 
G01 X-23.1111 Y17.8440 
G01 X-22.9240 Y18.0311 
G01 X-22.7140 Y18.1923 
G01 X-22.4849 Y18.3246 
G01 X-22.2403 Y18.4259 
G01 X-21.9847 Y18.4944 
G01 X-21.7223 Y18.5289 
G01 X-21.4577 Y18.5289 
G01 X-21.3817 Y18.5189 
G01 X-15.6577 Y18.5189 
G01 X-15.3953 Y18.4844 
G01 X-15.1396 Y18.4159 
G01 X-14.8951 Y18.3146 
G01 X-14.6660 Y18.1823 
G01 X-14.4560 Y18.0211 
G00 Z2.0000  F3000
G00 X-14.3011 Y32.2857  F3000
G01 Z-0.2000 F200.00 
G01 X-13.5681 Y32.5893 F500.00 
G01 X-13.0071 Y33.1503 
G01 X-12.7035 Y33.8833 
G01 X-12.7035 Y34.6767 
G01 X-12.9778 Y35.3388 
G01 X-12.9850 Y35.3562 
G01 X-13.0200 Y35.4407 
G01 X-13.0343 Y35.5500 
G01 X-13.0331 Y35.5592 
G01 X-13.0200 Y35.6593 
G01 X-12.9836 Y35.7471 
G01 X-12.9778 Y35.7612 
G01 X-12.7035 Y36.4233 
G01 X-12.7035 Y37.2167 
G01 X-13.0071 Y37.9497 
G01 X-13.6192 Y38.5618 
G01 X-13.6744 Y38.6573 
G01 X-13.7029 Y38.7638 
G01 X-13.7029 Y39.5522 
G01 X-13.7065 Y39.5796 
G01 X-13.7029 Y39.6071 
G01 X-13.7029 Y39.6348 
G01 X-13.6957 Y39.6615 
G01 X-13.6921 Y39.6889 
G01 X-13.6815 Y39.7145 
G01 X-13.6744 Y39.7413 
G01 X-13.6605 Y39.7652 
G01 X-13.6499 Y39.7908 
G01 X-13.6331 Y39.8128 
G01 X-13.6192 Y39.8367 
G01 X-13.5997 Y39.8563 
G01 X-13.5828 Y39.8783 
G01 X-13.5608 Y39.8951 
G01 X-13.5413 Y39.9147 
G01 X-13.5173 Y39.9285 
G01 X-13.4954 Y39.9454 
G01 X-13.4698 Y39.9560 
G01 X-13.4458 Y39.9698 
G01 X-13.4191 Y39.9770 
G01 X-13.3935 Y39.9876 
G01 X-13.3661 Y39.9912 
G01 X-13.3393 Y39.9983 
G01 X-13.3116 Y39.9983 
G01 X-13.2842 Y40.0020 
G01 X-13.2568 Y39.9983 
G01 X-13.2291 Y39.9983 
G01 X-13.2023 Y39.9912 
G01 X-13.1749 Y39.9876 
G01 X-13.1493 Y39.9770 
G01 X-13.1226 Y39.9698 
G01 X-13.0986 Y39.9560 
G01 X-12.7894 Y39.8279 
G01 X-11.1306 Y39.8279 
G01 X-11.1193 Y39.8326 
G01 X-11.0100 Y39.8469 
G01 X-10.9007 Y39.8326 
G01 X-10.8894 Y39.8279 
G01 X-9.2306 Y39.8279 
G01 X-8.8990 Y39.9652 
G01 X-8.6452 Y40.2190 
G01 X-8.5079 Y40.5506 
G01 X-8.5079 Y42.4094 
G01 X-8.5805 Y42.5848 
G01 X-8.5944 Y42.6087 
G01 X-8.6015 Y42.6355 
G01 X-8.6121 Y42.6611 
G01 X-8.6157 Y42.6885 
G01 X-8.6229 Y42.7152 
G01 X-8.6229 Y42.7429 
G01 X-8.6265 Y42.7704 
G01 X-8.6229 Y42.7978 
G01 X-8.6229 Y44.7557 
G01 X-8.8569 Y45.3207 
G01 X-9.2893 Y45.7531 
G01 X-9.8543 Y45.9871 
G01 X-46.0257 Y45.9871 
G01 X-46.5907 Y45.7531 
G01 X-46.9080 Y45.4358 
G01 X-47.0035 Y45.3806 
G01 X-47.1100 Y45.3521 
G01 X-47.2760 Y45.3521 
G01 X-47.8284 Y45.2041 
G01 X-48.3237 Y44.9181 
G01 X-48.7281 Y44.5137 
G01 X-49.0141 Y44.0184 
G01 X-49.1621 Y43.4660 
G01 X-49.1621 Y42.8940 
G01 X-49.0141 Y42.3416 
G01 X-48.7281 Y41.8463 
G01 X-48.3237 Y41.4419 
G01 X-47.8284 Y41.1559 
G01 X-47.2760 Y41.0079 
G01 X-46.7040 Y41.0079 
G01 X-46.1516 Y41.1559 
G01 X-45.6563 Y41.4419 
G01 X-45.2519 Y41.8463 
G01 X-44.9659 Y42.3416 
G01 X-44.8817 Y42.6558 
G01 X-44.8266 Y42.7513 
G01 X-44.7486 Y42.8292 
G01 X-44.7465 Y42.8305 
G01 X-44.6532 Y42.8844 
G01 X-44.5512 Y42.9117 
G01 X-44.5467 Y42.9129 
G01 X-30.0737 Y42.9129 
G01 X-29.9672 Y42.8844 
G01 X-29.8717 Y42.8292 
G01 X-29.7938 Y42.7513 
G01 X-29.7386 Y42.6558 
G01 X-29.7101 Y42.5493 
G01 X-29.7101 Y42.4439 
G01 X-29.6839 Y42.4439 
G01 X-29.6839 Y42.8527 
G01 X-29.6666 Y42.8945 
G01 X-29.6345 Y42.9266 
G01 X-29.5927 Y42.9439 
G01 X-27.9473 Y42.9439 
G01 X-27.9055 Y42.9266 
G01 X-27.8734 Y42.8945 
G01 X-27.8561 Y42.8527 
G01 X-27.8561 Y41.0073 
G01 X-27.8734 Y40.9655 
G01 X-27.9055 Y40.9334 
G01 X-27.9473 Y40.9161 
G01 X-28.2561 Y40.9161 
G01 X-28.2561 Y40.8899 
G01 X-27.9956 Y40.8899 
G01 X-27.9682 Y40.8935 
G01 X-27.9407 Y40.8899 
G01 X-27.9130 Y40.8899 
G01 X-27.8863 Y40.8827 
G01 X-27.8589 Y40.8791 
G01 X-27.8333 Y40.8685 
G01 X-27.8065 Y40.8614 
G01 X-27.7826 Y40.8475 
G01 X-27.7570 Y40.8369 
G01 X-27.7350 Y40.8201 
G01 X-27.7111 Y40.8062 
G01 X-27.6915 Y40.7867 
G01 X-27.6695 Y40.7698 
G01 X-27.6527 Y40.7479 
G01 X-27.6331 Y40.7283 
G01 X-27.6193 Y40.7043 
G01 X-27.6024 Y40.6824 
G01 X-27.5918 Y40.6568 
G01 X-27.5780 Y40.6328 
G01 X-27.5708 Y40.6061 
G01 X-27.5348 Y40.5190 
G01 X-27.3510 Y40.3352 
G01 X-27.2975 Y40.2426 
G01 X-27.2958 Y40.2397 
G01 X-27.2673 Y40.1332 
G01 X-27.2673 Y33.9186 
G01 X-26.9830 Y33.2323 
G01 X-26.4577 Y32.7070 
G01 X-25.7488 Y32.4133 
G01 X-25.6773 Y32.3942 
G01 X-25.5818 Y32.3390 
G01 X-25.5038 Y32.2611 
G01 X-25.4487 Y32.1656 
G01 X-25.4202 Y32.0591 
G01 X-25.4202 Y31.9489 
G01 X-25.4487 Y31.8424 
G01 X-25.5038 Y31.7469 
G01 X-25.5818 Y31.6690 
G01 X-33.0169 Y24.2338 
G01 X-33.1124 Y24.1787 
G01 X-33.2189 Y24.1502 
G01 X-33.3291 Y24.1502 
G01 X-33.4356 Y24.1787 
G01 X-33.5311 Y24.2338 
G01 X-33.6090 Y24.3118 
G01 X-33.6642 Y24.4073 
G01 X-33.6927 Y24.5138 
G01 X-33.6927 Y32.1214 
G01 X-33.8986 Y32.6186 
G01 X-33.9125 Y32.6426 
G01 X-33.9196 Y32.6693 
G01 X-33.9302 Y32.6949 
G01 X-33.9338 Y32.7223 
G01 X-33.9410 Y32.7491 
G01 X-33.9410 Y32.7768 
G01 X-33.9446 Y32.8042 
G01 X-33.9410 Y32.8316 
G01 X-33.9410 Y32.8593 
G01 X-33.9339 Y32.8860 
G01 X-33.9302 Y32.9135 
G01 X-33.9196 Y32.9391 
G01 X-33.9125 Y32.9658 
G01 X-33.8986 Y32.9898 
G01 X-33.8880 Y33.0154 
G01 X-33.8712 Y33.0373 
G01 X-33.8574 Y33.0613 
G01 X-33.8378 Y33.0809 
G01 X-33.8209 Y33.1028 
G01 X-33.7990 Y33.1197 
G01 X-33.7794 Y33.1392 
G01 X-33.7554 Y33.1531 
G01 X-33.7335 Y33.1699 
G01 X-33.7079 Y33.1805 
G01 X-33.6839 Y33.1944 
G01 X-33.6572 Y33.2015 
G01 X-33.6316 Y33.2121 
G01 X-33.6042 Y33.2157 
G01 X-33.5774 Y33.2229 
G01 X-33.5498 Y33.2229 
G01 X-33.5223 Y33.2265 
G01 X-33.4949 Y33.2229 
G01 X-32.9502 Y33.2229 
G01 X-32.3711 Y33.3781 
G01 X-31.8518 Y33.6779 
G01 X-31.4279 Y34.1018 
G01 X-31.1281 Y34.6211 
G01 X-30.9729 Y35.2002 
G01 X-30.9729 Y35.7998 
G01 X-31.1281 Y36.3789 
G01 X-31.4279 Y36.8982 
G01 X-31.8518 Y37.3221 
G01 X-32.3711 Y37.6219 
G01 X-32.9502 Y37.7771 
G01 X-33.5498 Y37.7771 
G01 X-34.1289 Y37.6219 
G01 X-34.5051 Y37.4047 
G01 X-34.5271 Y37.3879 
G01 X-34.5526 Y37.3773 
G01 X-34.5766 Y37.3634 
G01 X-34.6033 Y37.3563 
G01 X-34.6289 Y37.3457 
G01 X-34.6564 Y37.3421 
G01 X-34.6831 Y37.3349 
G01 X-34.7108 Y37.3349 
G01 X-34.7382 Y37.3313 
G01 X-34.7657 Y37.3349 
G01 X-34.7933 Y37.3349 
G01 X-34.8201 Y37.3421 
G01 X-34.8475 Y37.3457 
G01 X-34.8731 Y37.3563 
G01 X-34.8998 Y37.3634 
G01 X-34.9238 Y37.3773 
G01 X-34.9494 Y37.3879 
G01 X-34.9713 Y37.4047 
G01 X-34.9953 Y37.4186 
G01 X-35.0149 Y37.4381 
G01 X-35.0368 Y37.4550 
G01 X-35.0537 Y37.4769 
G01 X-35.0733 Y37.4965 
G01 X-35.0871 Y37.5205 
G01 X-35.1040 Y37.5425 
G01 X-35.1146 Y37.5680 
G01 X-35.1284 Y37.5920 
G01 X-35.1356 Y37.6187 
G01 X-35.2470 Y37.8877 
G01 X-35.7723 Y38.4130 
G01 X-36.4586 Y38.6973 
G01 X-37.2014 Y38.6973 
G01 X-37.2440 Y38.6797 
G01 X-37.2679 Y38.6658 
G01 X-37.2947 Y38.6587 
G01 X-37.3203 Y38.6481 
G01 X-37.3477 Y38.6445 
G01 X-37.3744 Y38.6373 
G01 X-37.4021 Y38.6373 
G01 X-37.4296 Y38.6337 
G01 X-37.4570 Y38.6373 
G01 X-41.0314 Y38.6373 
G01 X-41.7177 Y38.3530 
G01 X-42.2788 Y37.7920 
G01 X-42.3083 Y37.7592 
G01 X-42.3176 Y37.7531 
G01 X-42.3255 Y37.7453 
G01 X-42.3637 Y37.7232 
G01 X-42.4008 Y37.6991 
G01 X-42.4113 Y37.6957 
G01 X-42.4210 Y37.6901 
G01 X-42.4636 Y37.6787 
G01 X-42.5056 Y37.6651 
G01 X-42.5167 Y37.6645 
G01 X-42.5275 Y37.6616 
G01 X-42.5716 Y37.6616 
G01 X-42.6157 Y37.6593 
G01 X-42.6266 Y37.6616 
G01 X-42.6377 Y37.6616 
G01 X-42.6803 Y37.6730 
G01 X-42.7236 Y37.6822 
G01 X-42.7335 Y37.6873 
G01 X-42.7442 Y37.6901 
G01 X-42.7813 Y37.7116 
G01 X-42.7813 Y37.6821 
G01 X-42.7249 Y37.6588 
G01 X-42.5607 Y37.5490 
G01 X-42.4210 Y37.4093 
G01 X-42.3112 Y37.2450 
G01 X-42.2356 Y37.0625 
G01 X-42.1971 Y36.8688 
G01 X-42.1971 Y36.6712 
G01 X-42.2356 Y36.4775 
G01 X-42.3112 Y36.2949 
G01 X-42.4210 Y36.1307 
G01 X-42.5607 Y35.9910 
G01 X-42.7249 Y35.8812 
G01 X-42.9075 Y35.8056 
G01 X-43.1012 Y35.7671 
G01 X-43.2988 Y35.7671 
G01 X-43.4925 Y35.8056 
G01 X-43.6750 Y35.8812 
G01 X-43.8393 Y35.9910 
G01 X-43.9790 Y36.1307 
G01 X-44.0888 Y36.2949 
G01 X-44.1644 Y36.4775 
G01 X-44.2029 Y36.6712 
G01 X-44.2029 Y36.8688 
G01 X-44.1644 Y37.0625 
G01 X-44.0888 Y37.2450 
G01 X-43.9790 Y37.4093 
G01 X-43.8393 Y37.5490 
G01 X-43.6750 Y37.6588 
G01 X-43.6187 Y37.6821 
G01 X-43.6187 Y37.7116 
G01 X-43.6889 Y37.6759 
G01 X-43.7272 Y37.6538 
G01 X-43.7379 Y37.6509 
G01 X-43.7478 Y37.6458 
G01 X-43.7910 Y37.6367 
G01 X-43.8337 Y37.6252 
G01 X-43.8448 Y37.6252 
G01 X-43.8557 Y37.6229 
G01 X-43.8997 Y37.6252 
G01 X-43.9439 Y37.6252 
G01 X-43.9547 Y37.6281 
G01 X-43.9658 Y37.6287 
G01 X-44.0078 Y37.6423 
G01 X-44.0504 Y37.6538 
G01 X-44.0600 Y37.6593 
G01 X-44.0706 Y37.6628 
G01 X-44.1076 Y37.6868 
G01 X-44.1459 Y37.7089 
G01 X-44.1537 Y37.7167 
G01 X-44.1631 Y37.7228 
G01 X-44.1926 Y37.7556 
G01 X-44.7254 Y38.2884 
G01 X-45.3837 Y38.5611 
G01 X-46.0963 Y38.5611 
G01 X-46.7589 Y38.2866 
G01 X-46.7915 Y38.2678 
G01 X-46.8484 Y38.2350 
G01 X-46.9033 Y38.2202 
G01 X-46.9548 Y38.2064 
G01 X-47.0097 Y38.2064 
G01 X-47.0651 Y38.2064 
G01 X-47.0983 Y38.2153 
G01 X-47.1716 Y38.2349 
G01 X-47.2121 Y38.2583 
G01 X-47.2611 Y38.2866 
G01 X-47.9237 Y38.5611 
G01 X-48.6363 Y38.5611 
G01 X-49.2989 Y38.2866 
G01 X-49.3315 Y38.2678 
G01 X-49.3884 Y38.2350 
G01 X-49.4433 Y38.2202 
G01 X-49.4948 Y38.2064 
G01 X-49.5497 Y38.2064 
G01 X-49.6051 Y38.2064 
G01 X-49.6383 Y38.2153 
G01 X-49.7116 Y38.2349 
G01 X-49.7521 Y38.2583 
G01 X-49.8011 Y38.2866 
G01 X-50.4637 Y38.5611 
G01 X-51.1763 Y38.5611 
G01 X-51.8346 Y38.2884 
G01 X-52.3674 Y37.7556 
G01 X-52.3969 Y37.7228 
G01 X-52.4062 Y37.7167 
G01 X-52.4141 Y37.7089 
G01 X-52.4523 Y37.6868 
G01 X-52.4894 Y37.6628 
G01 X-52.5000 Y37.6593 
G01 X-52.5096 Y37.6538 
G01 X-52.5522 Y37.6423 
G01 X-52.5942 Y37.6287 
G01 X-52.6053 Y37.6281 
G01 X-52.6161 Y37.6252 
G01 X-52.6603 Y37.6252 
G01 X-52.7043 Y37.6229 
G01 X-52.7152 Y37.6252 
G01 X-52.7263 Y37.6252 
G01 X-52.7690 Y37.6367 
G01 X-52.8122 Y37.6458 
G01 X-52.8221 Y37.6509 
G01 X-52.8328 Y37.6538 
G01 X-52.8711 Y37.6759 
G01 X-52.9413 Y37.7116 
G01 X-52.9413 Y37.6821 
G01 X-52.8849 Y37.6588 
G01 X-52.7207 Y37.5490 
G01 X-52.5810 Y37.4093 
G01 X-52.4712 Y37.2450 
G01 X-52.3956 Y37.0625 
G01 X-52.3571 Y36.8688 
G01 X-52.3571 Y36.6712 
G01 X-52.3956 Y36.4775 
G01 X-52.4712 Y36.2949 
G01 X-52.5810 Y36.1307 
G01 X-52.7207 Y35.9910 
G01 X-52.8849 Y35.8812 
G01 X-53.0675 Y35.8056 
G01 X-53.2612 Y35.7671 
G01 X-53.4588 Y35.7671 
G01 X-53.6525 Y35.8056 
G01 X-53.8351 Y35.8812 
G01 X-53.9993 Y35.9910 
G01 X-54.1390 Y36.1307 
G01 X-54.2488 Y36.2949 
G01 X-54.3244 Y36.4775 
G01 X-54.3629 Y36.6712 
G01 X-54.3629 Y36.8688 
G01 X-54.3244 Y37.0625 
G01 X-54.2488 Y37.2450 
G01 X-54.1390 Y37.4093 
G01 X-53.9993 Y37.5490 
G01 X-53.8351 Y37.6588 
G01 X-53.7787 Y37.6821 
G01 X-53.7787 Y37.7116 
G01 X-53.8489 Y37.6759 
G01 X-53.8872 Y37.6538 
G01 X-53.8979 Y37.6509 
G01 X-53.9078 Y37.6458 
G01 X-53.9510 Y37.6367 
G01 X-53.9937 Y37.6252 
G01 X-54.0048 Y37.6252 
G01 X-54.0157 Y37.6229 
G01 X-54.0597 Y37.6252 
G01 X-54.1039 Y37.6252 
G01 X-54.1147 Y37.6281 
G01 X-54.1258 Y37.6287 
G01 X-54.1678 Y37.6423 
G01 X-54.2104 Y37.6538 
G01 X-54.2200 Y37.6593 
G01 X-54.2306 Y37.6628 
G01 X-54.2677 Y37.6868 
G01 X-54.3059 Y37.7089 
G01 X-54.3137 Y37.7167 
G01 X-54.3231 Y37.7228 
G01 X-54.3526 Y37.7556 
G01 X-54.8854 Y38.2884 
G01 X-55.5437 Y38.5611 
G01 X-56.2563 Y38.5611 
G01 X-56.9189 Y38.2866 
G01 X-56.9515 Y38.2678 
G01 X-57.0084 Y38.2350 
G01 X-57.0633 Y38.2202 
G01 X-57.1148 Y38.2064 
G01 X-57.1697 Y38.2064 
G01 X-57.2251 Y38.2064 
G01 X-57.2583 Y38.2153 
G01 X-57.3316 Y38.2349 
G01 X-57.3721 Y38.2583 
G01 X-57.4211 Y38.2866 
G01 X-58.0837 Y38.5611 
G01 X-58.7963 Y38.5611 
G01 X-59.4546 Y38.2884 
G01 X-59.9874 Y37.7556 
G01 X-60.0169 Y37.7228 
G01 X-60.0262 Y37.7167 
G01 X-60.0341 Y37.7089 
G01 X-60.0723 Y37.6868 
G01 X-60.1094 Y37.6628 
G01 X-60.1200 Y37.6593 
G01 X-60.1296 Y37.6538 
G01 X-60.1722 Y37.6423 
G01 X-60.2142 Y37.6287 
G01 X-60.2253 Y37.6281 
G01 X-60.2361 Y37.6252 
G01 X-60.2803 Y37.6252 
G01 X-60.3243 Y37.6229 
G01 X-60.3352 Y37.6252 
G01 X-60.3463 Y37.6252 
G01 X-60.3890 Y37.6367 
G01 X-60.4322 Y37.6458 
G01 X-60.4421 Y37.6509 
G01 X-60.4528 Y37.6538 
G01 X-60.4911 Y37.6759 
G01 X-60.5613 Y37.7116 
G01 X-60.5613 Y37.6821 
G01 X-60.5049 Y37.6588 
G01 X-60.3407 Y37.5490 
G01 X-60.2010 Y37.4093 
G01 X-60.0912 Y37.2450 
G01 X-60.0156 Y37.0625 
G01 X-59.9771 Y36.8688 
G01 X-59.9771 Y36.6712 
G01 X-60.0156 Y36.4775 
G01 X-60.0912 Y36.2949 
G01 X-60.2010 Y36.1307 
G01 X-60.3407 Y35.9910 
G01 X-60.5049 Y35.8812 
G01 X-60.6875 Y35.8056 
G01 X-60.8812 Y35.7671 
G01 X-61.0788 Y35.7671 
G01 X-61.2725 Y35.8056 
G01 X-61.4550 Y35.8812 
G01 X-61.6193 Y35.9910 
G01 X-61.7590 Y36.1307 
G01 X-61.8688 Y36.2949 
G01 X-61.9444 Y36.4775 
G01 X-61.9829 Y36.6712 
G01 X-61.9829 Y36.8688 
G01 X-61.9444 Y37.0625 
G01 X-61.8688 Y37.2450 
G01 X-61.7590 Y37.4093 
G01 X-61.6193 Y37.5490 
G01 X-61.4550 Y37.6588 
G01 X-61.3987 Y37.6821 
G01 X-61.3987 Y37.7116 
G01 X-61.4690 Y37.6758 
G01 X-61.5072 Y37.6538 
G01 X-61.5179 Y37.6509 
G01 X-61.5278 Y37.6458 
G01 X-61.5711 Y37.6367 
G01 X-61.6137 Y37.6252 
G01 X-61.6248 Y37.6252 
G01 X-61.6357 Y37.6229 
G01 X-61.6798 Y37.6252 
G01 X-61.7239 Y37.6252 
G01 X-61.7347 Y37.6281 
G01 X-61.7458 Y37.6287 
G01 X-61.7878 Y37.6423 
G01 X-61.8304 Y37.6538 
G01 X-61.8400 Y37.6593 
G01 X-61.8506 Y37.6628 
G01 X-61.8877 Y37.6868 
G01 X-61.9259 Y37.7089 
G01 X-61.9338 Y37.7167 
G01 X-61.9431 Y37.7228 
G01 X-61.9726 Y37.7556 
G01 X-62.5054 Y38.2884 
G01 X-63.1637 Y38.5611 
G01 X-63.8291 Y38.5611 
G01 X-63.9356 Y38.5896 
G01 X-64.0311 Y38.6448 
G01 X-64.1090 Y38.7227 
G01 X-64.1642 Y38.8182 
G01 X-64.1927 Y38.9247 
G01 X-64.1927 Y39.4383 
G01 X-64.1642 Y39.5448 
G01 X-64.1623 Y39.5480 
G01 X-64.0159 Y39.8016 
G01 X-63.8679 Y40.3540 
G01 X-63.8679 Y40.9260 
G01 X-64.0159 Y41.4784 
G01 X-64.3019 Y41.9737 
G01 X-64.7063 Y42.3781 
G01 X-65.2016 Y42.6641 
G01 X-65.7540 Y42.8121 
G01 X-66.3260 Y42.8121 
G01 X-66.8784 Y42.6641 
G01 X-67.3737 Y42.3781 
G01 X-67.7781 Y41.9737 
G01 X-68.0641 Y41.4784 
G01 X-68.2121 Y40.9260 
G01 X-68.2121 Y40.3540 
G01 X-68.0641 Y39.8016 
G01 X-67.9558 Y39.6141 
G01 X-67.9273 Y39.5076 
G01 X-67.9273 Y38.9247 
G01 X-67.9558 Y38.8182 
G01 X-68.0110 Y38.7227 
G01 X-68.0889 Y38.6448 
G01 X-68.1844 Y38.5896 
G01 X-68.2909 Y38.5611 
G01 X-68.9563 Y38.5611 
G01 X-69.6189 Y38.2866 
G01 X-69.6515 Y38.2678 
G01 X-69.7083 Y38.2350 
G01 X-69.7633 Y38.2202 
G01 X-69.8148 Y38.2064 
G01 X-69.8697 Y38.2064 
G01 X-69.9251 Y38.2064 
G01 X-69.9583 Y38.2153 
G01 X-70.0316 Y38.2349 
G01 X-70.0721 Y38.2583 
G01 X-70.1211 Y38.2866 
G01 X-70.7837 Y38.5611 
G01 X-71.4963 Y38.5611 
G01 X-72.1546 Y38.2884 
G01 X-72.6874 Y37.7556 
G01 X-72.7169 Y37.7228 
G01 X-72.7262 Y37.7167 
G01 X-72.7341 Y37.7089 
G01 X-72.7723 Y37.6868 
G01 X-72.8094 Y37.6628 
G01 X-72.8200 Y37.6593 
G01 X-72.8296 Y37.6538 
G01 X-72.8722 Y37.6423 
G01 X-72.9142 Y37.6287 
G01 X-72.9253 Y37.6281 
G01 X-72.9361 Y37.6252 
G01 X-72.9803 Y37.6252 
G01 X-73.0243 Y37.6229 
G01 X-73.0352 Y37.6252 
G01 X-73.0463 Y37.6252 
G01 X-73.0890 Y37.6367 
G01 X-73.1322 Y37.6458 
G01 X-73.1421 Y37.6509 
G01 X-73.1528 Y37.6538 
G01 X-73.1911 Y37.6759 
G01 X-73.2613 Y37.7116 
G01 X-73.2613 Y37.6821 
G01 X-73.2049 Y37.6588 
G01 X-73.0407 Y37.5490 
G01 X-72.9010 Y37.4093 
G01 X-72.7912 Y37.2450 
G01 X-72.7156 Y37.0625 
G01 X-72.6771 Y36.8688 
G01 X-72.6771 Y36.6712 
G01 X-72.7156 Y36.4775 
G01 X-72.7912 Y36.2949 
G01 X-72.9010 Y36.1307 
G01 X-73.0407 Y35.9910 
G01 X-73.2049 Y35.8812 
G01 X-73.3875 Y35.8056 
G01 X-73.5812 Y35.7671 
G01 X-73.7788 Y35.7671 
G01 X-73.9725 Y35.8056 
G01 X-74.1551 Y35.8812 
G01 X-74.3193 Y35.9910 
G01 X-74.4590 Y36.1307 
G01 X-74.5688 Y36.2949 
G01 X-74.6444 Y36.4775 
G01 X-74.6829 Y36.6712 
G01 X-74.6829 Y36.8688 
G01 X-74.6444 Y37.0625 
G01 X-74.5688 Y37.2450 
G01 X-74.4590 Y37.4093 
G01 X-74.3193 Y37.5490 
G01 X-74.1551 Y37.6588 
G01 X-74.0987 Y37.6821 
G01 X-74.0987 Y37.7116 
G01 X-74.1689 Y37.6759 
G01 X-74.2072 Y37.6538 
G01 X-74.2179 Y37.6509 
G01 X-74.2278 Y37.6458 
G01 X-74.2710 Y37.6367 
G01 X-74.3137 Y37.6252 
G01 X-74.3248 Y37.6252 
G01 X-74.3357 Y37.6229 
G01 X-74.3797 Y37.6252 
G01 X-74.4239 Y37.6252 
G01 X-74.4347 Y37.6281 
G01 X-74.4458 Y37.6287 
G01 X-74.4878 Y37.6423 
G01 X-74.5304 Y37.6538 
G01 X-74.5400 Y37.6593 
G01 X-74.5506 Y37.6628 
G01 X-74.5876 Y37.6868 
G01 X-74.6259 Y37.7089 
G01 X-74.6337 Y37.7167 
G01 X-74.6431 Y37.7228 
G01 X-74.6726 Y37.7556 
G01 X-75.2054 Y38.2884 
G01 X-75.8637 Y38.5611 
G01 X-76.5763 Y38.5611 
G01 X-77.2346 Y38.2884 
G01 X-77.7674 Y37.7556 
G01 X-77.7969 Y37.7228 
G01 X-77.8062 Y37.7167 
G01 X-77.8141 Y37.7089 
G01 X-77.8523 Y37.6868 
G01 X-77.8894 Y37.6628 
G01 X-77.9000 Y37.6593 
G01 X-77.9096 Y37.6538 
G01 X-77.9522 Y37.6423 
G01 X-77.9942 Y37.6287 
G01 X-78.0053 Y37.6281 
G01 X-78.0161 Y37.6252 
G01 X-78.0603 Y37.6252 
G01 X-78.1043 Y37.6229 
G01 X-78.1152 Y37.6252 
G01 X-78.1263 Y37.6252 
G01 X-78.1690 Y37.6367 
G01 X-78.2122 Y37.6458 
G01 X-78.2221 Y37.6509 
G01 X-78.2328 Y37.6538 
G01 X-78.2711 Y37.6759 
G01 X-78.3413 Y37.7116 
G01 X-78.3413 Y37.6821 
G01 X-78.2849 Y37.6588 
G01 X-78.1207 Y37.5490 
G01 X-77.9810 Y37.4093 
G01 X-77.8712 Y37.2450 
G01 X-77.7956 Y37.0625 
G01 X-77.7571 Y36.8688 
G01 X-77.7571 Y36.6712 
G01 X-77.7956 Y36.4775 
G01 X-77.8712 Y36.2949 
G01 X-77.9810 Y36.1307 
G01 X-78.1207 Y35.9910 
G01 X-78.2849 Y35.8812 
G01 X-78.4675 Y35.8056 
G01 X-78.6612 Y35.7671 
G01 X-78.8588 Y35.7671 
G01 X-79.0525 Y35.8056 
G01 X-79.2351 Y35.8812 
G01 X-79.3993 Y35.9910 
G01 X-79.5390 Y36.1307 
G01 X-79.6488 Y36.2949 
G01 X-79.7244 Y36.4775 
G01 X-79.7629 Y36.6712 
G01 X-79.7629 Y36.8688 
G01 X-79.7244 Y37.0625 
G01 X-79.6488 Y37.2450 
G01 X-79.5390 Y37.4093 
G01 X-79.3993 Y37.5490 
G01 X-79.2351 Y37.6588 
G01 X-79.1787 Y37.6821 
G01 X-79.1787 Y37.7116 
G01 X-79.2489 Y37.6759 
G01 X-79.2872 Y37.6538 
G01 X-79.2979 Y37.6509 
G01 X-79.3078 Y37.6458 
G01 X-79.3510 Y37.6367 
G01 X-79.3937 Y37.6252 
G01 X-79.4048 Y37.6252 
G01 X-79.4157 Y37.6229 
G01 X-79.4597 Y37.6252 
G01 X-79.5039 Y37.6252 
G01 X-79.5147 Y37.6281 
G01 X-79.5258 Y37.6287 
G01 X-79.5678 Y37.6423 
G01 X-79.6104 Y37.6538 
G01 X-79.6200 Y37.6593 
G01 X-79.6306 Y37.6628 
G01 X-79.6676 Y37.6868 
G01 X-79.7059 Y37.7089 
G01 X-79.7137 Y37.7167 
G01 X-79.7231 Y37.7228 
G01 X-79.7526 Y37.7556 
G01 X-80.2854 Y38.2884 
G01 X-80.9437 Y38.5611 
G01 X-81.6563 Y38.5611 
G01 X-82.3189 Y38.2866 
G01 X-82.3515 Y38.2678 
G01 X-82.4083 Y38.2350 
G01 X-82.4633 Y38.2202 
G01 X-82.5148 Y38.2064 
G01 X-82.5697 Y38.2064 
G01 X-82.6251 Y38.2064 
G01 X-82.6583 Y38.2153 
G01 X-82.7316 Y38.2349 
G01 X-82.7721 Y38.2583 
G01 X-82.8211 Y38.2866 
G01 X-83.4837 Y38.5611 
G01 X-84.1963 Y38.5611 
G01 X-84.8589 Y38.2866 
G01 X-84.8915 Y38.2678 
G01 X-84.9484 Y38.2350 
G01 X-85.0033 Y38.2202 
G01 X-85.0548 Y38.2064 
G01 X-85.1097 Y38.2064 
G01 X-85.1651 Y38.2064 
G01 X-85.1983 Y38.2153 
G01 X-85.2716 Y38.2349 
G01 X-85.3121 Y38.2583 
G01 X-85.3611 Y38.2866 
G01 X-86.0237 Y38.5611 
G01 X-86.7363 Y38.5611 
G01 X-87.3946 Y38.2884 
G01 X-87.8984 Y37.7846 
G01 X-88.1711 Y37.1263 
G01 X-88.1711 Y36.4137 
G01 X-87.8984 Y35.7554 
G01 X-87.3656 Y35.2226 
G01 X-87.3328 Y35.1931 
G01 X-87.3268 Y35.1837 
G01 X-87.3189 Y35.1759 
G01 X-87.2968 Y35.1377 
G01 X-87.2728 Y35.1006 
G01 X-87.2693 Y35.0900 
G01 X-87.2638 Y35.0804 
G01 X-87.2523 Y35.0378 
G01 X-87.2387 Y34.9958 
G01 X-87.2381 Y34.9847 
G01 X-87.2352 Y34.9739 
G01 X-87.2352 Y34.9297 
G01 X-87.2329 Y34.8857 
G01 X-87.2352 Y34.8748 
G01 X-87.2352 Y34.8637 
G01 X-87.2467 Y34.8210 
G01 X-87.2558 Y34.7778 
G01 X-87.2609 Y34.7679 
G01 X-87.2638 Y34.7572 
G01 X-87.2859 Y34.7189 
G01 X-87.3216 Y34.6487 
G01 X-87.2921 Y34.6487 
G01 X-87.2688 Y34.7050 
G01 X-87.1590 Y34.8693 
G01 X-87.0193 Y35.0090 
G01 X-86.8551 Y35.1188 
G01 X-86.6725 Y35.1944 
G01 X-86.4788 Y35.2329 
G01 X-86.2812 Y35.2329 
G01 X-86.0875 Y35.1944 
G01 X-85.9049 Y35.1188 
G01 X-85.7407 Y35.0090 
G01 X-85.6010 Y34.8693 
G01 X-85.4912 Y34.7050 
G01 X-85.4156 Y34.5225 
G01 X-85.3771 Y34.3288 
G01 X-85.3771 Y34.1312 
G01 X-85.4156 Y33.9375 
G01 X-85.4912 Y33.7549 
G01 X-85.6010 Y33.5907 
G01 X-85.7407 Y33.4510 
G01 X-85.9049 Y33.3412 
G01 X-85.9613 Y33.3179 
G01 X-85.9613 Y33.1928 
G01 X-85.9452 Y33.1835 
G01 X-85.9245 Y33.1755 
G01 X-85.8976 Y33.1560 
G01 X-85.8689 Y33.1394 
G01 X-85.8532 Y33.1238 
G01 X-85.8353 Y33.1107 
G01 X-85.8144 Y33.0849 
G01 X-85.7910 Y33.0615 
G01 X-85.7799 Y33.0423 
G01 X-85.7659 Y33.0250 
G01 X-85.7524 Y32.9947 
G01 X-85.7358 Y32.9660 
G01 X-85.7301 Y32.9446 
G01 X-85.7211 Y32.9243 
G01 X-85.7159 Y32.8915 
G01 X-85.7073 Y32.8595 
G01 X-85.7073 Y32.8373 
G01 X-85.7038 Y32.8154 
G01 X-85.7073 Y32.7824 
G01 X-85.7073 Y32.7149 
G01 X-85.7037 Y32.6875 
G01 X-85.7073 Y32.6600 
G01 X-85.7073 Y32.6323 
G01 X-85.7145 Y32.6056 
G01 X-85.7181 Y32.5782 
G01 X-85.7287 Y32.5526 
G01 X-85.7358 Y32.5258 
G01 X-85.7497 Y32.5019 
G01 X-85.7603 Y32.4763 
G01 X-85.7771 Y32.4543 
G01 X-85.7910 Y32.4304 
G01 X-85.8105 Y32.4108 
G01 X-85.8274 Y32.3888 
G01 X-85.8494 Y32.3720 
G01 X-85.8689 Y32.3524 
G01 X-85.8929 Y32.3386 
G01 X-85.9148 Y32.3217 
G01 X-85.9404 Y32.3111 
G01 X-85.9644 Y32.2973 
G01 X-85.9911 Y32.2901 
G01 X-86.0167 Y32.2795 
G01 X-86.0441 Y32.2759 
G01 X-86.0709 Y32.2688 
G01 X-86.0986 Y32.2688 
G01 X-86.1260 Y32.2651 
G01 X-86.1534 Y32.2688 
G01 X-86.1811 Y32.2688 
G01 X-86.2079 Y32.2759 
G01 X-86.2353 Y32.2795 
G01 X-86.2609 Y32.2901 
G01 X-86.2876 Y32.2973 
G01 X-86.3116 Y32.3111 
G01 X-86.3743 Y32.3371 
G01 X-87.8663 Y32.3371 
G01 X-87.9728 Y32.3656 
G01 X-88.0683 Y32.4208 
G01 X-88.1462 Y32.4987 
G01 X-88.2014 Y32.5942 
G01 X-88.2299 Y32.7007 
G01 X-88.2299 Y33.2184 
G01 X-88.2394 Y33.2541 
G01 X-88.2579 Y33.2860 
G01 X-88.2840 Y33.3121 
G01 X-88.3159 Y33.3306 
G01 X-88.3516 Y33.3401 
G01 X-88.6513 Y33.3401 
G01 X-88.6513 Y33.3139 
G01 X-88.3473 Y33.3139 
G01 X-88.3055 Y33.2966 
G01 X-88.2734 Y33.2645 
G01 X-88.2561 Y33.2227 
G01 X-88.2561 Y32.1773 
G01 X-88.2734 Y32.1355 
G01 X-88.3055 Y32.1034 
G01 X-88.3473 Y32.0861 
G01 X-89.7927 Y32.0861 
G01 X-89.8345 Y32.1034 
G01 X-89.8666 Y32.1355 
G01 X-89.8839 Y32.1773 
G01 X-89.8839 Y33.2227 
G01 X-89.8666 Y33.2645 
G01 X-89.8345 Y33.2966 
G01 X-89.7927 Y33.3139 
G01 X-89.4887 Y33.3139 
G01 X-89.4887 Y33.4766 
G01 X-89.5138 Y33.5017 
G01 X-89.5499 Y33.5642 
G01 X-89.5689 Y33.5972 
G01 X-89.5761 Y33.6241 
G01 X-89.5975 Y33.7037 
G01 X-89.5975 Y33.8139 
G01 X-89.5796 Y33.8805 
G01 X-89.5689 Y33.9204 
G01 X-89.5138 Y34.0159 
G01 X-89.4279 Y34.1018 
G01 X-89.1281 Y34.6211 
G01 X-88.9729 Y35.2002 
G01 X-88.9729 Y35.7998 
G01 X-89.1281 Y36.3789 
G01 X-89.4279 Y36.8982 
G01 X-89.8518 Y37.3221 
G01 X-90.3711 Y37.6219 
G01 X-90.9502 Y37.7771 
G01 X-91.5498 Y37.7771 
G01 X-92.1289 Y37.6219 
G01 X-92.6482 Y37.3221 
G01 X-93.0721 Y36.8982 
G01 X-93.3719 Y36.3789 
G01 X-93.5271 Y35.7998 
G01 X-93.5271 Y35.2002 
G01 X-93.3719 Y34.6211 
G01 X-93.0721 Y34.1018 
G01 X-92.6482 Y33.6779 
G01 X-92.5466 Y33.6192 
G01 X-92.4687 Y33.5413 
G01 X-92.4135 Y33.4458 
G01 X-92.3973 Y33.3853 
G01 X-92.3850 Y33.3393 
G01 X-92.3850 Y33.2291 
G01 X-92.3968 Y33.1850 
G01 X-92.4135 Y33.1226 
G01 X-92.4687 Y33.0271 
G01 X-92.5466 Y32.9491 
G01 X-92.7348 Y32.7610 
G01 X-92.7857 Y32.6380 
G01 X-92.7929 Y32.6112 
G01 X-92.8067 Y32.5872 
G01 X-92.8173 Y32.5617 
G01 X-92.8342 Y32.5397 
G01 X-92.8481 Y32.5157 
G01 X-92.8676 Y32.4962 
G01 X-92.8844 Y32.4743 
G01 X-92.9064 Y32.4574 
G01 X-92.9328 Y32.4310 
G01 X-92.9652 Y32.4122 
G01 X-92.9719 Y32.4071 
G01 X-92.9796 Y32.4039 
G01 X-92.9827 Y32.4022 
G01 X-93.0283 Y32.3758 
G01 X-93.0830 Y32.3612 
G01 X-93.1348 Y32.3473 
G01 X-93.1902 Y32.3473 
G01 X-95.7090 Y32.3473 
G01 X-95.7420 Y32.3438 
G01 X-95.7639 Y32.3473 
G01 X-95.7861 Y32.3473 
G01 X-95.8181 Y32.3559 
G01 X-95.8509 Y32.3611 
G01 X-95.8712 Y32.3701 
G01 X-95.8926 Y32.3758 
G01 X-95.9213 Y32.3924 
G01 X-95.9516 Y32.4059 
G01 X-95.9689 Y32.4199 
G01 X-95.9881 Y32.4310 
G01 X-96.0115 Y32.4544 
G01 X-96.0373 Y32.4753 
G01 X-96.0503 Y32.4932 
G01 X-96.0660 Y32.5089 
G01 X-96.0826 Y32.5376 
G01 X-96.1021 Y32.5645 
G01 X-96.1100 Y32.5852 
G01 X-96.1193 Y32.6013 
G01 X-96.2543 Y32.6013 
G01 X-96.3476 Y32.4616 
G01 X-96.4696 Y32.3396 
G01 X-96.6131 Y32.2438 
G01 X-96.7725 Y32.1778 
G01 X-96.9417 Y32.1441 
G01 X-98.6383 Y32.1441 
G01 X-98.8075 Y32.1778 
G01 X-98.9669 Y32.2438 
G01 X-99.1104 Y32.3396 
G01 X-99.2324 Y32.4616 
G01 X-99.3257 Y32.6013 
G01 X-99.3511 Y32.6013 
G01 X-99.3235 Y32.5472 
G01 X-99.3119 Y32.5311 
G01 X-99.2817 Y32.4918 
G01 X-99.2796 Y32.4867 
G01 X-99.2763 Y32.4822 
G01 X-99.2585 Y32.4358 
G01 X-99.2395 Y32.3900 
G01 X-99.2388 Y32.3844 
G01 X-99.2368 Y32.3793 
G01 X-99.2316 Y32.3299 
G01 X-99.2251 Y32.2807 
G01 X-99.2258 Y32.2752 
G01 X-99.2253 Y32.2696 
G01 X-99.2330 Y32.2206 
G01 X-99.2395 Y32.1714 
G01 X-99.2416 Y32.1662 
G01 X-99.2425 Y32.1607 
G01 X-99.2627 Y32.1154 
G01 X-99.2817 Y32.0695 
G01 X-99.2851 Y32.0651 
G01 X-99.2873 Y32.0600 
G01 X-99.3186 Y32.0214 
G01 X-99.3488 Y31.9820 
G01 X-99.3532 Y31.9787 
G01 X-99.3567 Y31.9743 
G01 X-99.3969 Y31.9451 
G01 X-99.4363 Y31.9149 
G01 X-99.4414 Y31.9128 
G01 X-99.4459 Y31.9095 
G01 X-99.4923 Y31.8917 
G01 X-99.4946 Y31.8908 
G01 X-99.9628 Y31.4226 
G01 X-100.2161 Y30.8110 
G01 X-100.2161 Y30.1490 
G01 X-99.9628 Y29.5374 
G01 X-99.8925 Y29.4671 
G01 X-99.8374 Y29.3716 
G01 X-99.8272 Y29.3336 
G01 X-99.8088 Y29.2651 
G01 X-99.8088 Y29.1549 
G01 X-99.8293 Y29.0786 
G01 X-99.8374 Y29.0484 
G01 X-99.8558 Y29.0165 
G01 X-99.8925 Y28.9529 
G01 X-99.9628 Y28.8826 
G01 X-100.2161 Y28.2710 
G01 X-100.2161 Y27.6090 
G01 X-99.9628 Y26.9974 
G01 X-99.8925 Y26.9271 
G01 X-99.8374 Y26.8316 
G01 X-99.8272 Y26.7936 
G01 X-99.8088 Y26.7251 
G01 X-99.8088 Y26.6149 
G01 X-99.8293 Y26.5386 
G01 X-99.8374 Y26.5084 
G01 X-99.8558 Y26.4765 
G01 X-99.8925 Y26.4129 
G01 X-99.9628 Y26.3426 
G01 X-100.2161 Y25.7310 
G01 X-100.2161 Y25.0690 
G01 X-99.9628 Y24.4574 
G01 X-99.8925 Y24.3871 
G01 X-99.8374 Y24.2916 
G01 X-99.8272 Y24.2536 
G01 X-99.8088 Y24.1851 
G01 X-99.8088 Y24.0749 
G01 X-99.8293 Y23.9986 
G01 X-99.8374 Y23.9684 
G01 X-99.8558 Y23.9365 
G01 X-99.8925 Y23.8729 
G01 X-99.9628 Y23.8026 
G01 X-100.2161 Y23.1910 
G01 X-100.2161 Y22.5290 
G01 X-99.9628 Y21.9174 
G01 X-99.8925 Y21.8471 
G01 X-99.8374 Y21.7516 
G01 X-99.8272 Y21.7136 
G01 X-99.8088 Y21.6451 
G01 X-99.8088 Y21.5349 
G01 X-99.8293 Y21.4586 
G01 X-99.8374 Y21.4284 
G01 X-99.8558 Y21.3965 
G01 X-99.8925 Y21.3329 
G01 X-99.9628 Y21.2626 
G01 X-100.2161 Y20.6510 
G01 X-100.2161 Y19.9890 
G01 X-99.9628 Y19.3774 
G01 X-99.8925 Y19.3071 
G01 X-99.8374 Y19.2116 
G01 X-99.8272 Y19.1736 
G01 X-99.8088 Y19.1051 
G01 X-99.8088 Y18.9949 
G01 X-99.8293 Y18.9186 
G01 X-99.8374 Y18.8884 
G01 X-99.8558 Y18.8565 
G01 X-99.8925 Y18.7929 
G01 X-99.9628 Y18.7226 
G01 X-100.2161 Y18.1110 
G01 X-100.2161 Y17.4709 
G01 X-100.2446 Y17.3644 
G01 X-100.2998 Y17.2689 
G01 X-100.3777 Y17.1910 
G01 X-100.4732 Y17.1358 
G01 X-100.5797 Y17.1073 
G01 X-100.7014 Y17.1073 
G01 X-101.3877 Y16.8230 
G01 X-101.9130 Y16.2977 
G01 X-102.1973 Y15.6114 
G01 X-102.1973 Y14.8686 
G01 X-101.9095 Y14.1737 
G01 X-101.8956 Y14.1497 
G01 X-101.8885 Y14.1230 
G01 X-101.8779 Y14.0974 
G01 X-101.8743 Y14.0700 
G01 X-101.8671 Y14.0432 
G01 X-101.8671 Y14.0155 
G01 X-101.8635 Y13.9881 
G01 X-101.8671 Y13.9607 
G01 X-101.8671 Y6.0442 
G01 X-101.6331 Y5.4793 
G01 X-99.8807 Y3.7269 
G01 X-99.3157 Y3.4929 
G01 X-94.1866 Y3.4929 
G01 X-94.0801 Y3.4644 
G01 X-93.9846 Y3.4092 
G01 X-93.9067 Y3.3313 
G01 X-93.4326 Y2.8572 
G01 X-92.8210 Y2.6039 
G01 X-92.1590 Y2.6039 
G01 X-91.5474 Y2.8572 
G01 X-91.4771 Y2.9275 
G01 X-91.4146 Y2.9636 
G01 X-91.3816 Y2.9826 
G01 X-91.3547 Y2.9898 
G01 X-91.2751 Y3.0112 
G01 X-91.1649 Y3.0112 
G01 X-91.0983 Y2.9933 
G01 X-91.0584 Y2.9826 
G01 X-90.9629 Y2.9275 
G01 X-90.8926 Y2.8572 
G01 X-90.2810 Y2.6039 
G01 X-89.6281 Y2.6039 
G01 X-89.6006 Y2.6115 
G01 X-89.5750 Y2.6221 
G01 X-89.5476 Y2.6257 
G01 X-89.5208 Y2.6329 
G01 X-89.4931 Y2.6329 
G01 X-89.4657 Y2.6365 
G01 X-89.4383 Y2.6329 
G01 X-86.9570 Y2.6329 
G01 X-86.8505 Y2.6044 
G01 X-86.7550 Y2.5492 
G01 X-86.7110 Y2.5052 
G01 X-86.3794 Y2.3679 
G01 X-84.4206 Y2.3679 
G01 X-84.0890 Y2.5052 
G01 X-83.8352 Y2.7590 
G01 X-83.7992 Y2.8461 
G01 X-83.7920 Y2.8728 
G01 X-83.7782 Y2.8968 
G01 X-83.7676 Y2.9224 
G01 X-83.7507 Y2.9443 
G01 X-83.7369 Y2.9683 
G01 X-83.7173 Y2.9879 
G01 X-83.7005 Y3.0098 
G01 X-83.6785 Y3.0267 
G01 X-83.6589 Y3.0462 
G01 X-83.6350 Y3.0601 
G01 X-83.6130 Y3.0769 
G01 X-83.5874 Y3.0875 
G01 X-83.5635 Y3.1014 
G01 X-83.5367 Y3.1085 
G01 X-83.5111 Y3.1191 
G01 X-83.4837 Y3.1227 
G01 X-83.4570 Y3.1299 
G01 X-83.4293 Y3.1299 
G01 X-83.4018 Y3.1335 
G01 X-83.3744 Y3.1299 
G01 X-83.1139 Y3.1299 
G01 X-83.1139 Y3.1561 
G01 X-83.4227 Y3.1561 
G01 X-83.4645 Y3.1734 
G01 X-83.4966 Y3.2055 
G01 X-83.5139 Y3.2473 
G01 X-83.5139 Y5.0927 
G01 X-83.4966 Y5.1345 
G01 X-83.4645 Y5.1666 
G01 X-83.4227 Y5.1839 
G01 X-83.1139 Y5.1839 
G01 X-83.1139 Y5.2101 
G01 X-83.3293 Y5.2101 
G01 X-83.4358 Y5.2386 
G01 X-83.5313 Y5.2938 
G01 X-83.6092 Y5.3717 
G01 X-83.6644 Y5.4672 
G01 X-83.6929 Y5.5737 
G01 X-83.6929 Y5.8043 
G01 X-83.6644 Y5.9108 
G01 X-83.6092 Y6.0063 
G01 X-83.5313 Y6.0842 
G01 X-83.4358 Y6.1394 
G01 X-83.3293 Y6.1679 
G01 X-82.5006 Y6.1679 
G01 X-82.3252 Y6.2405 
G01 X-82.3013 Y6.2544 
G01 X-82.2745 Y6.2615 
G01 X-82.2489 Y6.2721 
G01 X-82.2215 Y6.2757 
G01 X-82.1948 Y6.2829 
G01 X-82.1671 Y6.2829 
G01 X-82.1396 Y6.2865 
G01 X-82.1122 Y6.2829 
G01 X-79.8869 Y6.2829 
G01 X-79.7850 Y6.2556 
G01 X-79.7804 Y6.2544 
G01 X-79.7783 Y6.2531 
G01 X-79.6850 Y6.1992 
G01 X-79.6082 Y6.1225 
G01 X-79.5519 Y6.0258 
G01 X-79.5234 Y5.9193 
G01 X-79.5234 Y5.8091 
G01 X-79.6421 Y5.3660 
G01 X-79.6421 Y4.7940 
G01 X-79.4941 Y4.2416 
G01 X-79.2081 Y3.7463 
G01 X-78.8037 Y3.3419 
G01 X-78.3084 Y3.0559 
G01 X-77.7560 Y2.9079 
G01 X-77.1840 Y2.9079 
G01 X-76.6316 Y3.0559 
G01 X-76.4095 Y3.1842 
G01 X-76.3030 Y3.2127 
G01 X-64.3986 Y3.2127 
G01 X-63.7123 Y3.4970 
G01 X-48.8402 Y18.3690 
G01 X-48.7447 Y18.4242 
G01 X-48.6382 Y18.4527 
G01 X-33.9186 Y18.4527 
G01 X-33.2323 Y18.7370 
G01 X-21.2770 Y30.6923 
G01 X-20.9927 Y31.3786 
G01 X-20.9927 Y32.0591 
G01 X-20.9642 Y32.1656 
G01 X-20.9090 Y32.2611 
G01 X-20.8311 Y32.3390 
G01 X-20.7356 Y32.3942 
G01 X-20.6291 Y32.4227 
G01 X-17.7204 Y32.4227 
G01 X-17.6929 Y32.4263 
G01 X-17.6655 Y32.4227 
G01 X-17.6378 Y32.4227 
G01 X-17.6111 Y32.4155 
G01 X-17.5836 Y32.4119 
G01 X-17.5580 Y32.4013 
G01 X-17.5313 Y32.3942 
G01 X-17.5073 Y32.3803 
G01 X-17.2789 Y32.2857 
G01 X-14.3011 Y32.2857 
G00 Z2.0000  F3000
G00 X-14.4154 Y33.1036  F3000
G01 Z-0.2000 F200.00 
G01 X-14.6029 Y33.0739 F500.00 
G01 X-16.9771 Y33.0739 
G01 X-17.1646 Y33.1036 
G01 X-17.3452 Y33.1623 
G01 X-17.4406 Y33.2109 
G01 X-21.7809 Y33.2109 
G01 X-21.7809 Y31.6651 
G01 X-21.8075 Y31.4973 
G01 X-21.8600 Y31.3358 
G01 X-21.9371 Y31.1844 
G01 X-22.0369 Y31.0470 
G01 X-33.5870 Y19.4969 
G01 X-33.7244 Y19.3971 
G01 X-33.8758 Y19.3200 
G01 X-34.0373 Y19.2675 
G01 X-34.2051 Y19.2409 
G01 X-49.0830 Y19.2409 
G01 X-64.0670 Y4.2569 
G01 X-64.2044 Y4.1571 
G01 X-64.3558 Y4.0800 
G01 X-64.5173 Y4.0275 
G01 X-64.6851 Y4.0009 
G01 X-76.6008 Y4.0009 
G01 X-76.7447 Y3.8964 
G01 X-76.9388 Y3.7975 
G01 X-77.1459 Y3.7302 
G01 X-77.3611 Y3.6961 
G01 X-77.5789 Y3.6961 
G01 X-77.7941 Y3.7302 
G01 X-78.0012 Y3.7975 
G01 X-78.1953 Y3.8964 
G01 X-78.3715 Y4.0244 
G01 X-78.5256 Y4.1784 
G01 X-78.6536 Y4.3547 
G01 X-78.7525 Y4.5488 
G01 X-78.8198 Y4.7559 
G01 X-78.8539 Y4.9711 
G01 X-78.8539 Y5.1889 
G01 X-78.8198 Y5.4041 
G01 X-78.7525 Y5.6112 
G01 X-78.6536 Y5.8053 
G01 X-78.5256 Y5.9815 
G01 X-78.3715 Y6.1356 
G01 X-78.1953 Y6.2636 
G01 X-78.0012 Y6.3625 
G01 X-77.7941 Y6.4298 
G01 X-77.5789 Y6.4639 
G01 X-77.3611 Y6.4639 
G01 X-77.1459 Y6.4298 
G01 X-76.9388 Y6.3625 
G01 X-76.7447 Y6.2636 
G01 X-76.6008 Y6.1591 
G01 X-65.2170 Y6.1591 
G01 X-50.3531 Y21.0230 
G01 X-50.2330 Y21.1431 
G01 X-50.0956 Y21.2429 
G01 X-49.9442 Y21.3200 
G01 X-49.7827 Y21.3725 
G01 X-49.6149 Y21.3991 
G01 X-36.6391 Y21.3991 
G01 X-36.6391 Y31.8349 
G01 X-36.6125 Y32.0027 
G01 X-36.5600 Y32.1642 
G01 X-36.4829 Y32.3156 
G01 X-36.3831 Y32.4530 
G01 X-36.3089 Y32.5272 
G01 X-36.3089 Y35.2498 
G01 X-36.7575 Y35.6984 
G01 X-36.8051 Y35.6909 
G01 X-40.7449 Y35.6909 
G01 X-40.9127 Y35.7175 
G01 X-41.0742 Y35.7700 
G01 X-41.2256 Y35.8471 
G01 X-41.3630 Y35.9469 
G01 X-41.4831 Y36.0670 
G01 X-41.5829 Y36.2044 
G01 X-41.6600 Y36.3558 
G01 X-41.7125 Y36.5173 
G01 X-41.7391 Y36.6851 
G01 X-41.7391 Y36.8549 
G01 X-41.7125 Y37.0227 
G01 X-41.6600 Y37.1842 
G01 X-41.5829 Y37.3356 
G01 X-41.4831 Y37.4730 
G01 X-41.3630 Y37.5931 
G01 X-41.2256 Y37.6929 
G01 X-41.0742 Y37.7700 
G01 X-40.9127 Y37.8225 
G01 X-40.7449 Y37.8491 
G01 X-37.1856 Y37.8491 
G01 X-37.0827 Y37.8825 
G01 X-36.9149 Y37.9091 
G01 X-36.7451 Y37.9091 
G01 X-36.5773 Y37.8825 
G01 X-36.4158 Y37.8300 
G01 X-36.2644 Y37.7529 
G01 X-36.1270 Y37.6531 
G01 X-36.0069 Y37.5330 
G01 X-35.9071 Y37.3956 
G01 X-35.8300 Y37.2442 
G01 X-35.7775 Y37.0827 
G01 X-35.7509 Y36.9149 
G01 X-35.7509 Y36.8100 
G01 X-35.0826 Y36.1417 
G01 X-34.9783 Y36.0374 
G01 X-34.8963 Y35.9147 
G01 X-34.8399 Y35.7784 
G01 X-34.8111 Y35.6338 
G01 X-34.8111 Y32.5272 
G01 X-34.7369 Y32.4530 
G01 X-34.6371 Y32.3156 
G01 X-34.5600 Y32.1642 
G01 X-34.5075 Y32.0027 
G01 X-34.4809 Y31.8349 
G01 X-34.4809 Y21.6552 
G01 X-23.9391 Y32.1970 
G01 X-23.9391 Y33.2109 
G01 X-25.4849 Y33.2109 
G01 X-25.6527 Y33.2375 
G01 X-25.8142 Y33.2900 
G01 X-25.9656 Y33.3671 
G01 X-26.1030 Y33.4669 
G01 X-26.2231 Y33.5870 
G01 X-26.3229 Y33.7244 
G01 X-26.4000 Y33.8758 
G01 X-26.4525 Y34.0373 
G01 X-26.4791 Y34.2051 
G01 X-26.4791 Y40.9161 
G01 X-26.7927 Y40.9161 
G01 X-26.8345 Y40.9334 
G01 X-26.8666 Y40.9655 
G01 X-26.8839 Y41.0073 
G01 X-26.8839 Y42.8527 
G01 X-26.8666 Y42.8945 
G01 X-26.8345 Y42.9266 
G01 X-26.7927 Y42.9439 
G01 X-25.7100 Y42.9439 
G01 X-25.6527 Y42.9625 
G01 X-25.4849 Y42.9891 
G01 X-25.3151 Y42.9891 
G01 X-25.1473 Y42.9625 
G01 X-24.9858 Y42.9100 
G01 X-24.8344 Y42.8329 
G01 X-24.6970 Y42.7331 
G01 X-24.6228 Y42.6589 
G01 X-23.7359 Y42.6589 
G01 X-23.7359 Y42.7583 
G01 X-23.7022 Y42.9275 
G01 X-23.6362 Y43.0869 
G01 X-23.5404 Y43.2304 
G01 X-23.4184 Y43.3524 
G01 X-23.2749 Y43.4482 
G01 X-23.1155 Y43.5142 
G01 X-22.9463 Y43.5479 
G01 X-22.7737 Y43.5479 
G01 X-22.6045 Y43.5142 
G01 X-22.4451 Y43.4482 
G01 X-22.3016 Y43.3524 
G01 X-22.1796 Y43.2304 
G01 X-22.0838 Y43.0869 
G01 X-22.0178 Y42.9275 
G01 X-21.9841 Y42.7583 
G01 X-21.9841 Y41.0617 
G01 X-22.0178 Y40.8925 
G01 X-22.0838 Y40.7331 
G01 X-22.1796 Y40.5896 
G01 X-22.3016 Y40.4676 
G01 X-22.4451 Y40.3718 
G01 X-22.6045 Y40.3058 
G01 X-22.7737 Y40.2721 
G01 X-22.9463 Y40.2721 
G01 X-23.1155 Y40.3058 
G01 X-23.2749 Y40.3718 
G01 X-23.4184 Y40.4676 
G01 X-23.5404 Y40.5896 
G01 X-23.6362 Y40.7331 
G01 X-23.7022 Y40.8925 
G01 X-23.7359 Y41.0617 
G01 X-23.7359 Y41.1611 
G01 X-24.3209 Y41.1611 
G01 X-24.3209 Y35.3691 
G01 X-17.4014 Y35.3691 
G01 X-17.3452 Y35.3977 
G01 X-17.1646 Y35.4564 
G01 X-16.9771 Y35.4861 
G01 X-14.6029 Y35.4861 
G01 X-14.4154 Y35.4564 
G01 X-14.2348 Y35.3977 
G01 X-14.0657 Y35.3115 
G01 X-13.9121 Y35.2000 
G01 X-13.7778 Y35.0657 
G01 X-13.6662 Y34.9121 
G01 X-13.5801 Y34.7430 
G01 X-13.5214 Y34.5624 
G01 X-13.4917 Y34.3749 
G01 X-13.4917 Y34.1851 
G01 X-13.5214 Y33.9976 
G01 X-13.5801 Y33.8170 
G01 X-13.6662 Y33.6479 
G01 X-13.7778 Y33.4943 
G01 X-13.9121 Y33.3600 
G01 X-14.0657 Y33.2484 
G01 X-14.2348 Y33.1623 
G01 X-14.4154 Y33.1036 
G00 Z2.0000  F3000
G00 X-14.4154 Y35.6436  F3000
G01 Z-0.2000 F200.00 
G01 X-14.6029 Y35.6139 F500.00 
G01 X-16.9771 Y35.6139 
G01 X-17.1646 Y35.6436 
G01 X-17.3452 Y35.7023 
G01 X-17.5143 Y35.7884 
G01 X-17.6679 Y35.9000 
G01 X-17.8022 Y36.0343 
G01 X-17.9137 Y36.1879 
G01 X-17.9999 Y36.3570 
G01 X-18.0586 Y36.5376 
G01 X-18.0883 Y36.7251 
G01 X-18.0883 Y36.9149 
G01 X-18.0586 Y37.1024 
G01 X-17.9999 Y37.2830 
G01 X-17.9137 Y37.4521 
G01 X-17.8022 Y37.6057 
G01 X-17.6679 Y37.7400 
G01 X-17.5143 Y37.8515 
G01 X-17.3452 Y37.9377 
G01 X-17.1646 Y37.9964 
G01 X-16.9771 Y38.0261 
G01 X-15.9889 Y38.0261 
G01 X-15.9889 Y39.6138 
G01 X-15.9601 Y39.7584 
G01 X-15.9037 Y39.8947 
G01 X-15.8539 Y39.9692 
G01 X-15.8539 Y40.2627 
G01 X-15.8366 Y40.3045 
G01 X-15.8045 Y40.3366 
G01 X-15.7627 Y40.3539 
G01 X-14.7173 Y40.3539 
G01 X-14.6755 Y40.3366 
G01 X-14.6434 Y40.3045 
G01 X-14.6261 Y40.2627 
G01 X-14.6261 Y39.9692 
G01 X-14.5763 Y39.8947 
G01 X-14.5199 Y39.7584 
G01 X-14.4911 Y39.6138 
G01 X-14.4911 Y38.0084 
G01 X-14.4154 Y37.9964 
G01 X-14.2348 Y37.9377 
G01 X-14.0657 Y37.8515 
G01 X-13.9121 Y37.7400 
G01 X-13.7778 Y37.6057 
G01 X-13.6662 Y37.4521 
G01 X-13.5801 Y37.2830 
G01 X-13.5214 Y37.1024 
G01 X-13.4917 Y36.9149 
G01 X-13.4917 Y36.7251 
G01 X-13.5214 Y36.5376 
G01 X-13.5801 Y36.3570 
G01 X-13.6662 Y36.1879 
G01 X-13.7778 Y36.0343 
G01 X-13.9121 Y35.9000 
G01 X-14.0657 Y35.7884 
G01 X-14.2348 Y35.7023 
G01 X-14.4154 Y35.6436 
G00 Z2.0000  F3000
G00 X-18.9602 Y36.3189  F3000
G01 Z-0.2000 F200.00 
G01 X-19.0381 Y36.2410 F500.00 
G01 X-19.1336 Y36.1858 
G01 X-19.2401 Y36.1573 
G01 X-23.1691 Y36.1573 
G01 X-23.2756 Y36.1858 
G01 X-23.3711 Y36.2410 
G01 X-23.4490 Y36.3189 
G01 X-23.5042 Y36.4144 
G01 X-23.5327 Y36.5209 
G01 X-23.5327 Y39.1203 
G01 X-23.5042 Y39.2268 
G01 X-23.4490 Y39.3223 
G01 X-23.3711 Y39.4002 
G01 X-23.2756 Y39.4554 
G01 X-23.1691 Y39.4839 
G01 X-22.5290 Y39.4839 
G01 X-21.9174 Y39.7372 
G01 X-21.4492 Y40.2054 
G01 X-21.4483 Y40.2077 
G01 X-21.4305 Y40.2541 
G01 X-21.4272 Y40.2586 
G01 X-21.4251 Y40.2637 
G01 X-21.3991 Y40.2976 
G01 X-21.3991 Y41.9949 
G01 X-21.3725 Y42.1627 
G01 X-21.3200 Y42.3242 
G01 X-21.2429 Y42.4756 
G01 X-21.1959 Y42.5403 
G01 X-21.1959 Y42.7583 
G01 X-21.1622 Y42.9275 
G01 X-21.0962 Y43.0869 
G01 X-21.0004 Y43.2304 
G01 X-20.8784 Y43.3524 
G01 X-20.7349 Y43.4482 
G01 X-20.5755 Y43.5142 
G01 X-20.4063 Y43.5479 
G01 X-20.2337 Y43.5479 
G01 X-20.0645 Y43.5142 
G01 X-19.9051 Y43.4482 
G01 X-19.7616 Y43.3524 
G01 X-19.6396 Y43.2304 
G01 X-19.5438 Y43.0869 
G01 X-19.4778 Y42.9275 
G01 X-19.4441 Y42.7583 
G01 X-19.4441 Y42.5403 
G01 X-19.4179 Y42.5042 
G01 X-19.4179 Y42.5493 
G01 X-19.3894 Y42.6558 
G01 X-19.3342 Y42.7513 
G01 X-19.2563 Y42.8292 
G01 X-19.1608 Y42.8844 
G01 X-19.0543 Y42.9129 
G01 X-17.1937 Y42.9129 
G01 X-17.0872 Y42.8844 
G01 X-16.9917 Y42.8292 
G01 X-16.9138 Y42.7513 
G01 X-16.8586 Y42.6558 
G01 X-16.8301 Y42.5493 
G01 X-16.8301 Y42.1587 
G01 X-16.8039 Y42.1587 
G01 X-16.8039 Y42.4627 
G01 X-16.7866 Y42.5045 
G01 X-16.7545 Y42.5366 
G01 X-16.7127 Y42.5539 
G01 X-15.6673 Y42.5539 
G01 X-15.6255 Y42.5366 
G01 X-15.5934 Y42.5045 
G01 X-15.5761 Y42.4627 
G01 X-15.5761 Y41.0173 
G01 X-15.5934 Y40.9755 
G01 X-15.6255 Y40.9434 
G01 X-15.6673 Y40.9261 
G01 X-16.7127 Y40.9261 
G01 X-16.7545 Y40.9434 
G01 X-16.7866 Y40.9755 
G01 X-16.8039 Y41.0173 
G01 X-16.8039 Y41.3213 
G01 X-16.8301 Y41.3213 
G01 X-16.8301 Y41.0215 
G01 X-16.8206 Y40.9859 
G01 X-16.8021 Y40.9540 
G01 X-16.7760 Y40.9279 
G01 X-16.7683 Y40.9234 
G01 X-16.7487 Y40.9038 
G01 X-16.7267 Y40.8870 
G01 X-16.7099 Y40.8650 
G01 X-16.6903 Y40.8455 
G01 X-16.6764 Y40.8215 
G01 X-16.6596 Y40.7995 
G01 X-16.6490 Y40.7739 
G01 X-16.6352 Y40.7500 
G01 X-16.6280 Y40.7232 
G01 X-16.6174 Y40.6976 
G01 X-16.6138 Y40.6702 
G01 X-16.6066 Y40.6435 
G01 X-16.6066 Y40.6158 
G01 X-16.6030 Y40.5883 
G01 X-16.6066 Y40.5609 
G01 X-16.6066 Y40.5333 
G01 X-16.6138 Y40.5065 
G01 X-16.6174 Y40.4790 
G01 X-16.6280 Y40.4535 
G01 X-16.6351 Y40.4268 
G01 X-16.6421 Y40.4147 
G01 X-16.6421 Y40.2824 
G01 X-16.6385 Y40.2549 
G01 X-16.6421 Y40.2275 
G01 X-16.6421 Y40.1998 
G01 X-16.6493 Y40.1731 
G01 X-16.6529 Y40.1456 
G01 X-16.6635 Y40.1201 
G01 X-16.6706 Y40.0933 
G01 X-16.6845 Y40.0694 
G01 X-16.7771 Y39.8457 
G01 X-16.7771 Y39.1779 
G01 X-16.8056 Y39.0714 
G01 X-16.8608 Y38.9759 
G01 X-16.9387 Y38.8980 
G01 X-17.0342 Y38.8428 
G01 X-17.1407 Y38.8143 
G01 X-17.2789 Y38.8143 
G01 X-18.0119 Y38.5107 
G01 X-18.5729 Y37.9497 
G01 X-18.8765 Y37.2167 
G01 X-18.8765 Y36.5209 
G01 X-18.9050 Y36.4144 
G01 X-18.9602 Y36.3189 
G00 Z2.0000  F3000
G00 X-14.8545 Y40.9434  F3000
G01 Z-0.2000 F200.00 
G01 X-14.8866 Y40.9755 F500.00 
G01 X-14.9039 Y41.0173 
G01 X-14.9039 Y41.3108 
G01 X-14.9537 Y41.3853 
G01 X-15.0101 Y41.5216 
G01 X-15.0389 Y41.6662 
G01 X-15.0389 Y41.8138 
G01 X-15.0101 Y41.9584 
G01 X-14.9537 Y42.0947 
G01 X-14.9039 Y42.1692 
G01 X-14.9039 Y42.4627 
G01 X-14.8866 Y42.5045 
G01 X-14.8545 Y42.5366 
G01 X-14.8127 Y42.5539 
G01 X-13.7673 Y42.5539 
G01 X-13.7255 Y42.5366 
G01 X-13.6934 Y42.5045 
G01 X-13.6870 Y42.4889 
G01 X-12.1462 Y42.4889 
G01 X-12.0016 Y42.4601 
G01 X-11.8653 Y42.4037 
G01 X-11.7758 Y42.3439 
G01 X-11.2873 Y42.3439 
G01 X-11.2455 Y42.3266 
G01 X-11.2134 Y42.2945 
G01 X-11.1961 Y42.2527 
G01 X-11.1961 Y40.7073 
G01 X-11.2134 Y40.6655 
G01 X-11.2455 Y40.6334 
G01 X-11.2873 Y40.6161 
G01 X-12.6327 Y40.6161 
G01 X-12.6745 Y40.6334 
G01 X-12.7066 Y40.6655 
G01 X-12.7239 Y40.7073 
G01 X-12.7239 Y40.9911 
G01 X-13.6870 Y40.9911 
G01 X-13.6934 Y40.9755 
G01 X-13.7255 Y40.9434 
G01 X-13.7673 Y40.9261 
G01 X-14.8127 Y40.9261 
G01 X-14.8545 Y40.9434 
G00 Z2.0000  F3000
G00 X-10.8239 Y40.7073  F3000
G01 Z-0.2000 F200.00 
G01 X-10.8239 Y41.2258 F500.00 
G01 X-10.8801 Y41.3616 
G01 X-10.9089 Y41.5062 
G01 X-10.9089 Y43.7011 
G01 X-45.4098 Y43.7011 
G01 X-45.6356 Y43.4753 
G01 X-45.6061 Y43.2889 
G01 X-45.6061 Y43.0711 
G01 X-45.6402 Y42.8559 
G01 X-45.7075 Y42.6488 
G01 X-45.8064 Y42.4547 
G01 X-45.9344 Y42.2784 
G01 X-46.0885 Y42.1244 
G01 X-46.2647 Y41.9964 
G01 X-46.4588 Y41.8975 
G01 X-46.6659 Y41.8302 
G01 X-46.8811 Y41.7961 
G01 X-47.0989 Y41.7961 
G01 X-47.3141 Y41.8302 
G01 X-47.5212 Y41.8975 
G01 X-47.7153 Y41.9964 
G01 X-47.8915 Y42.1244 
G01 X-48.0456 Y42.2784 
G01 X-48.1736 Y42.4547 
G01 X-48.2725 Y42.6488 
G01 X-48.3398 Y42.8559 
G01 X-48.3739 Y43.0711 
G01 X-48.3739 Y43.2889 
G01 X-48.3398 Y43.5041 
G01 X-48.2725 Y43.7112 
G01 X-48.1736 Y43.9053 
G01 X-48.0456 Y44.0815 
G01 X-47.8915 Y44.2356 
G01 X-47.7153 Y44.3636 
G01 X-47.5212 Y44.4625 
G01 X-47.3141 Y44.5298 
G01 X-47.0989 Y44.5639 
G01 X-46.8811 Y44.5639 
G01 X-46.6947 Y44.5344 
G01 X-46.3017 Y44.9274 
G01 X-46.1974 Y45.0317 
G01 X-46.0747 Y45.1137 
G01 X-45.9384 Y45.1701 
G01 X-45.7938 Y45.1989 
G01 X-10.0862 Y45.1989 
G01 X-9.9416 Y45.1701 
G01 X-9.8053 Y45.1137 
G01 X-9.6826 Y45.0317 
G01 X-9.5783 Y44.9274 
G01 X-9.4963 Y44.8047 
G01 X-9.4399 Y44.6684 
G01 X-9.4111 Y44.5238 
G01 X-9.4111 Y42.3439 
G01 X-9.3873 Y42.3439 
G01 X-9.3455 Y42.3266 
G01 X-9.3134 Y42.2945 
G01 X-9.2961 Y42.2527 
G01 X-9.2961 Y40.7073 
G01 X-9.3134 Y40.6655 
G01 X-9.3455 Y40.6334 
G01 X-9.3873 Y40.6161 
G01 X-10.7327 Y40.6161 
G01 X-10.7745 Y40.6334 
G01 X-10.8066 Y40.6655 
G01 X-10.8239 Y40.7073 
G00 Z2.0000  F3000
G00 X-29.2839 Y40.8899  F3000
G01 Z-0.2000 F200.00 
G01 X-29.2839 Y40.9161 F500.00 
G01 X-29.5927 Y40.9161 
G01 X-29.6345 Y40.9334 
G01 X-29.6666 Y40.9655 
G01 X-29.6839 Y41.0073 
G01 X-29.6839 Y41.4161 
G01 X-29.7101 Y41.4161 
G01 X-29.7101 Y41.0115 
G01 X-29.7006 Y40.9759 
G01 X-29.6821 Y40.9440 
G01 X-29.6560 Y40.9179 
G01 X-29.6241 Y40.8994 
G01 X-29.5884 Y40.8899 
G01 X-29.2839 Y40.8899 
G00 Z2.0000  F3000
G00 X-37.1665 Y35.2156  F3000
G01 Z-0.2000 F200.00 
G01 X-37.1344 Y35.1835 F500.00 
G01 X-37.1171 Y35.1417 
G01 X-37.1171 Y34.6354 
G01 X-37.0675 Y34.4827 
G01 X-37.0409 Y34.3149 
G01 X-37.0409 Y33.2312 
G01 X-37.0209 Y33.1049 
G01 X-37.0209 Y32.9351 
G01 X-37.0475 Y32.7673 
G01 X-37.1000 Y32.6058 
G01 X-37.1771 Y32.4544 
G01 X-37.2769 Y32.3170 
G01 X-37.3970 Y32.1969 
G01 X-37.5344 Y32.0971 
G01 X-37.6858 Y32.0200 
G01 X-37.8473 Y31.9675 
G01 X-38.0151 Y31.9409 
G01 X-38.9230 Y31.9409 
G01 X-47.4369 Y23.4270 
G01 X-47.5570 Y23.3069 
G01 X-47.6944 Y23.2071 
G01 X-47.8458 Y23.1300 
G01 X-48.0073 Y23.0775 
G01 X-48.1751 Y23.0509 
G01 X-53.8611 Y23.0509 
G01 X-53.8611 Y18.9762 
G01 X-53.8899 Y18.8316 
G01 X-53.9463 Y18.6953 
G01 X-54.0283 Y18.5726 
G01 X-65.3626 Y7.2383 
G01 X-65.4853 Y7.1563 
G01 X-65.6216 Y7.0999 
G01 X-65.7662 Y7.0711 
G01 X-82.5661 Y7.0711 
G01 X-82.5661 Y7.0473 
G01 X-82.5834 Y7.0055 
G01 X-82.6155 Y6.9734 
G01 X-82.6573 Y6.9561 
G01 X-84.0027 Y6.9561 
G01 X-84.0445 Y6.9734 
G01 X-84.0766 Y7.0055 
G01 X-84.0939 Y7.0473 
G01 X-84.0939 Y8.5927 
G01 X-84.0766 Y8.6345 
G01 X-84.0445 Y8.6666 
G01 X-84.0027 Y8.6839 
G01 X-83.2989 Y8.6839 
G01 X-83.2989 Y10.6811 
G01 X-86.0498 Y10.6811 
G01 X-88.4226 Y8.3083 
G01 X-88.5453 Y8.2263 
G01 X-88.6816 Y8.1699 
G01 X-88.8262 Y8.1411 
G01 X-92.7838 Y8.1411 
G01 X-92.9284 Y8.1699 
G01 X-93.0647 Y8.2263 
G01 X-93.1874 Y8.3083 
G01 X-93.2917 Y8.4126 
G01 X-95.8317 Y10.9526 
G01 X-95.9137 Y11.0753 
G01 X-95.9701 Y11.2116 
G01 X-95.9989 Y11.3562 
G01 X-95.9989 Y11.6209 
G01 X-97.8749 Y11.6209 
G01 X-98.0427 Y11.6475 
G01 X-98.2042 Y11.7000 
G01 X-98.3556 Y11.7771 
G01 X-98.4203 Y11.8241 
G01 X-98.6383 Y11.8241 
G01 X-98.8075 Y11.8578 
G01 X-98.9669 Y11.9238 
G01 X-99.1104 Y12.0196 
G01 X-99.2324 Y12.1416 
G01 X-99.3282 Y12.2851 
G01 X-99.3942 Y12.4445 
G01 X-99.4279 Y12.6137 
G01 X-99.4279 Y12.7863 
G01 X-99.3942 Y12.9555 
G01 X-99.3282 Y13.1149 
G01 X-99.2324 Y13.2584 
G01 X-99.1104 Y13.3804 
G01 X-98.9669 Y13.4762 
G01 X-98.8075 Y13.5422 
G01 X-98.6383 Y13.5759 
G01 X-98.4203 Y13.5759 
G01 X-98.3556 Y13.6229 
G01 X-98.2042 Y13.7000 
G01 X-98.0427 Y13.7525 
G01 X-97.8749 Y13.7791 
G01 X-95.1651 Y13.7791 
G01 X-94.9973 Y13.7525 
G01 X-94.8358 Y13.7000 
G01 X-94.6844 Y13.6229 
G01 X-94.5470 Y13.5231 
G01 X-94.4269 Y13.4030 
G01 X-94.3271 Y13.2656 
G01 X-94.2500 Y13.1142 
G01 X-94.1975 Y12.9527 
G01 X-94.1709 Y12.7849 
G01 X-94.1709 Y12.6151 
G01 X-94.1975 Y12.4473 
G01 X-94.2500 Y12.2858 
G01 X-94.3271 Y12.1344 
G01 X-94.4269 Y11.9970 
G01 X-94.5011 Y11.9228 
G01 X-94.5011 Y11.7402 
G01 X-92.3998 Y9.6389 
G01 X-89.2102 Y9.6389 
G01 X-86.8374 Y12.0117 
G01 X-86.7147 Y12.0937 
G01 X-86.5784 Y12.1501 
G01 X-86.4338 Y12.1789 
G01 X-82.4762 Y12.1789 
G01 X-82.3316 Y12.1501 
G01 X-82.1953 Y12.0937 
G01 X-82.0726 Y12.0117 
G01 X-81.9683 Y11.9074 
G01 X-81.8863 Y11.7847 
G01 X-81.8299 Y11.6484 
G01 X-81.8011 Y11.5038 
G01 X-81.8011 Y8.5689 
G01 X-66.1502 Y8.5689 
G01 X-55.3589 Y19.3602 
G01 X-55.3589 Y23.0509 
G01 X-59.7749 Y23.0509 
G01 X-59.9427 Y23.0775 
G01 X-60.1042 Y23.1300 
G01 X-60.2556 Y23.2071 
G01 X-60.3930 Y23.3069 
G01 X-60.5131 Y23.4270 
G01 X-60.5720 Y23.5081 
G01 X-66.2961 Y23.5081 
G01 X-66.2961 Y23.4373 
G01 X-66.3134 Y23.3955 
G01 X-66.3455 Y23.3634 
G01 X-66.3873 Y23.3461 
G01 X-68.2327 Y23.3461 
G01 X-68.2745 Y23.3634 
G01 X-68.3066 Y23.3955 
G01 X-68.3239 Y23.4373 
G01 X-68.3239 Y25.0827 
G01 X-68.3066 Y25.1245 
G01 X-68.2745 Y25.1566 
G01 X-68.2327 Y25.1739 
G01 X-67.1456 Y25.1739 
G01 X-66.4364 Y25.8831 
G01 X-66.3346 Y25.9511 
G01 X-66.2214 Y25.9980 
G01 X-66.1012 Y26.0219 
G01 X-65.9787 Y26.0219 
G01 X-65.8852 Y26.0033 
G01 X-65.8497 Y26.0387 
G01 X-65.7774 Y26.0805 
G01 X-65.6967 Y26.1021 
G01 X-64.7639 Y26.1021 
G01 X-64.7639 Y26.4077 
G01 X-64.7466 Y26.4495 
G01 X-64.7145 Y26.4816 
G01 X-64.6727 Y26.4989 
G01 X-64.2773 Y26.4989 
G01 X-64.2355 Y26.4816 
G01 X-64.2034 Y26.4495 
G01 X-64.1861 Y26.4077 
G01 X-64.1861 Y25.9188 
G01 X-64.1795 Y25.9074 
G01 X-64.1579 Y25.8267 
G01 X-64.1579 Y25.7432 
G01 X-64.1795 Y25.6626 
G01 X-64.1861 Y25.6512 
G01 X-64.1861 Y25.1623 
G01 X-64.2034 Y25.1205 
G01 X-64.2355 Y25.0884 
G01 X-64.2773 Y25.0711 
G01 X-64.6727 Y25.0711 
G01 X-64.7145 Y25.0884 
G01 X-64.7466 Y25.1205 
G01 X-64.7639 Y25.1623 
G01 X-64.7639 Y25.4679 
G01 X-65.4194 Y25.4679 
G01 X-65.4181 Y25.4612 
G01 X-65.4181 Y25.3387 
G01 X-65.4420 Y25.2186 
G01 X-65.4889 Y25.1054 
G01 X-65.5569 Y25.0036 
G01 X-65.8086 Y24.7519 
G01 X-60.5720 Y24.7519 
G01 X-60.5131 Y24.8330 
G01 X-60.3930 Y24.9531 
G01 X-60.2556 Y25.0529 
G01 X-60.1042 Y25.1300 
G01 X-59.9427 Y25.1825 
G01 X-59.7749 Y25.2091 
G01 X-48.7070 Y25.2091 
G01 X-40.6890 Y33.2271 
G01 X-40.7588 Y33.2271 
G01 X-40.9525 Y33.2656 
G01 X-41.1350 Y33.3412 
G01 X-41.2993 Y33.4510 
G01 X-41.4390 Y33.5907 
G01 X-41.5488 Y33.7549 
G01 X-41.6244 Y33.9375 
G01 X-41.6629 Y34.1312 
G01 X-41.6629 Y34.3288 
G01 X-41.6244 Y34.5225 
G01 X-41.5488 Y34.7050 
G01 X-41.4390 Y34.8693 
G01 X-41.2993 Y35.0090 
G01 X-41.1350 Y35.1188 
G01 X-40.9525 Y35.1944 
G01 X-40.7588 Y35.2329 
G01 X-40.5612 Y35.2329 
G01 X-40.3675 Y35.1944 
G01 X-40.1849 Y35.1188 
G01 X-40.0207 Y35.0090 
G01 X-39.8810 Y34.8693 
G01 X-39.7712 Y34.7050 
G01 X-39.6956 Y34.5225 
G01 X-39.6571 Y34.3288 
G01 X-39.6571 Y34.1312 
G01 X-39.6720 Y34.0565 
G01 X-39.6227 Y34.0725 
G01 X-39.4549 Y34.0991 
G01 X-39.1991 Y34.0991 
G01 X-39.1991 Y34.3149 
G01 X-39.1725 Y34.4827 
G01 X-39.1229 Y34.6354 
G01 X-39.1229 Y35.1417 
G01 X-39.1056 Y35.1835 
G01 X-39.0735 Y35.2156 
G01 X-39.0317 Y35.2329 
G01 X-38.5254 Y35.2329 
G01 X-38.3727 Y35.2825 
G01 X-38.2049 Y35.3091 
G01 X-38.0351 Y35.3091 
G01 X-37.8673 Y35.2825 
G01 X-37.7146 Y35.2329 
G01 X-37.2083 Y35.2329 
G01 X-37.1665 Y35.2156 
G00 Z2.0000  F3000
G00 X-42.5607 Y35.0090  F3000
G01 Z-0.2000 F200.00 
G01 X-42.4210 Y34.8693 F500.00 
G01 X-42.3112 Y34.7050 
G01 X-42.2356 Y34.5225 
G01 X-42.1971 Y34.3288 
G01 X-42.1971 Y34.1312 
G01 X-42.2356 Y33.9375 
G01 X-42.3112 Y33.7549 
G01 X-42.4210 Y33.5907 
G01 X-42.5607 Y33.4510 
G01 X-42.7249 Y33.3412 
G01 X-42.9075 Y33.2656 
G01 X-43.1012 Y33.2271 
G01 X-43.2988 Y33.2271 
G01 X-43.4925 Y33.2656 
G01 X-43.6750 Y33.3412 
G01 X-43.8393 Y33.4510 
G01 X-43.9790 Y33.5907 
G01 X-44.0888 Y33.7549 
G01 X-44.1644 Y33.9375 
G01 X-44.2029 Y34.1312 
G01 X-44.2029 Y34.3288 
G01 X-44.1644 Y34.5225 
G01 X-44.0888 Y34.7050 
G01 X-43.9790 Y34.8693 
G01 X-43.8393 Y35.0090 
G01 X-43.6750 Y35.1188 
G01 X-43.4925 Y35.1944 
G01 X-43.2988 Y35.2329 
G01 X-43.1012 Y35.2329 
G01 X-42.9075 Y35.1944 
G01 X-42.7249 Y35.1188 
G01 X-42.5607 Y35.0090 
G00 Z2.0000  F3000
G00 X-45.1007 Y35.0090  F3000
G01 Z-0.2000 F200.00 
G01 X-44.9610 Y34.8693 F500.00 
G01 X-44.8512 Y34.7050 
G01 X-44.7756 Y34.5225 
G01 X-44.7371 Y34.3288 
G01 X-44.7371 Y34.1312 
G01 X-44.7756 Y33.9375 
G01 X-44.8512 Y33.7549 
G01 X-44.9610 Y33.5907 
G01 X-45.1007 Y33.4510 
G01 X-45.2649 Y33.3412 
G01 X-45.4475 Y33.2656 
G01 X-45.6412 Y33.2271 
G01 X-45.8388 Y33.2271 
G01 X-46.0325 Y33.2656 
G01 X-46.2150 Y33.3412 
G01 X-46.3793 Y33.4510 
G01 X-46.5190 Y33.5907 
G01 X-46.6288 Y33.7549 
G01 X-46.7044 Y33.9375 
G01 X-46.7429 Y34.1312 
G01 X-46.7429 Y34.3288 
G01 X-46.7044 Y34.5225 
G01 X-46.6288 Y34.7050 
G01 X-46.5190 Y34.8693 
G01 X-46.3793 Y35.0090 
G01 X-46.2150 Y35.1188 
G01 X-46.0325 Y35.1944 
G01 X-45.8388 Y35.2329 
G01 X-45.6412 Y35.2329 
G01 X-45.4475 Y35.1944 
G01 X-45.2649 Y35.1188 
G01 X-45.1007 Y35.0090 
G00 Z2.0000  F3000
G00 X-45.1007 Y35.9910  F3000
G01 Z-0.2000 F200.00 
G01 X-45.2649 Y35.8812 F500.00 
G01 X-45.4475 Y35.8056 
G01 X-45.6412 Y35.7671 
G01 X-45.8388 Y35.7671 
G01 X-46.0325 Y35.8056 
G01 X-46.2150 Y35.8812 
G01 X-46.3793 Y35.9910 
G01 X-46.5190 Y36.1307 
G01 X-46.6288 Y36.2949 
G01 X-46.7044 Y36.4775 
G01 X-46.7429 Y36.6712 
G01 X-46.7429 Y36.8688 
G01 X-46.7044 Y37.0625 
G01 X-46.6288 Y37.2450 
G01 X-46.5190 Y37.4093 
G01 X-46.3793 Y37.5490 
G01 X-46.2150 Y37.6588 
G01 X-46.0325 Y37.7344 
G01 X-45.8388 Y37.7729 
G01 X-45.6412 Y37.7729 
G01 X-45.4475 Y37.7344 
G01 X-45.2649 Y37.6588 
G01 X-45.1007 Y37.5490 
G01 X-44.9610 Y37.4093 
G01 X-44.8512 Y37.2450 
G01 X-44.7756 Y37.0625 
G01 X-44.7371 Y36.8688 
G01 X-44.7371 Y36.6712 
G01 X-44.7756 Y36.4775 
G01 X-44.8512 Y36.2949 
G01 X-44.9610 Y36.1307 
G01 X-45.1007 Y35.9910 
G00 Z2.0000  F3000
G00 X-47.5010 Y36.1307  F3000
G01 Z-0.2000 F200.00 
G01 X-47.6407 Y35.9910 F500.00 
G01 X-47.8049 Y35.8812 
G01 X-47.9875 Y35.8056 
G01 X-48.1812 Y35.7671 
G01 X-48.3788 Y35.7671 
G01 X-48.5725 Y35.8056 
G01 X-48.7550 Y35.8812 
G01 X-48.9193 Y35.9910 
G01 X-49.0590 Y36.1307 
G01 X-49.1688 Y36.2949 
G01 X-49.2444 Y36.4775 
G01 X-49.2829 Y36.6712 
G01 X-49.2829 Y36.8688 
G01 X-49.2444 Y37.0625 
G01 X-49.1688 Y37.2450 
G01 X-49.0590 Y37.4093 
G01 X-48.9193 Y37.5490 
G01 X-48.7550 Y37.6588 
G01 X-48.5725 Y37.7344 
G01 X-48.3788 Y37.7729 
G01 X-48.1812 Y37.7729 
G01 X-47.9875 Y37.7344 
G01 X-47.8049 Y37.6588 
G01 X-47.6407 Y37.5490 
G01 X-47.5010 Y37.4093 
G01 X-47.3912 Y37.2450 
G01 X-47.3156 Y37.0625 
G01 X-47.2771 Y36.8688 
G01 X-47.2771 Y36.6712 
G01 X-47.3156 Y36.4775 
G01 X-47.3912 Y36.2949 
G01 X-47.5010 Y36.1307 
G00 Z2.0000  F3000
G00 X-47.6407 Y35.0090  F3000
G01 Z-0.2000 F200.00 
G01 X-47.5010 Y34.8693 F500.00 
G01 X-47.3912 Y34.7050 
G01 X-47.3156 Y34.5225 
G01 X-47.2771 Y34.3288 
G01 X-47.2771 Y34.1312 
G01 X-47.3156 Y33.9375 
G01 X-47.3912 Y33.7549 
G01 X-47.5010 Y33.5907 
G01 X-47.6407 Y33.4510 
G01 X-47.8049 Y33.3412 
G01 X-47.8613 Y33.3179 
G01 X-47.8613 Y33.2884 
G01 X-47.7911 Y33.3241 
G01 X-47.7528 Y33.3462 
G01 X-47.7421 Y33.3491 
G01 X-47.7322 Y33.3541 
G01 X-47.6890 Y33.3633 
G01 X-47.6463 Y33.3748 
G01 X-47.6352 Y33.3748 
G01 X-47.6243 Y33.3771 
G01 X-47.5803 Y33.3748 
G01 X-47.5361 Y33.3748 
G01 X-47.5253 Y33.3719 
G01 X-47.5142 Y33.3713 
G01 X-47.4722 Y33.3577 
G01 X-47.4296 Y33.3462 
G01 X-47.4200 Y33.3407 
G01 X-47.4094 Y33.3372 
G01 X-47.3723 Y33.3132 
G01 X-47.3341 Y33.2911 
G01 X-47.3262 Y33.2832 
G01 X-47.3169 Y33.2772 
G01 X-47.2874 Y33.2444 
G01 X-46.7546 Y32.7116 
G01 X-46.0963 Y32.4389 
G01 X-45.3837 Y32.4389 
G01 X-44.7211 Y32.7133 
G01 X-44.6590 Y32.7492 
G01 X-44.6316 Y32.7650 
G01 X-44.5445 Y32.7884 
G01 X-44.5251 Y32.7936 
G01 X-44.4593 Y32.7936 
G01 X-44.4149 Y32.7936 
G01 X-44.3470 Y32.7754 
G01 X-44.3084 Y32.7650 
G01 X-44.2377 Y32.7242 
G01 X-44.2189 Y32.7134 
G01 X-43.5563 Y32.4389 
G01 X-43.5476 Y32.4389 
G01 X-43.4411 Y32.4104 
G01 X-43.3456 Y32.3552 
G01 X-43.2676 Y32.2773 
G01 X-43.2125 Y32.1818 
G01 X-43.1840 Y32.0753 
G01 X-43.1840 Y31.9651 
G01 X-43.2125 Y31.8586 
G01 X-43.2676 Y31.7631 
G01 X-43.3456 Y31.6852 
G01 X-48.9498 Y26.0810 
G01 X-49.0453 Y26.0258 
G01 X-49.1518 Y25.9973 
G01 X-49.2620 Y25.9973 
G01 X-59.1863 Y25.9973 
G01 X-59.2928 Y26.0258 
G01 X-59.3883 Y26.0810 
G01 X-59.4662 Y26.1589 
G01 X-59.5214 Y26.2544 
G01 X-59.5499 Y26.3609 
G01 X-59.5499 Y27.8610 
G01 X-59.5214 Y27.9675 
G01 X-59.4662 Y28.0630 
G01 X-59.3883 Y28.1409 
G01 X-59.3770 Y28.1523 
G01 X-59.0927 Y28.8386 
G01 X-59.0927 Y29.5814 
G01 X-59.1019 Y29.6037 
G01 X-59.1055 Y29.6311 
G01 X-59.1127 Y29.6579 
G01 X-59.1127 Y29.6856 
G01 X-59.1163 Y29.7130 
G01 X-59.1127 Y29.7404 
G01 X-59.1127 Y32.0753 
G01 X-59.0842 Y32.1818 
G01 X-59.0290 Y32.2773 
G01 X-58.9511 Y32.3552 
G01 X-58.8556 Y32.4104 
G01 X-58.7491 Y32.4389 
G01 X-58.0837 Y32.4389 
G01 X-57.4211 Y32.7133 
G01 X-57.3728 Y32.7412 
G01 X-57.3316 Y32.7650 
G01 X-57.2591 Y32.7845 
G01 X-57.2251 Y32.7936 
G01 X-57.1703 Y32.7936 
G01 X-57.1149 Y32.7936 
G01 X-57.0643 Y32.7800 
G01 X-57.0084 Y32.7650 
G01 X-56.9523 Y32.7327 
G01 X-56.9189 Y32.7134 
G01 X-56.2563 Y32.4389 
G01 X-55.5437 Y32.4389 
G01 X-54.8811 Y32.7133 
G01 X-54.8328 Y32.7412 
G01 X-54.7916 Y32.7650 
G01 X-54.7191 Y32.7845 
G01 X-54.6851 Y32.7936 
G01 X-54.6303 Y32.7936 
G01 X-54.5749 Y32.7936 
G01 X-54.5243 Y32.7800 
G01 X-54.4684 Y32.7650 
G01 X-54.4123 Y32.7327 
G01 X-54.3789 Y32.7134 
G01 X-53.7163 Y32.4389 
G01 X-53.3357 Y32.4389 
G01 X-53.2292 Y32.4104 
G01 X-53.1337 Y32.3552 
G01 X-53.0558 Y32.2773 
G01 X-53.0006 Y32.1818 
G01 X-52.9721 Y32.0753 
G01 X-52.9721 Y31.4640 
G01 X-52.8241 Y30.9116 
G01 X-52.5381 Y30.4163 
G01 X-52.1337 Y30.0119 
G01 X-51.6384 Y29.7259 
G01 X-51.0860 Y29.5779 
G01 X-50.5140 Y29.5779 
G01 X-49.9616 Y29.7259 
G01 X-49.4663 Y30.0119 
G01 X-49.0619 Y30.4163 
G01 X-48.7759 Y30.9116 
G01 X-48.6279 Y31.4640 
G01 X-48.6279 Y32.0360 
G01 X-48.7731 Y32.5778 
G01 X-48.7766 Y32.5826 
G01 X-48.7845 Y32.6032 
G01 X-48.7956 Y32.6224 
G01 X-48.8041 Y32.6545 
G01 X-48.8161 Y32.6855 
G01 X-48.8184 Y32.7075 
G01 X-48.8241 Y32.7289 
G01 X-48.8241 Y32.7621 
G01 X-48.8276 Y32.7951 
G01 X-48.8241 Y32.8170 
G01 X-48.8241 Y32.8391 
G01 X-48.8155 Y32.8712 
G01 X-48.8103 Y32.9040 
G01 X-48.8013 Y32.9242 
G01 X-48.7956 Y32.9456 
G01 X-48.7789 Y32.9744 
G01 X-48.7654 Y33.0047 
G01 X-48.7515 Y33.0219 
G01 X-48.7404 Y33.0411 
G01 X-48.7169 Y33.0646 
G01 X-48.6987 Y33.0871 
G01 X-48.6987 Y33.3179 
G01 X-48.7550 Y33.3412 
G01 X-48.9193 Y33.4510 
G01 X-49.0590 Y33.5907 
G01 X-49.1688 Y33.7549 
G01 X-49.2444 Y33.9375 
G01 X-49.2829 Y34.1312 
G01 X-49.2829 Y34.3288 
G01 X-49.2444 Y34.5225 
G01 X-49.1688 Y34.7050 
G01 X-49.0590 Y34.8693 
G01 X-48.9193 Y35.0090 
G01 X-48.7550 Y35.1188 
G01 X-48.5725 Y35.1944 
G01 X-48.3788 Y35.2329 
G01 X-48.1812 Y35.2329 
G01 X-47.9875 Y35.1944 
G01 X-47.8049 Y35.1188 
G01 X-47.6407 Y35.0090 
G00 Z2.0000  F3000
G00 X-49.9969 Y34.9330  F3000
G01 Z-0.2000 F200.00 
G01 X-49.8971 Y34.7956 F500.00 
G01 X-49.8200 Y34.6442 
G01 X-49.7675 Y34.4827 
G01 X-49.7409 Y34.3149 
G01 X-49.7409 Y32.6467 
G01 X-49.6164 Y32.4753 
G01 X-49.5175 Y32.2812 
G01 X-49.4502 Y32.0741 
G01 X-49.4161 Y31.8589 
G01 X-49.4161 Y31.6411 
G01 X-49.4502 Y31.4259 
G01 X-49.5175 Y31.2188 
G01 X-49.6164 Y31.0247 
G01 X-49.7444 Y30.8484 
G01 X-49.8984 Y30.6944 
G01 X-50.0747 Y30.5664 
G01 X-50.2688 Y30.4675 
G01 X-50.4759 Y30.4002 
G01 X-50.6911 Y30.3661 
G01 X-50.9089 Y30.3661 
G01 X-51.1241 Y30.4002 
G01 X-51.3312 Y30.4675 
G01 X-51.5253 Y30.5664 
G01 X-51.7015 Y30.6944 
G01 X-51.8556 Y30.8484 
G01 X-51.9836 Y31.0247 
G01 X-52.0825 Y31.2188 
G01 X-52.1498 Y31.4259 
G01 X-52.1839 Y31.6411 
G01 X-52.1839 Y31.8589 
G01 X-52.1498 Y32.0741 
G01 X-52.0825 Y32.2812 
G01 X-51.9836 Y32.4753 
G01 X-51.8991 Y32.5916 
G01 X-51.8991 Y34.3149 
G01 X-51.8725 Y34.4827 
G01 X-51.8200 Y34.6442 
G01 X-51.7429 Y34.7956 
G01 X-51.6431 Y34.9330 
G01 X-51.5230 Y35.0531 
G01 X-51.3856 Y35.1529 
G01 X-51.2342 Y35.2300 
G01 X-51.0727 Y35.2825 
G01 X-50.9049 Y35.3091 
G01 X-50.7351 Y35.3091 
G01 X-50.5673 Y35.2825 
G01 X-50.4058 Y35.2300 
G01 X-50.2544 Y35.1529 
G01 X-50.1170 Y35.0531 
G01 X-49.9969 Y34.9330 
G00 Z2.0000  F3000
G00 X-50.0410 Y36.1307  F3000
G01 Z-0.2000 F200.00 
G01 X-50.1807 Y35.9910 F500.00 
G01 X-50.3449 Y35.8812 
G01 X-50.5275 Y35.8056 
G01 X-50.7212 Y35.7671 
G01 X-50.9188 Y35.7671 
G01 X-51.1125 Y35.8056 
G01 X-51.2951 Y35.8812 
G01 X-51.4593 Y35.9910 
G01 X-51.5990 Y36.1307 
G01 X-51.7088 Y36.2949 
G01 X-51.7844 Y36.4775 
G01 X-51.8229 Y36.6712 
G01 X-51.8229 Y36.8688 
G01 X-51.7844 Y37.0625 
G01 X-51.7088 Y37.2450 
G01 X-51.5990 Y37.4093 
G01 X-51.4593 Y37.5490 
G01 X-51.2951 Y37.6588 
G01 X-51.1125 Y37.7344 
G01 X-50.9188 Y37.7729 
G01 X-50.7212 Y37.7729 
G01 X-50.5275 Y37.7344 
G01 X-50.3449 Y37.6588 
G01 X-50.1807 Y37.5490 
G01 X-50.0410 Y37.4093 
G01 X-49.9312 Y37.2450 
G01 X-49.8556 Y37.0625 
G01 X-49.8171 Y36.8688 
G01 X-49.8171 Y36.6712 
G01 X-49.8556 Y36.4775 
G01 X-49.9312 Y36.2949 
G01 X-50.0410 Y36.1307 
G00 Z2.0000  F3000
G00 X-52.7207 Y35.0090  F3000
G01 Z-0.2000 F200.00 
G01 X-52.5810 Y34.8693 F500.00 
G01 X-52.4712 Y34.7050 
G01 X-52.3956 Y34.5225 
G01 X-52.3571 Y34.3288 
G01 X-52.3571 Y34.1312 
G01 X-52.3956 Y33.9375 
G01 X-52.4712 Y33.7549 
G01 X-52.5810 Y33.5907 
G01 X-52.7207 Y33.4510 
G01 X-52.8849 Y33.3412 
G01 X-53.0675 Y33.2656 
G01 X-53.2612 Y33.2271 
G01 X-53.4588 Y33.2271 
G01 X-53.6525 Y33.2656 
G01 X-53.8351 Y33.3412 
G01 X-53.9993 Y33.4510 
G01 X-54.1390 Y33.5907 
G01 X-54.2488 Y33.7549 
G01 X-54.3244 Y33.9375 
G01 X-54.3629 Y34.1312 
G01 X-54.3629 Y34.3288 
G01 X-54.3244 Y34.5225 
G01 X-54.2488 Y34.7050 
G01 X-54.1390 Y34.8693 
G01 X-53.9993 Y35.0090 
G01 X-53.8351 Y35.1188 
G01 X-53.6525 Y35.1944 
G01 X-53.4588 Y35.2329 
G01 X-53.2612 Y35.2329 
G01 X-53.0675 Y35.1944 
G01 X-52.8849 Y35.1188 
G01 X-52.7207 Y35.0090 
G00 Z2.0000  F3000
G00 X-55.2607 Y35.0090  F3000
G01 Z-0.2000 F200.00 
G01 X-55.1210 Y34.8693 F500.00 
G01 X-55.0112 Y34.7050 
G01 X-54.9356 Y34.5225 
G01 X-54.8971 Y34.3288 
G01 X-54.8971 Y34.1312 
G01 X-54.9356 Y33.9375 
G01 X-55.0112 Y33.7549 
G01 X-55.1210 Y33.5907 
G01 X-55.2607 Y33.4510 
G01 X-55.4249 Y33.3412 
G01 X-55.6075 Y33.2656 
G01 X-55.8012 Y33.2271 
G01 X-55.9988 Y33.2271 
G01 X-56.1925 Y33.2656 
G01 X-56.3751 Y33.3412 
G01 X-56.5393 Y33.4510 
G01 X-56.6790 Y33.5907 
G01 X-56.7888 Y33.7549 
G01 X-56.8644 Y33.9375 
G01 X-56.9029 Y34.1312 
G01 X-56.9029 Y34.3288 
G01 X-56.8644 Y34.5225 
G01 X-56.7888 Y34.7050 
G01 X-56.6790 Y34.8693 
G01 X-56.5393 Y35.0090 
G01 X-56.3751 Y35.1188 
G01 X-56.1925 Y35.1944 
G01 X-55.9988 Y35.2329 
G01 X-55.8012 Y35.2329 
G01 X-55.6075 Y35.1944 
G01 X-55.4249 Y35.1188 
G01 X-55.2607 Y35.0090 
G00 Z2.0000  F3000
G00 X-55.2607 Y35.9910  F3000
G01 Z-0.2000 F200.00 
G01 X-55.4249 Y35.8812 F500.00 
G01 X-55.6075 Y35.8056 
G01 X-55.8012 Y35.7671 
G01 X-55.9988 Y35.7671 
G01 X-56.1925 Y35.8056 
G01 X-56.3751 Y35.8812 
G01 X-56.5393 Y35.9910 
G01 X-56.6790 Y36.1307 
G01 X-56.7888 Y36.2949 
G01 X-56.8644 Y36.4775 
G01 X-56.9029 Y36.6712 
G01 X-56.9029 Y36.8688 
G01 X-56.8644 Y37.0625 
G01 X-56.7888 Y37.2450 
G01 X-56.6790 Y37.4093 
G01 X-56.5393 Y37.5490 
G01 X-56.3751 Y37.6588 
G01 X-56.1925 Y37.7344 
G01 X-55.9988 Y37.7729 
G01 X-55.8012 Y37.7729 
G01 X-55.6075 Y37.7344 
G01 X-55.4249 Y37.6588 
G01 X-55.2607 Y37.5490 
G01 X-55.1210 Y37.4093 
G01 X-55.0112 Y37.2450 
G01 X-54.9356 Y37.0625 
G01 X-54.8971 Y36.8688 
G01 X-54.8971 Y36.6712 
G01 X-54.9356 Y36.4775 
G01 X-55.0112 Y36.2949 
G01 X-55.1210 Y36.1307 
G01 X-55.2607 Y35.9910 
G00 Z2.0000  F3000
G00 X-57.6610 Y36.1307  F3000
G01 Z-0.2000 F200.00 
G01 X-57.8007 Y35.9910 F500.00 
G01 X-57.9649 Y35.8812 
G01 X-58.1475 Y35.8056 
G01 X-58.3412 Y35.7671 
G01 X-58.5388 Y35.7671 
G01 X-58.7325 Y35.8056 
G01 X-58.9151 Y35.8812 
G01 X-59.0793 Y35.9910 
G01 X-59.2190 Y36.1307 
G01 X-59.3288 Y36.2949 
G01 X-59.4044 Y36.4775 
G01 X-59.4429 Y36.6712 
G01 X-59.4429 Y36.8688 
G01 X-59.4044 Y37.0625 
G01 X-59.3288 Y37.2450 
G01 X-59.2190 Y37.4093 
G01 X-59.0793 Y37.5490 
G01 X-58.9151 Y37.6588 
G01 X-58.7325 Y37.7344 
G01 X-58.5388 Y37.7729 
G01 X-58.3412 Y37.7729 
G01 X-58.1475 Y37.7344 
G01 X-57.9649 Y37.6588 
G01 X-57.8007 Y37.5490 
G01 X-57.6610 Y37.4093 
G01 X-57.5512 Y37.2450 
G01 X-57.4756 Y37.0625 
G01 X-57.4371 Y36.8688 
G01 X-57.4371 Y36.6712 
G01 X-57.4756 Y36.4775 
G01 X-57.5512 Y36.2949 
G01 X-57.6610 Y36.1307 
G00 Z2.0000  F3000
G00 X-57.8007 Y35.0090  F3000
G01 Z-0.2000 F200.00 
G01 X-57.6610 Y34.8693 F500.00 
G01 X-57.5512 Y34.7050 
G01 X-57.4756 Y34.5225 
G01 X-57.4371 Y34.3288 
G01 X-57.4371 Y34.1312 
G01 X-57.4756 Y33.9375 
G01 X-57.5512 Y33.7549 
G01 X-57.6610 Y33.5907 
G01 X-57.8007 Y33.4510 
G01 X-57.9649 Y33.3412 
G01 X-58.1475 Y33.2656 
G01 X-58.3412 Y33.2271 
G01 X-58.5388 Y33.2271 
G01 X-58.7325 Y33.2656 
G01 X-58.9151 Y33.3412 
G01 X-59.0793 Y33.4510 
G01 X-59.2190 Y33.5907 
G01 X-59.3288 Y33.7549 
G01 X-59.4044 Y33.9375 
G01 X-59.4429 Y34.1312 
G01 X-59.4429 Y34.3288 
G01 X-59.4044 Y34.5225 
G01 X-59.3288 Y34.7050 
G01 X-59.2190 Y34.8693 
G01 X-59.0793 Y35.0090 
G01 X-58.9151 Y35.1188 
G01 X-58.7325 Y35.1944 
G01 X-58.5388 Y35.2329 
G01 X-58.3412 Y35.2329 
G01 X-58.1475 Y35.1944 
G01 X-57.9649 Y35.1188 
G01 X-57.8007 Y35.0090 
G00 Z2.0000  F3000
G00 X-60.1569 Y34.9330  F3000
G01 Z-0.2000 F200.00 
G01 X-60.0571 Y34.7956 F500.00 
G01 X-59.9800 Y34.6442 
G01 X-59.9275 Y34.4827 
G01 X-59.9009 Y34.3149 
G01 X-59.9009 Y29.4212 
G01 X-59.8809 Y29.2949 
G01 X-59.8809 Y29.1251 
G01 X-59.9075 Y28.9573 
G01 X-59.9600 Y28.7958 
G01 X-60.0371 Y28.6444 
G01 X-60.1369 Y28.5070 
G01 X-60.2570 Y28.3869 
G01 X-60.3381 Y28.3280 
G01 X-60.3381 Y26.6087 
G01 X-60.3620 Y26.4886 
G01 X-60.4089 Y26.3754 
G01 X-60.4769 Y26.2736 
G01 X-60.5636 Y26.1869 
G01 X-60.6654 Y26.1189 
G01 X-60.7786 Y26.0720 
G01 X-60.8987 Y26.0481 
G01 X-61.0213 Y26.0481 
G01 X-61.1148 Y26.0667 
G01 X-61.6503 Y25.5313 
G01 X-61.7226 Y25.4895 
G01 X-61.8032 Y25.4679 
G01 X-62.2361 Y25.4679 
G01 X-62.2361 Y25.1623 
G01 X-62.2534 Y25.1205 
G01 X-62.2855 Y25.0884 
G01 X-62.3273 Y25.0711 
G01 X-62.7227 Y25.0711 
G01 X-62.7645 Y25.0884 
G01 X-62.7966 Y25.1205 
G01 X-62.8139 Y25.1623 
G01 X-62.8139 Y25.6512 
G01 X-62.8205 Y25.6626 
G01 X-62.8421 Y25.7432 
G01 X-62.8421 Y25.8267 
G01 X-62.8205 Y25.9074 
G01 X-62.8139 Y25.9188 
G01 X-62.8139 Y26.4077 
G01 X-62.7966 Y26.4495 
G01 X-62.7645 Y26.4816 
G01 X-62.7227 Y26.4989 
G01 X-62.3273 Y26.4989 
G01 X-62.2855 Y26.4816 
G01 X-62.2534 Y26.4495 
G01 X-62.2361 Y26.4077 
G01 X-62.2361 Y26.1021 
G01 X-61.9763 Y26.1021 
G01 X-61.5633 Y26.5152 
G01 X-61.5819 Y26.6087 
G01 X-61.5819 Y28.3280 
G01 X-61.6630 Y28.3869 
G01 X-61.8031 Y28.5270 
G01 X-61.9029 Y28.6644 
G01 X-61.9800 Y28.8158 
G01 X-62.0325 Y28.9773 
G01 X-62.0591 Y29.1451 
G01 X-62.0591 Y34.3149 
G01 X-62.0325 Y34.4827 
G01 X-61.9800 Y34.6442 
G01 X-61.9029 Y34.7956 
G01 X-61.8031 Y34.9330 
G01 X-61.6830 Y35.0531 
G01 X-61.5456 Y35.1529 
G01 X-61.3942 Y35.2300 
G01 X-61.2327 Y35.2825 
G01 X-61.0649 Y35.3091 
G01 X-60.8951 Y35.3091 
G01 X-60.7273 Y35.2825 
G01 X-60.5658 Y35.2300 
G01 X-60.4144 Y35.1529 
G01 X-60.2770 Y35.0531 
G01 X-60.1569 Y34.9330 
G00 Z2.0000  F3000
G00 X-62.6969 Y34.9330  F3000
G01 Z-0.2000 F200.00 
G01 X-62.5971 Y34.7956 F500.00 
G01 X-62.5200 Y34.6442 
G01 X-62.4675 Y34.4827 
G01 X-62.4409 Y34.3149 
G01 X-62.4409 Y29.4212 
G01 X-62.4209 Y29.2949 
G01 X-62.4209 Y29.1251 
G01 X-62.4475 Y28.9573 
G01 X-62.5000 Y28.7958 
G01 X-62.5771 Y28.6444 
G01 X-62.6769 Y28.5070 
G01 X-62.7970 Y28.3869 
G01 X-62.8781 Y28.3280 
G01 X-62.8781 Y27.8787 
G01 X-62.8994 Y27.7718 
G01 X-62.8795 Y27.7374 
G01 X-62.8579 Y27.6567 
G01 X-62.8579 Y25.7432 
G01 X-62.8795 Y25.6626 
G01 X-62.8861 Y25.6512 
G01 X-62.8861 Y25.1623 
G01 X-62.9034 Y25.1205 
G01 X-62.9355 Y25.0884 
G01 X-62.9773 Y25.0711 
G01 X-63.3727 Y25.0711 
G01 X-63.4145 Y25.0884 
G01 X-63.4466 Y25.1205 
G01 X-63.4639 Y25.1623 
G01 X-63.4639 Y25.6512 
G01 X-63.4705 Y25.6626 
G01 X-63.4921 Y25.7432 
G01 X-63.4921 Y27.3181 
G01 X-63.5613 Y27.3181 
G01 X-63.6814 Y27.3420 
G01 X-63.7534 Y27.3718 
G01 X-63.5713 Y27.1897 
G01 X-63.5295 Y27.1174 
G01 X-63.5079 Y27.0367 
G01 X-63.5079 Y25.7432 
G01 X-63.5295 Y25.6626 
G01 X-63.5361 Y25.6512 
G01 X-63.5361 Y25.1623 
G01 X-63.5534 Y25.1205 
G01 X-63.5855 Y25.0884 
G01 X-63.6273 Y25.0711 
G01 X-64.0227 Y25.0711 
G01 X-64.0645 Y25.0884 
G01 X-64.0966 Y25.1205 
G01 X-64.1139 Y25.1623 
G01 X-64.1139 Y25.6512 
G01 X-64.1205 Y25.6626 
G01 X-64.1421 Y25.7432 
G01 X-64.1421 Y26.8636 
G01 X-64.6152 Y27.3367 
G01 X-64.7087 Y27.3181 
G01 X-64.8312 Y27.3181 
G01 X-64.9514 Y27.3420 
G01 X-65.0646 Y27.3889 
G01 X-65.1664 Y27.4569 
G01 X-65.8561 Y28.1466 
G01 X-65.9551 Y28.1309 
G01 X-66.1249 Y28.1309 
G01 X-66.2927 Y28.1575 
G01 X-66.4542 Y28.2100 
G01 X-66.6056 Y28.2871 
G01 X-66.7430 Y28.3869 
G01 X-66.8831 Y28.5270 
G01 X-66.9829 Y28.6644 
G01 X-67.0600 Y28.8158 
G01 X-67.1125 Y28.9773 
G01 X-67.1391 Y29.1451 
G01 X-67.1391 Y34.3149 
G01 X-67.1125 Y34.4827 
G01 X-67.0600 Y34.6442 
G01 X-66.9829 Y34.7956 
G01 X-66.8831 Y34.9330 
G01 X-66.7630 Y35.0531 
G01 X-66.6256 Y35.1529 
G01 X-66.4742 Y35.2300 
G01 X-66.3127 Y35.2825 
G01 X-66.1449 Y35.3091 
G01 X-65.9751 Y35.3091 
G01 X-65.8073 Y35.2825 
G01 X-65.6458 Y35.2300 
G01 X-65.4944 Y35.1529 
G01 X-65.3570 Y35.0531 
G01 X-65.2369 Y34.9330 
G01 X-65.1371 Y34.7956 
G01 X-65.0600 Y34.6442 
G01 X-65.0075 Y34.4827 
G01 X-64.9809 Y34.3149 
G01 X-64.9809 Y29.4212 
G01 X-64.9609 Y29.2949 
G01 X-64.9609 Y29.1251 
G01 X-64.9766 Y29.0261 
G01 X-64.2869 Y28.3364 
G01 X-64.2189 Y28.2346 
G01 X-64.1720 Y28.1214 
G01 X-64.1481 Y28.0012 
G01 X-64.1481 Y27.8787 
G01 X-64.1667 Y27.7852 
G01 X-64.0682 Y27.6866 
G01 X-64.0980 Y27.7586 
G01 X-64.1219 Y27.8787 
G01 X-64.1219 Y28.3280 
G01 X-64.2030 Y28.3869 
G01 X-64.3431 Y28.5270 
G01 X-64.4429 Y28.6644 
G01 X-64.5200 Y28.8158 
G01 X-64.5725 Y28.9773 
G01 X-64.5991 Y29.1451 
G01 X-64.5991 Y34.3149 
G01 X-64.5725 Y34.4827 
G01 X-64.5200 Y34.6442 
G01 X-64.4429 Y34.7956 
G01 X-64.3431 Y34.9330 
G01 X-64.2230 Y35.0531 
G01 X-64.0856 Y35.1529 
G01 X-63.9342 Y35.2300 
G01 X-63.7727 Y35.2825 
G01 X-63.6049 Y35.3091 
G01 X-63.4351 Y35.3091 
G01 X-63.2673 Y35.2825 
G01 X-63.1058 Y35.2300 
G01 X-62.9544 Y35.1529 
G01 X-62.8170 Y35.0531 
G01 X-62.6969 Y34.9330 
G00 Z2.0000  F3000
G00 X-62.7410 Y36.1307  F3000
G01 Z-0.2000 F200.00 
G01 X-62.8807 Y35.9910 F500.00 
G01 X-63.0449 Y35.8812 
G01 X-63.2275 Y35.8056 
G01 X-63.4212 Y35.7671 
G01 X-63.6188 Y35.7671 
G01 X-63.8125 Y35.8056 
G01 X-63.9950 Y35.8812 
G01 X-64.1593 Y35.9910 
G01 X-64.2990 Y36.1307 
G01 X-64.4088 Y36.2949 
G01 X-64.4844 Y36.4775 
G01 X-64.5229 Y36.6712 
G01 X-64.5229 Y36.8688 
G01 X-64.4844 Y37.0625 
G01 X-64.4088 Y37.2450 
G01 X-64.2990 Y37.4093 
G01 X-64.1593 Y37.5490 
G01 X-63.9950 Y37.6588 
G01 X-63.8125 Y37.7344 
G01 X-63.6188 Y37.7729 
G01 X-63.4212 Y37.7729 
G01 X-63.2275 Y37.7344 
G01 X-63.0449 Y37.6588 
G01 X-62.8807 Y37.5490 
G01 X-62.7410 Y37.4093 
G01 X-62.6312 Y37.2450 
G01 X-62.5556 Y37.0625 
G01 X-62.5171 Y36.8688 
G01 X-62.5171 Y36.6712 
G01 X-62.5556 Y36.4775 
G01 X-62.6312 Y36.2949 
G01 X-62.7410 Y36.1307 
G00 Z2.0000  F3000
G00 X-65.1371 Y36.2044  F3000
G01 Z-0.2000 F200.00 
G01 X-65.2369 Y36.0670 F500.00 
G01 X-65.3570 Y35.9469 
G01 X-65.4944 Y35.8471 
G01 X-65.6458 Y35.7700 
G01 X-65.8073 Y35.7175 
G01 X-65.9751 Y35.6909 
G01 X-66.1449 Y35.6909 
G01 X-66.3127 Y35.7175 
G01 X-66.4742 Y35.7700 
G01 X-66.6256 Y35.8471 
G01 X-66.7630 Y35.9469 
G01 X-66.8831 Y36.0670 
G01 X-66.9829 Y36.2044 
G01 X-67.0600 Y36.3558 
G01 X-67.1125 Y36.5173 
G01 X-67.1391 Y36.6851 
G01 X-67.1391 Y39.7983 
G01 X-67.2236 Y39.9147 
G01 X-67.3225 Y40.1088 
G01 X-67.3898 Y40.3159 
G01 X-67.4239 Y40.5311 
G01 X-67.4239 Y40.7489 
G01 X-67.3898 Y40.9641 
G01 X-67.3225 Y41.1712 
G01 X-67.2236 Y41.3653 
G01 X-67.0956 Y41.5415 
G01 X-66.9415 Y41.6956 
G01 X-66.7653 Y41.8236 
G01 X-66.5712 Y41.9225 
G01 X-66.3641 Y41.9898 
G01 X-66.1489 Y42.0239 
G01 X-65.9311 Y42.0239 
G01 X-65.7159 Y41.9898 
G01 X-65.5088 Y41.9225 
G01 X-65.3147 Y41.8236 
G01 X-65.1385 Y41.6956 
G01 X-64.9844 Y41.5415 
G01 X-64.8564 Y41.3653 
G01 X-64.7575 Y41.1712 
G01 X-64.6902 Y40.9641 
G01 X-64.6561 Y40.7489 
G01 X-64.6561 Y40.5311 
G01 X-64.6902 Y40.3159 
G01 X-64.7575 Y40.1088 
G01 X-64.8564 Y39.9147 
G01 X-64.9809 Y39.7433 
G01 X-64.9809 Y36.6851 
G01 X-65.0075 Y36.5173 
G01 X-65.0600 Y36.3558 
G01 X-65.1371 Y36.2044 
G00 Z2.0000  F3000
G00 X-67.7112 Y36.2949  F3000
G01 Z-0.2000 F200.00 
G01 X-67.8210 Y36.1307 F500.00 
G01 X-67.9607 Y35.9910 
G01 X-68.1249 Y35.8812 
G01 X-68.3075 Y35.8056 
G01 X-68.5012 Y35.7671 
G01 X-68.6988 Y35.7671 
G01 X-68.8925 Y35.8056 
G01 X-69.0751 Y35.8812 
G01 X-69.2393 Y35.9910 
G01 X-69.3790 Y36.1307 
G01 X-69.4888 Y36.2949 
G01 X-69.5644 Y36.4775 
G01 X-69.6029 Y36.6712 
G01 X-69.6029 Y36.8688 
G01 X-69.5644 Y37.0625 
G01 X-69.4888 Y37.2450 
G01 X-69.3790 Y37.4093 
G01 X-69.2393 Y37.5490 
G01 X-69.0751 Y37.6588 
G01 X-68.8925 Y37.7344 
G01 X-68.6988 Y37.7729 
G01 X-68.5012 Y37.7729 
G01 X-68.3075 Y37.7344 
G01 X-68.1249 Y37.6588 
G01 X-67.9607 Y37.5490 
G01 X-67.8210 Y37.4093 
G01 X-67.7112 Y37.2450 
G01 X-67.6356 Y37.0625 
G01 X-67.5971 Y36.8688 
G01 X-67.5971 Y36.6712 
G01 X-67.6356 Y36.4775 
G01 X-67.7112 Y36.2949 
G00 Z2.0000  F3000
G00 X-67.9607 Y35.0090  F3000
G01 Z-0.2000 F200.00 
G01 X-67.8210 Y34.8693 F500.00 
G01 X-67.7112 Y34.7050 
G01 X-67.6356 Y34.5225 
G01 X-67.5971 Y34.3288 
G01 X-67.5971 Y34.1312 
G01 X-67.6356 Y33.9375 
G01 X-67.7112 Y33.7549 
G01 X-67.8210 Y33.5907 
G01 X-67.9607 Y33.4510 
G01 X-68.1249 Y33.3412 
G01 X-68.1813 Y33.3179 
G01 X-68.1813 Y33.1928 
G01 X-68.1652 Y33.1835 
G01 X-68.1445 Y33.1755 
G01 X-68.1176 Y33.1560 
G01 X-68.0889 Y33.1394 
G01 X-68.0732 Y33.1238 
G01 X-68.0553 Y33.1107 
G01 X-68.0344 Y33.0849 
G01 X-68.0110 Y33.0615 
G01 X-67.9999 Y33.0423 
G01 X-67.9859 Y33.0250 
G01 X-67.9724 Y32.9947 
G01 X-67.9558 Y32.9660 
G01 X-67.9501 Y32.9446 
G01 X-67.9411 Y32.9243 
G01 X-67.9359 Y32.8916 
G01 X-67.9273 Y32.8595 
G01 X-67.9273 Y32.8373 
G01 X-67.9238 Y32.8154 
G01 X-67.9273 Y32.7824 
G01 X-67.9273 Y31.2781 
G01 X-67.9558 Y31.1716 
G01 X-68.0110 Y31.0762 
G01 X-68.0889 Y30.9982 
G01 X-68.1823 Y30.9443 
G01 X-68.1844 Y30.9431 
G01 X-68.2909 Y30.9146 
G01 X-68.4011 Y30.9146 
G01 X-68.5076 Y30.9431 
G01 X-68.6031 Y30.9982 
G01 X-69.0116 Y31.2341 
G01 X-69.5640 Y31.3821 
G01 X-70.1360 Y31.3821 
G01 X-70.6884 Y31.2341 
G01 X-71.1169 Y30.9867 
G01 X-71.2124 Y30.9315 
G01 X-71.3143 Y30.9042 
G01 X-71.3189 Y30.9030 
G01 X-71.4291 Y30.9030 
G01 X-71.5356 Y30.9315 
G01 X-71.6311 Y30.9867 
G01 X-71.7090 Y31.0646 
G01 X-71.7103 Y31.0667 
G01 X-71.7642 Y31.1601 
G01 X-71.7915 Y31.2621 
G01 X-71.7927 Y31.2666 
G01 X-71.7927 Y32.0753 
G01 X-71.7642 Y32.1818 
G01 X-71.7090 Y32.2773 
G01 X-71.6311 Y32.3552 
G01 X-71.5356 Y32.4104 
G01 X-71.4291 Y32.4389 
G01 X-70.7837 Y32.4389 
G01 X-70.1254 Y32.7116 
G01 X-69.5926 Y33.2444 
G01 X-69.5631 Y33.2772 
G01 X-69.5537 Y33.2832 
G01 X-69.5459 Y33.2911 
G01 X-69.5076 Y33.3132 
G01 X-69.4706 Y33.3372 
G01 X-69.4600 Y33.3407 
G01 X-69.4504 Y33.3462 
G01 X-69.4077 Y33.3577 
G01 X-69.3658 Y33.3713 
G01 X-69.3547 Y33.3719 
G01 X-69.3439 Y33.3748 
G01 X-69.2997 Y33.3748 
G01 X-69.2557 Y33.3771 
G01 X-69.2448 Y33.3748 
G01 X-69.2337 Y33.3748 
G01 X-69.1910 Y33.3633 
G01 X-69.1478 Y33.3541 
G01 X-69.1379 Y33.3491 
G01 X-69.1272 Y33.3462 
G01 X-69.0889 Y33.3241 
G01 X-69.0187 Y33.2884 
G01 X-69.0187 Y33.3179 
G01 X-69.0751 Y33.3412 
G01 X-69.2393 Y33.4510 
G01 X-69.3790 Y33.5907 
G01 X-69.4888 Y33.7549 
G01 X-69.5644 Y33.9375 
G01 X-69.6029 Y34.1312 
G01 X-69.6029 Y34.3288 
G01 X-69.5644 Y34.5225 
G01 X-69.4888 Y34.7050 
G01 X-69.3790 Y34.8693 
G01 X-69.2393 Y35.0090 
G01 X-69.0751 Y35.1188 
G01 X-68.8925 Y35.1944 
G01 X-68.6988 Y35.2329 
G01 X-68.5012 Y35.2329 
G01 X-68.3075 Y35.1944 
G01 X-68.1249 Y35.1188 
G01 X-67.9607 Y35.0090 
G00 Z2.0000  F3000
G00 X-70.5007 Y35.0090  F3000
G01 Z-0.2000 F200.00 
G01 X-70.3610 Y34.8693 F500.00 
G01 X-70.2512 Y34.7050 
G01 X-70.1756 Y34.5225 
G01 X-70.1371 Y34.3288 
G01 X-70.1371 Y34.1312 
G01 X-70.1756 Y33.9375 
G01 X-70.2512 Y33.7549 
G01 X-70.3610 Y33.5907 
G01 X-70.5007 Y33.4510 
G01 X-70.6649 Y33.3412 
G01 X-70.8475 Y33.2656 
G01 X-71.0412 Y33.2271 
G01 X-71.2388 Y33.2271 
G01 X-71.4325 Y33.2656 
G01 X-71.6150 Y33.3412 
G01 X-71.7793 Y33.4510 
G01 X-71.9190 Y33.5907 
G01 X-72.0288 Y33.7549 
G01 X-72.1044 Y33.9375 
G01 X-72.1429 Y34.1312 
G01 X-72.1429 Y34.3288 
G01 X-72.1044 Y34.5225 
G01 X-72.0288 Y34.7050 
G01 X-71.9190 Y34.8693 
G01 X-71.7793 Y35.0090 
G01 X-71.6150 Y35.1188 
G01 X-71.4325 Y35.1944 
G01 X-71.2388 Y35.2329 
G01 X-71.0412 Y35.2329 
G01 X-70.8475 Y35.1944 
G01 X-70.6649 Y35.1188 
G01 X-70.5007 Y35.0090 
G00 Z2.0000  F3000
G00 X-70.5007 Y35.9910  F3000
G01 Z-0.2000 F200.00 
G01 X-70.6649 Y35.8812 F500.00 
G01 X-70.8475 Y35.8056 
G01 X-71.0412 Y35.7671 
G01 X-71.2388 Y35.7671 
G01 X-71.4325 Y35.8056 
G01 X-71.6150 Y35.8812 
G01 X-71.7793 Y35.9910 
G01 X-71.9190 Y36.1307 
G01 X-72.0288 Y36.2949 
G01 X-72.1044 Y36.4775 
G01 X-72.1429 Y36.6712 
G01 X-72.1429 Y36.8688 
G01 X-72.1044 Y37.0625 
G01 X-72.0288 Y37.2450 
G01 X-71.9190 Y37.4093 
G01 X-71.7793 Y37.5490 
G01 X-71.6150 Y37.6588 
G01 X-71.4325 Y37.7344 
G01 X-71.2388 Y37.7729 
G01 X-71.0412 Y37.7729 
G01 X-70.8475 Y37.7344 
G01 X-70.6649 Y37.6588 
G01 X-70.5007 Y37.5490 
G01 X-70.3610 Y37.4093 
G01 X-70.2512 Y37.2450 
G01 X-70.1756 Y37.0625 
G01 X-70.1371 Y36.8688 
G01 X-70.1371 Y36.6712 
G01 X-70.1756 Y36.4775 
G01 X-70.2512 Y36.2949 
G01 X-70.3610 Y36.1307 
G01 X-70.5007 Y35.9910 
G00 Z2.0000  F3000
G00 X-72.9770 Y35.0531  F3000
G01 Z-0.2000 F200.00 
G01 X-72.8369 Y34.9130 F500.00 
G01 X-72.7371 Y34.7756 
G01 X-72.6600 Y34.6242 
G01 X-72.6075 Y34.4627 
G01 X-72.5809 Y34.2949 
G01 X-72.5809 Y21.5051 
G01 X-72.6075 Y21.3373 
G01 X-72.6600 Y21.1758 
G01 X-72.7371 Y21.0244 
G01 X-72.8369 Y20.8870 
G01 X-72.9570 Y20.7669 
G01 X-74.2270 Y19.4969 
G01 X-74.3644 Y19.3971 
G01 X-74.5158 Y19.3200 
G01 X-74.6773 Y19.2675 
G01 X-74.8451 Y19.2409 
G01 X-97.8749 Y19.2409 
G01 X-98.0427 Y19.2675 
G01 X-98.2042 Y19.3200 
G01 X-98.3556 Y19.3971 
G01 X-98.4203 Y19.4441 
G01 X-98.6383 Y19.4441 
G01 X-98.8075 Y19.4778 
G01 X-98.9669 Y19.5438 
G01 X-99.1104 Y19.6396 
G01 X-99.2324 Y19.7616 
G01 X-99.3282 Y19.9051 
G01 X-99.3942 Y20.0645 
G01 X-99.4279 Y20.2337 
G01 X-99.4279 Y20.4063 
G01 X-99.3942 Y20.5755 
G01 X-99.3282 Y20.7349 
G01 X-99.2324 Y20.8784 
G01 X-99.1104 Y21.0004 
G01 X-98.9669 Y21.0962 
G01 X-98.8075 Y21.1622 
G01 X-98.6383 Y21.1959 
G01 X-98.4203 Y21.1959 
G01 X-98.3556 Y21.2429 
G01 X-98.2042 Y21.3200 
G01 X-98.0427 Y21.3725 
G01 X-97.8749 Y21.3991 
G01 X-75.3770 Y21.3991 
G01 X-74.7391 Y22.0370 
G01 X-74.7391 Y34.0188 
G01 X-74.7591 Y34.1451 
G01 X-74.7591 Y34.3149 
G01 X-74.7325 Y34.4827 
G01 X-74.6800 Y34.6442 
G01 X-74.6029 Y34.7956 
G01 X-74.5031 Y34.9330 
G01 X-74.3830 Y35.0531 
G01 X-74.2456 Y35.1529 
G01 X-74.0942 Y35.2300 
G01 X-73.9327 Y35.2825 
G01 X-73.7649 Y35.3091 
G01 X-73.5951 Y35.3091 
G01 X-73.4273 Y35.2825 
G01 X-73.2658 Y35.2300 
G01 X-73.1144 Y35.1529 
G01 X-72.9770 Y35.0531 
G00 Z2.0000  F3000
G00 X-75.5170 Y35.0531  F3000
G01 Z-0.2000 F200.00 
G01 X-75.3769 Y34.9130 F500.00 
G01 X-75.2771 Y34.7756 
G01 X-75.2000 Y34.6242 
G01 X-75.1475 Y34.4627 
G01 X-75.1209 Y34.2949 
G01 X-75.1209 Y24.0451 
G01 X-75.1475 Y23.8773 
G01 X-75.2000 Y23.7158 
G01 X-75.2771 Y23.5644 
G01 X-75.3769 Y23.4270 
G01 X-75.4970 Y23.3069 
G01 X-76.7670 Y22.0369 
G01 X-76.9044 Y21.9371 
G01 X-77.0558 Y21.8600 
G01 X-77.2173 Y21.8075 
G01 X-77.3851 Y21.7809 
G01 X-97.8749 Y21.7809 
G01 X-98.0427 Y21.8075 
G01 X-98.2042 Y21.8600 
G01 X-98.3556 Y21.9371 
G01 X-98.4203 Y21.9841 
G01 X-98.6383 Y21.9841 
G01 X-98.8075 Y22.0178 
G01 X-98.9669 Y22.0838 
G01 X-99.1104 Y22.1796 
G01 X-99.2324 Y22.3016 
G01 X-99.3282 Y22.4451 
G01 X-99.3942 Y22.6045 
G01 X-99.4279 Y22.7737 
G01 X-99.4279 Y22.9463 
G01 X-99.3942 Y23.1155 
G01 X-99.3282 Y23.2749 
G01 X-99.2324 Y23.4184 
G01 X-99.1104 Y23.5404 
G01 X-98.9669 Y23.6362 
G01 X-98.8075 Y23.7022 
G01 X-98.6383 Y23.7359 
G01 X-98.4203 Y23.7359 
G01 X-98.3556 Y23.7829 
G01 X-98.2042 Y23.8600 
G01 X-98.0427 Y23.9125 
G01 X-97.8749 Y23.9391 
G01 X-77.9170 Y23.9391 
G01 X-77.2791 Y24.5770 
G01 X-77.2791 Y34.0188 
G01 X-77.2991 Y34.1451 
G01 X-77.2991 Y34.3149 
G01 X-77.2725 Y34.4827 
G01 X-77.2200 Y34.6442 
G01 X-77.1429 Y34.7956 
G01 X-77.0431 Y34.9330 
G01 X-76.9230 Y35.0531 
G01 X-76.7856 Y35.1529 
G01 X-76.6342 Y35.2300 
G01 X-76.4727 Y35.2825 
G01 X-76.3049 Y35.3091 
G01 X-76.1351 Y35.3091 
G01 X-75.9673 Y35.2825 
G01 X-75.8058 Y35.2300 
G01 X-75.6544 Y35.1529 
G01 X-75.5170 Y35.0531 
G00 Z2.0000  F3000
G00 X-75.5807 Y35.9910  F3000
G01 Z-0.2000 F200.00 
G01 X-75.7449 Y35.8812 F500.00 
G01 X-75.9275 Y35.8056 
G01 X-76.1212 Y35.7671 
G01 X-76.3188 Y35.7671 
G01 X-76.5125 Y35.8056 
G01 X-76.6950 Y35.8812 
G01 X-76.8593 Y35.9910 
G01 X-76.9990 Y36.1307 
G01 X-77.1088 Y36.2949 
G01 X-77.1844 Y36.4775 
G01 X-77.2229 Y36.6712 
G01 X-77.2229 Y36.8688 
G01 X-77.1844 Y37.0625 
G01 X-77.1088 Y37.2450 
G01 X-76.9990 Y37.4093 
G01 X-76.8593 Y37.5490 
G01 X-76.6950 Y37.6588 
G01 X-76.5125 Y37.7344 
G01 X-76.3188 Y37.7729 
G01 X-76.1212 Y37.7729 
G01 X-75.9275 Y37.7344 
G01 X-75.7449 Y37.6588 
G01 X-75.5807 Y37.5490 
G01 X-75.4410 Y37.4093 
G01 X-75.3312 Y37.2450 
G01 X-75.2556 Y37.0625 
G01 X-75.2171 Y36.8688 
G01 X-75.2171 Y36.6712 
G01 X-75.2556 Y36.4775 
G01 X-75.3312 Y36.2949 
G01 X-75.4410 Y36.1307 
G01 X-75.5807 Y35.9910 
G00 Z2.0000  F3000
G00 X-78.0570 Y35.0531  F3000
G01 Z-0.2000 F200.00 
G01 X-77.9169 Y34.9130 F500.00 
G01 X-77.8171 Y34.7756 
G01 X-77.7400 Y34.6242 
G01 X-77.6875 Y34.4627 
G01 X-77.6609 Y34.2949 
G01 X-77.6609 Y26.5851 
G01 X-77.6875 Y26.4173 
G01 X-77.7400 Y26.2558 
G01 X-77.8171 Y26.1044 
G01 X-77.9169 Y25.9670 
G01 X-78.0370 Y25.8469 
G01 X-79.3070 Y24.5769 
G01 X-79.4444 Y24.4771 
G01 X-79.5958 Y24.4000 
G01 X-79.7573 Y24.3475 
G01 X-79.9251 Y24.3209 
G01 X-97.8749 Y24.3209 
G01 X-98.0427 Y24.3475 
G01 X-98.2042 Y24.4000 
G01 X-98.3556 Y24.4771 
G01 X-98.4203 Y24.5241 
G01 X-98.6383 Y24.5241 
G01 X-98.8075 Y24.5578 
G01 X-98.9669 Y24.6238 
G01 X-99.1104 Y24.7196 
G01 X-99.2324 Y24.8416 
G01 X-99.3282 Y24.9851 
G01 X-99.3942 Y25.1445 
G01 X-99.4279 Y25.3137 
G01 X-99.4279 Y25.4863 
G01 X-99.3942 Y25.6555 
G01 X-99.3282 Y25.8149 
G01 X-99.2324 Y25.9584 
G01 X-99.1104 Y26.0804 
G01 X-98.9669 Y26.1762 
G01 X-98.8075 Y26.2422 
G01 X-98.6383 Y26.2759 
G01 X-98.4203 Y26.2759 
G01 X-98.3556 Y26.3229 
G01 X-98.2042 Y26.4000 
G01 X-98.0427 Y26.4525 
G01 X-97.8749 Y26.4791 
G01 X-80.4570 Y26.4791 
G01 X-79.8191 Y27.1170 
G01 X-79.8191 Y34.0188 
G01 X-79.8391 Y34.1451 
G01 X-79.8391 Y34.3149 
G01 X-79.8125 Y34.4827 
G01 X-79.7600 Y34.6442 
G01 X-79.6829 Y34.7956 
G01 X-79.5831 Y34.9330 
G01 X-79.4630 Y35.0531 
G01 X-79.3256 Y35.1529 
G01 X-79.1742 Y35.2300 
G01 X-79.0127 Y35.2825 
G01 X-78.8449 Y35.3091 
G01 X-78.6751 Y35.3091 
G01 X-78.5073 Y35.2825 
G01 X-78.3458 Y35.2300 
G01 X-78.1944 Y35.1529 
G01 X-78.0570 Y35.0531 
G00 Z2.0000  F3000
G00 X-80.5970 Y35.0531  F3000
G01 Z-0.2000 F200.00 
G01 X-80.4569 Y34.9130 F500.00 
G01 X-80.3571 Y34.7756 
G01 X-80.2800 Y34.6242 
G01 X-80.2275 Y34.4627 
G01 X-80.2009 Y34.2949 
G01 X-80.2009 Y29.1251 
G01 X-80.2275 Y28.9573 
G01 X-80.2800 Y28.7958 
G01 X-80.3571 Y28.6444 
G01 X-80.4569 Y28.5070 
G01 X-80.5770 Y28.3869 
G01 X-81.8470 Y27.1169 
G01 X-81.9844 Y27.0171 
G01 X-82.1358 Y26.9400 
G01 X-82.2973 Y26.8875 
G01 X-82.4651 Y26.8609 
G01 X-82.6349 Y26.8609 
G01 X-82.8027 Y26.8875 
G01 X-82.9642 Y26.9400 
G01 X-83.1156 Y27.0171 
G01 X-83.2530 Y27.1169 
G01 X-83.3272 Y27.1911 
G01 X-93.2028 Y27.1911 
G01 X-93.2770 Y27.1169 
G01 X-93.4144 Y27.0171 
G01 X-93.5658 Y26.9400 
G01 X-93.7273 Y26.8875 
G01 X-93.8951 Y26.8609 
G01 X-97.8749 Y26.8609 
G01 X-98.0427 Y26.8875 
G01 X-98.2042 Y26.9400 
G01 X-98.3556 Y27.0171 
G01 X-98.4203 Y27.0641 
G01 X-98.6383 Y27.0641 
G01 X-98.8075 Y27.0978 
G01 X-98.9669 Y27.1638 
G01 X-99.1104 Y27.2596 
G01 X-99.2324 Y27.3816 
G01 X-99.3282 Y27.5251 
G01 X-99.3942 Y27.6845 
G01 X-99.4279 Y27.8537 
G01 X-99.4279 Y28.0263 
G01 X-99.3942 Y28.1955 
G01 X-99.3282 Y28.3549 
G01 X-99.2324 Y28.4984 
G01 X-99.1104 Y28.6204 
G01 X-98.9669 Y28.7162 
G01 X-98.8075 Y28.7822 
G01 X-98.6383 Y28.8159 
G01 X-98.4203 Y28.8159 
G01 X-98.3556 Y28.8629 
G01 X-98.2042 Y28.9400 
G01 X-98.0427 Y28.9925 
G01 X-97.8749 Y29.0191 
G01 X-93.8951 Y29.0191 
G01 X-93.7273 Y28.9925 
G01 X-93.5658 Y28.9400 
G01 X-93.4144 Y28.8629 
G01 X-93.2770 Y28.7631 
G01 X-93.2028 Y28.6889 
G01 X-83.3272 Y28.6889 
G01 X-82.3591 Y29.6570 
G01 X-82.3591 Y34.0188 
G01 X-82.3791 Y34.1451 
G01 X-82.3791 Y34.3149 
G01 X-82.3525 Y34.4827 
G01 X-82.3000 Y34.6442 
G01 X-82.2229 Y34.7956 
G01 X-82.1231 Y34.9330 
G01 X-82.0030 Y35.0531 
G01 X-81.8656 Y35.1529 
G01 X-81.7142 Y35.2300 
G01 X-81.5527 Y35.2825 
G01 X-81.3849 Y35.3091 
G01 X-81.2151 Y35.3091 
G01 X-81.0473 Y35.2825 
G01 X-80.8858 Y35.2300 
G01 X-80.7344 Y35.1529 
G01 X-80.5970 Y35.0531 
G00 Z2.0000  F3000
G00 X-80.6607 Y35.9910  F3000
G01 Z-0.2000 F200.00 
G01 X-80.8249 Y35.8812 F500.00 
G01 X-81.0075 Y35.8056 
G01 X-81.2012 Y35.7671 
G01 X-81.3988 Y35.7671 
G01 X-81.5925 Y35.8056 
G01 X-81.7750 Y35.8812 
G01 X-81.9393 Y35.9910 
G01 X-82.0790 Y36.1307 
G01 X-82.1888 Y36.2949 
G01 X-82.2644 Y36.4775 
G01 X-82.3029 Y36.6712 
G01 X-82.3029 Y36.8688 
G01 X-82.2644 Y37.0625 
G01 X-82.1888 Y37.2450 
G01 X-82.0790 Y37.4093 
G01 X-81.9393 Y37.5490 
G01 X-81.7750 Y37.6588 
G01 X-81.5925 Y37.7344 
G01 X-81.3988 Y37.7729 
G01 X-81.2012 Y37.7729 
G01 X-81.0075 Y37.7344 
G01 X-80.8249 Y37.6588 
G01 X-80.6607 Y37.5490 
G01 X-80.5210 Y37.4093 
G01 X-80.4112 Y37.2450 
G01 X-80.3356 Y37.0625 
G01 X-80.2971 Y36.8688 
G01 X-80.2971 Y36.6712 
G01 X-80.3356 Y36.4775 
G01 X-80.4112 Y36.2949 
G01 X-80.5210 Y36.1307 
G01 X-80.6607 Y35.9910 
G00 Z2.0000  F3000
G00 X-83.0610 Y36.1307  F3000
G01 Z-0.2000 F200.00 
G01 X-83.2007 Y35.9910 F500.00 
G01 X-83.3649 Y35.8812 
G01 X-83.5475 Y35.8056 
G01 X-83.7412 Y35.7671 
G01 X-83.9388 Y35.7671 
G01 X-84.1325 Y35.8056 
G01 X-84.3150 Y35.8812 
G01 X-84.4793 Y35.9910 
G01 X-84.6190 Y36.1307 
G01 X-84.7288 Y36.2949 
G01 X-84.8044 Y36.4775 
G01 X-84.8429 Y36.6712 
G01 X-84.8429 Y36.8688 
G01 X-84.8044 Y37.0625 
G01 X-84.7288 Y37.2450 
G01 X-84.6190 Y37.4093 
G01 X-84.4793 Y37.5490 
G01 X-84.3150 Y37.6588 
G01 X-84.1325 Y37.7344 
G01 X-83.9388 Y37.7729 
G01 X-83.7412 Y37.7729 
G01 X-83.5475 Y37.7344 
G01 X-83.3649 Y37.6588 
G01 X-83.2007 Y37.5490 
G01 X-83.0610 Y37.4093 
G01 X-82.9512 Y37.2450 
G01 X-82.8756 Y37.0625 
G01 X-82.8371 Y36.8688 
G01 X-82.8371 Y36.6712 
G01 X-82.8756 Y36.4775 
G01 X-82.9512 Y36.2949 
G01 X-83.0610 Y36.1307 
G00 Z2.0000  F3000
G00 X-83.1370 Y35.0531  F3000
G01 Z-0.2000 F200.00 
G01 X-83.0169 Y34.9330 F500.00 
G01 X-82.9171 Y34.7956 
G01 X-82.8400 Y34.6442 
G01 X-82.7875 Y34.4827 
G01 X-82.7609 Y34.3149 
G01 X-82.7609 Y33.2312 
G01 X-82.7409 Y33.1049 
G01 X-82.7409 Y32.9351 
G01 X-82.7675 Y32.7673 
G01 X-82.8200 Y32.6058 
G01 X-82.8971 Y32.4544 
G01 X-82.9969 Y32.3170 
G01 X-83.0711 Y32.2428 
G01 X-83.0711 Y30.7262 
G01 X-83.0999 Y30.5816 
G01 X-83.1563 Y30.4453 
G01 X-83.2383 Y30.3226 
G01 X-83.3761 Y30.1848 
G01 X-83.3761 Y29.7073 
G01 X-83.3934 Y29.6655 
G01 X-83.4255 Y29.6334 
G01 X-83.4673 Y29.6161 
G01 X-84.8127 Y29.6161 
G01 X-84.8545 Y29.6334 
G01 X-84.8866 Y29.6655 
G01 X-84.9039 Y29.7073 
G01 X-84.9039 Y31.2527 
G01 X-84.8866 Y31.2945 
G01 X-84.8545 Y31.3266 
G01 X-84.8127 Y31.3439 
G01 X-84.5689 Y31.3439 
G01 X-84.5689 Y32.2428 
G01 X-84.6631 Y32.3370 
G01 X-84.7629 Y32.4744 
G01 X-84.8400 Y32.6258 
G01 X-84.8925 Y32.7873 
G01 X-84.9191 Y32.9551 
G01 X-84.9191 Y34.3149 
G01 X-84.8925 Y34.4827 
G01 X-84.8400 Y34.6442 
G01 X-84.7629 Y34.7956 
G01 X-84.6631 Y34.9330 
G01 X-84.5430 Y35.0531 
G01 X-84.4056 Y35.1529 
G01 X-84.2542 Y35.2300 
G01 X-84.0927 Y35.2825 
G01 X-83.9249 Y35.3091 
G01 X-83.7551 Y35.3091 
G01 X-83.5873 Y35.2825 
G01 X-83.4258 Y35.2300 
G01 X-83.2744 Y35.1529 
G01 X-83.1370 Y35.0531 
G00 Z2.0000  F3000
G00 X-85.6010 Y36.1307  F3000
G01 Z-0.2000 F200.00 
G01 X-85.7407 Y35.9910 F500.00 
G01 X-85.9049 Y35.8812 
G01 X-86.0875 Y35.8056 
G01 X-86.2812 Y35.7671 
G01 X-86.4788 Y35.7671 
G01 X-86.6725 Y35.8056 
G01 X-86.8551 Y35.8812 
G01 X-87.0193 Y35.9910 
G01 X-87.1590 Y36.1307 
G01 X-87.2688 Y36.2949 
G01 X-87.3444 Y36.4775 
G01 X-87.3829 Y36.6712 
G01 X-87.3829 Y36.8688 
G01 X-87.3444 Y37.0625 
G01 X-87.2688 Y37.2450 
G01 X-87.1590 Y37.4093 
G01 X-87.0193 Y37.5490 
G01 X-86.8551 Y37.6588 
G01 X-86.6725 Y37.7344 
G01 X-86.4788 Y37.7729 
G01 X-86.2812 Y37.7729 
G01 X-86.0875 Y37.7344 
G01 X-85.9049 Y37.6588 
G01 X-85.7407 Y37.5490 
G01 X-85.6010 Y37.4093 
G01 X-85.4912 Y37.2450 
G01 X-85.4156 Y37.0625 
G01 X-85.3771 Y36.8688 
G01 X-85.3771 Y36.6712 
G01 X-85.4156 Y36.4775 
G01 X-85.4912 Y36.2949 
G01 X-85.6010 Y36.1307 
G00 Z2.0000  F3000
G00 X-86.7987 Y33.3179  F3000
G01 Z-0.2000 F200.00 
G01 X-86.8551 Y33.3412 F500.00 
G01 X-87.0193 Y33.4510 
G01 X-87.1590 Y33.5907 
G01 X-87.2688 Y33.7549 
G01 X-87.2921 Y33.8113 
G01 X-87.3216 Y33.8113 
G01 X-87.2602 Y33.6906 
G01 X-87.1649 Y33.5596 
G01 X-87.0504 Y33.4451 
G01 X-86.9194 Y33.3498 
G01 X-86.7987 Y33.2884 
G01 X-86.7987 Y33.3179 
G00 Z2.0000  F3000
G00 X-86.6062 Y31.5489  F3000
G01 Z-0.2000 F200.00 
G01 X-86.4616 Y31.5201 F500.00 
G01 X-86.3253 Y31.4637 
G01 X-86.2026 Y31.3817 
G01 X-86.1648 Y31.3439 
G01 X-85.3673 Y31.3439 
G01 X-85.3255 Y31.3266 
G01 X-85.2934 Y31.2945 
G01 X-85.2761 Y31.2527 
G01 X-85.2761 Y29.7073 
G01 X-85.2934 Y29.6655 
G01 X-85.3255 Y29.6334 
G01 X-85.3673 Y29.6161 
G01 X-86.7127 Y29.6161 
G01 X-86.7545 Y29.6334 
G01 X-86.7866 Y29.6655 
G01 X-86.8039 Y29.7073 
G01 X-86.8039 Y29.8759 
G01 X-86.8374 Y29.8983 
G01 X-86.9417 Y30.0026 
G01 X-86.9902 Y30.0511 
G01 X-89.1438 Y30.0511 
G01 X-89.2884 Y30.0799 
G01 X-89.4247 Y30.1363 
G01 X-89.4992 Y30.1861 
G01 X-89.7927 Y30.1861 
G01 X-89.8345 Y30.2034 
G01 X-89.8666 Y30.2355 
G01 X-89.8839 Y30.2773 
G01 X-89.8839 Y31.3227 
G01 X-89.8666 Y31.3645 
G01 X-89.8345 Y31.3966 
G01 X-89.7927 Y31.4139 
G01 X-89.4992 Y31.4139 
G01 X-89.4247 Y31.4637 
G01 X-89.2884 Y31.5201 
G01 X-89.1438 Y31.5489 
G01 X-86.6062 Y31.5489 
G00 Z2.0000  F3000
G00 X-90.4561 Y31.2273  F3000
G01 Z-0.2000 F200.00 
G01 X-90.4734 Y31.1855 F500.00 
G01 X-90.5055 Y31.1534 
G01 X-90.5473 Y31.1361 
G01 X-90.8408 Y31.1361 
G01 X-90.9153 Y31.0863 
G01 X-91.0516 Y31.0299 
G01 X-91.1133 Y31.0176 
G01 X-91.6309 Y30.5000 
G01 X-91.6309 Y30.3951 
G01 X-91.6575 Y30.2273 
G01 X-91.7100 Y30.0658 
G01 X-91.7871 Y29.9144 
G01 X-91.8869 Y29.7770 
G01 X-92.0070 Y29.6569 
G01 X-92.1444 Y29.5571 
G01 X-92.2958 Y29.4800 
G01 X-92.4573 Y29.4275 
G01 X-92.6251 Y29.4009 
G01 X-97.8749 Y29.4009 
G01 X-98.0427 Y29.4275 
G01 X-98.2042 Y29.4800 
G01 X-98.3556 Y29.5571 
G01 X-98.4203 Y29.6041 
G01 X-98.6383 Y29.6041 
G01 X-98.8075 Y29.6378 
G01 X-98.9669 Y29.7038 
G01 X-99.1104 Y29.7996 
G01 X-99.2324 Y29.9216 
G01 X-99.3282 Y30.0651 
G01 X-99.3942 Y30.2245 
G01 X-99.4279 Y30.3937 
G01 X-99.4279 Y30.5663 
G01 X-99.3942 Y30.7355 
G01 X-99.3282 Y30.8949 
G01 X-99.2324 Y31.0384 
G01 X-99.1104 Y31.1604 
G01 X-98.9669 Y31.2562 
G01 X-98.8075 Y31.3222 
G01 X-98.6383 Y31.3559 
G01 X-98.4203 Y31.3559 
G01 X-98.3556 Y31.4029 
G01 X-98.2042 Y31.4800 
G01 X-98.0427 Y31.5325 
G01 X-97.8749 Y31.5591 
G01 X-92.6900 Y31.5591 
G01 X-92.0839 Y32.1652 
G01 X-92.0839 Y32.2727 
G01 X-92.0666 Y32.3145 
G01 X-92.0345 Y32.3466 
G01 X-91.9927 Y32.3639 
G01 X-91.8692 Y32.3639 
G01 X-91.7947 Y32.4137 
G01 X-91.6584 Y32.4701 
G01 X-91.5138 Y32.4989 
G01 X-91.1962 Y32.4989 
G01 X-91.0516 Y32.4701 
G01 X-90.9153 Y32.4137 
G01 X-90.8408 Y32.3639 
G01 X-90.5473 Y32.3639 
G01 X-90.5055 Y32.3466 
G01 X-90.4734 Y32.3145 
G01 X-90.4561 Y32.2727 
G01 X-90.4561 Y31.2273 
G00 Z2.0000  F3000
G00 X-96.2289 Y33.4387  F3000
G01 Z-0.2000 F200.00 
G01 X-96.2564 Y33.4928 F500.00 
G01 X-96.3399 Y33.6077 
G01 X-96.4403 Y33.7081 
G01 X-96.5552 Y33.7915 
G01 X-96.6817 Y33.8560 
G01 X-96.8168 Y33.8999 
G01 X-96.9570 Y33.9221 
G01 X-97.3713 Y33.9221 
G01 X-97.3713 Y33.8959 
G01 X-96.9417 Y33.8959 
G01 X-96.7725 Y33.8622 
G01 X-96.6131 Y33.7962 
G01 X-96.4696 Y33.7004 
G01 X-96.3476 Y33.5784 
G01 X-96.2543 Y33.4387 
G01 X-96.2289 Y33.4387 
G00 Z2.0000  F3000
G00 X-98.2087 Y33.8959  F3000
G01 Z-0.2000 F200.00 
G01 X-98.2087 Y33.9221 F500.00 
G01 X-98.6230 Y33.9221 
G01 X-98.7632 Y33.8999 
G01 X-98.8983 Y33.8560 
G01 X-99.0248 Y33.7915 
G01 X-99.1397 Y33.7081 
G01 X-99.2401 Y33.6077 
G01 X-99.3235 Y33.4928 
G01 X-99.3511 Y33.4387 
G01 X-99.3257 Y33.4387 
G01 X-99.2324 Y33.5784 
G01 X-99.1104 Y33.7004 
G01 X-98.9669 Y33.7962 
G01 X-98.8075 Y33.8622 
G01 X-98.6383 Y33.8959 
G01 X-98.2087 Y33.8959 
G00 Z2.0000  F3000
G00 X-98.2042 Y18.7800  F3000
G01 Z-0.2000 F200.00 
G01 X-98.0427 Y18.8325 F500.00 
G01 X-97.8749 Y18.8591 
G01 X-74.8451 Y18.8591 
G01 X-74.6773 Y18.8325 
G01 X-74.5158 Y18.7800 
G01 X-74.3644 Y18.7029 
G01 X-74.2270 Y18.6031 
G01 X-73.2130 Y17.5891 
G01 X-67.2251 Y17.5891 
G01 X-67.0573 Y17.5625 
G01 X-66.9496 Y17.5275 
G01 X-65.0389 Y18.4828 
G01 X-64.8967 Y18.5218 
G01 X-64.7495 Y18.5322 
G01 X-64.6031 Y18.5138 
G01 X-64.5143 Y18.4842 
G01 X-64.1421 Y18.8563 
G01 X-64.1421 Y19.9767 
G01 X-64.1205 Y20.0574 
G01 X-64.1139 Y20.0688 
G01 X-64.1139 Y20.5577 
